%
O01001
(Using high feed G1 F500. instead of G0.)
(T1 D=0.125 CR=0.0625 - ZMIN=-0.2468 - ball end mill)
(T3 D=0.25 CR=0. - ZMIN=-0.9274 - flat end mill)
(T4 D=0.125 CR=0. - ZMIN=-0.9274 - flat end mill)
(T6 D=0.3937 CR=0. - ZMIN=-0.9274 - thread mill)
N10 G90 G94 G17
N15 G20
N20 G53 G0 Z0.

(Face2)
N25 T4 M6
N30 S30099 M3
N35 G54
N40 M8
N45 G0 X2.6236 Y1.0774
N50 G43 Z0.6 H4
N55 T1
N60 G0 Z0.2
N65 G1 Z-0.0275 F78.258
N70 G18 G3 X2.6111 Z-0.04 I-0.0125 K0.
N75 G1 X2.5818
N80 X2.2349
N85 G17 G2 Y1.1952 I0. J0.0589
N90 G1 X2.2594
N95 X2.8814
N100 X3.1446
N105 G3 Y1.3131 I0. J0.0589
N110 G1 X2.2675
N115 X2.2497
N120 G2 Y1.4309 I0. J0.0589
N125 G1 X3.3775
N130 X3.5853
N135 G3 Y1.5487 I0. J0.0589
N140 G1 X2.2167
N145 X2.167
N150 G2 Y1.6665 I0. J0.0589
N155 G1 X3.7723
N160 X3.9425
N165 G3 Y1.7843 I0. J0.0589
N170 G1 X2.1089
N175 G2 Y1.9022 I0. J0.0589
N180 G1 X2.1412
N185 X4.0989
N190 X4.2447
N195 G3 Y2.02 I0. J0.0589
N200 G1 X2.4935
N205 G2 Y2.1378 I0. J0.0589
N210 G1 X2.8002
N215 X4.3824
N220 X4.5145
N225 G3 Y2.2556 I0. J0.0589
N230 G1 X3.0693
N235 G2 Y2.3734 I0. J0.0589
N240 G1 X3.307
N245 X4.6442
N250 X4.7747
N255 G3 Y2.4913 I0. J0.0589
N260 G1 X3.519
N265 G2 Y2.6091 I0. J0.0589
N270 G1 X3.7093
N275 X4.9111
N280 X5.0604
N285 G3 Y2.7269 I0. J0.0589
N290 G1 X3.8824
N295 G2 Y2.8447 I0. J0.0589
N300 G1 X4.0412
N305 X5.2343
N310 X5.4562
N315 G3 Y2.9626 I0. J0.0589
N320 G1 X4.1887
N325 G2 Y3.0804 I0. J0.0589
N330 G1 X4.3276
N335 X5.7869
N340 G18 G2 X5.7994 Z-0.0275 I0. K0.0125
N345 G0 Z0.2
N350 X7.8465
N355 G1 Z-0.0275 F78.258
N360 G2 X7.859 Z-0.04 I0.0125 K0.
N365 G1 X7.9059
N370 X8.2078
N375 G17 G3 Y3.1982 I0. J0.0589
N380 G1 X8.198
N385 X4.4604
N390 G2 Y3.316 I0. J0.0589
N395 G1 X4.5901
N400 X8.1808
N405 X8.1904
N410 G3 Y3.4338 I0. J0.0589
N415 G1 X4.72
N420 G2 Y3.5517 I0. J0.0589
N425 G1 X4.8543
N430 X8.2173
N435 X8.2602
N440 G3 Y3.6695 I0. J0.0589
N445 G1 X5.0004
N450 G2 Y3.7873 I0. J0.0589
N455 G1 X5.1687
N460 X8.3218
N465 X8.3539
N470 G3 Y3.9051 I0. J0.0589
N475 G1 X5.3804
N480 G2 Y4.0229 I0. J0.0589
N485 G1 X5.6864
N490 X8.0066
N495 G18 G2 X8.0191 Z-0.0275 I0. K0.0125
N500 G0 Z0.2
N505 G1 X1.7368 Y0.5512 F500.
N510 Z-0.0275 F78.258
N515 G3 X1.7243 Z-0.04 I-0.0125 K0.
N520 G1 X1.6949
N525 X0.8801
N530 X0.7353
N535 G17 G2 Y0.6638 I0. J0.0563
N540 G1 X1.8396
N545 X1.9343
N550 G3 Y0.7763 I0. J0.0563
N555 G1 X0.6405
N560 X0.5755
N565 G2 Y0.8888 I0. J0.0563
N570 G1 X1.9994
N575 X2.0422
N580 G3 Y1.0014 I0. J0.0563
N585 G1 X0.5324
N590 X0.508
N595 G2 Y1.1139 I0. J0.0563
N600 G1 X2.0668
N605 X2.0748
N610 G3 Y1.2265 I0. J0.0563
N615 G1 X0.5
N620 G2 Y1.339 I0. J0.0563
N625 G1 X2.0748
N630 G3 Y1.4515 I0. J0.0563
N635 G1 X2.0682
N640 X0.5067
N645 G2 Y1.5641 I0. J0.0563
N650 G1 X0.5298
N655 X2.045
N660 G3 Y1.6766 I0. J0.0563
N665 G1 X2.0037
N670 X0.5712
N675 G2 Y1.7892 I0. J0.0563
N680 G1 X0.6341
N685 X1.9407
N690 G3 Y1.9017 I0. J0.0563
N695 G1 X1.8489
N700 X0.7259
N705 G2 Y2.0142 I0. J0.0563
N710 G1 X0.8651
N715 X1.71
N720 G18 G2 X1.7225 Z-0.0275 I0. K0.0125
N725 G0 Z0.2
N730 G1 X8.7122 Y2.6004 F500.
N735 Z-0.0275 F78.258
N740 G2 X8.7247 Z-0.04 I0.0125 K0.
N745 G1 X8.7541
N750 X9.5689
N755 X9.7136
N760 G17 G3 Y2.7129 I0. J0.0563
N765 G1 X8.6093
N770 X8.5145
N775 G2 Y2.8255 I0. J0.0563
N780 G1 X9.8083
N785 X9.8734
N790 G3 Y2.938 I0. J0.0563
N795 G1 X8.4495
N800 X8.4064
N805 G2 Y3.0505 I0. J0.0563
N810 G1 X9.9162
N815 X9.9408
N820 G3 Y3.1631 I0. J0.0563
N825 G1 X8.3821
N830 X8.374
N835 G2 Y3.2756 I0. J0.0563
N840 G1 X9.9488
N845 G3 Y3.3882 I0. J0.0563
N850 G1 X8.374
N855 G2 Y3.5007 I0. J0.0563
N860 G1 X8.3806
N865 X9.9421
N870 G3 Y3.6132 I0. J0.0563
N875 G1 X9.919
N880 X8.4039
N885 G2 Y3.7258 I0. J0.0563
N890 G1 X8.4451
N895 X9.8776
N900 G3 Y3.8383 I0. J0.0563
N905 G1 X9.8148
N910 X8.508
N915 G2 Y3.9508 I0. J0.0563
N920 G1 X8.5999
N925 X9.7229
N930 G3 Y4.0634 I0. J0.0563
N935 G1 X9.5837
N940 X8.7391
N945 G18 G3 X8.7266 Z-0.0275 I0. K0.0125
N950 G0 Z0.6

(Adaptive5)
N955 G1 X6.5163 Y3.669 F500.
N960 G0 Z0.6
N965 Z0.1
N970 G17 G3 X6.517 Y3.6741 Z0.0872 I0.0591 J-0.0052 F26.086
N975 X6.5181 Y3.6792 Z0.0743 I0.0585 J-0.0103
N980 X6.5196 Y3.6841 Z0.0615 I0.0573 J-0.0154
N985 X6.5216 Y3.6889 Z0.0486 I0.0558 J-0.0203
N990 X6.524 Y3.6935 Z0.0358 I0.0538 J-0.0251
N995 X6.5268 Y3.6979 Z0.0229 I0.0514 J-0.0297
N1000 X6.53 Y3.702 Z0.0101 I0.0486 J-0.0341
N1005 X6.5335 Y3.7058 Z-0.0028 I0.0455 J-0.0382
N1010 X6.5373 Y3.7093 Z-0.0156 I0.042 J-0.042
N1015 X6.5414 Y3.7125 Z-0.0285 I0.0382 J-0.0455
N1020 X6.5458 Y3.7152 Z-0.0413 I0.034 J-0.0486
N1025 X6.6348 Y3.6638 Z-0.05 I0.0297 J-0.0514
N1030 X6.516 I-0.0594 J0.
N1035 X6.6348 I0.0594 J0.
N1040 G1 X6.6355 Y3.6893 F78.258
N1045 G3 X6.6259 Y3.7309 I-0.0371 J0.0134
N1050 X6.551 Y3.753 I-0.0551 J-0.049
N1055 X6.4965 Y3.6116 I0.0213 J-0.0894
N1060 X6.6605 Y3.6216 I0.0792 J0.0516
N1065 X6.6785 Y3.6893 I-0.1245 J0.0693
N1070 X6.5813 Y3.7923 I-0.1055 J-0.0021
N1075 X6.456 Y3.724 I-0.0139 J-0.1236
N1080 X6.6686 Y3.5666 I0.1193 J-0.0612
N1085 X6.7131 Y3.7318 I-0.1108 J0.1184
N1090 X6.5357 Y3.8316 I-0.1451 J-0.0503
N1095 X6.4035 Y3.6232 I0.0335 J-0.1675
N1100 X6.6979 Y3.5355 I0.1721 J0.0397
N1105 X6.7279 Y3.7968 I-0.1332 J0.1477
N1110 X6.4523 Y3.8441 I-0.1625 J-0.1204
N1115 X6.3851 Y3.5509 I0.1184 J-0.1814
N1120 X6.7116 Y3.4886 I0.1906 J0.1121
N1125 X6.7666 Y3.8197 I-0.1465 J0.1944
N1130 X6.4488 Y3.8945 I-0.2012 J-0.1425
N1135 X6.334 Y3.5505 I0.1214 J-0.2316
N1140 X6.7363 Y3.4501 I0.2418 J0.1126
N1145 X6.7785 Y3.8778 I-0.1695 J0.2327
N1150 X6.4315 Y3.9377 I-0.2135 J-0.2018
N1155 X6.2729 Y3.5826 I0.1381 J-0.2746
N1160 X6.7371 Y3.3946 I0.3027 J0.0804
N1165 X6.8356 Y3.8823 I-0.1709 J0.2883
N1170 X6.3581 Y3.947 I-0.2711 J-0.2064
N1175 X6.2164 Y3.6869 I0.2084 J-0.2822
N1180 X6.7208 Y3.3336 I0.3589 J-0.0242
N1185 X6.9324 Y3.5746 I-0.1509 J0.346
N1190 X6.6379 Y4.0565 I-0.3632 J0.109
N1195 X6.287 Y3.9481 I-0.0735 J-0.3842
N1200 X6.2701 Y3.3937 I0.2847 J-0.2862
N1205 X6.8234 Y3.339 I0.306 J0.2703
N1210 X6.8491 Y4.0057 I-0.2563 J0.3437
N1215 X6.2486 Y3.9767 I-0.2849 J-0.3325
N1220 X6.2098 Y3.3927 I0.3224 J-0.3147
N1225 X6.8243 Y3.2817 I0.3662 J0.2709
N1230 X6.8737 Y4.0473 I-0.2571 J0.401
N1235 X6.6748 Y4.1459 I-0.3064 J-0.3684
N1240 G1 X6.6723 Y4.1457
N1245 X6.5648 Y4.145
N1250 X6.478 Y4.142
N1255 G3 X6.3584 Y4.112 I0.0159 J-0.3169
N1260 X6.0759 Y3.715 I0.2073 J-0.4465
N1265 X6.4447 Y3.1779 I0.4982 J-0.0531
N1270 G1 X6.4479 Y3.1777
N1275 G2 X6.5301 Y3.1815 I0.5712 J-11.3675
N1280 G1 X6.6575 Y3.1841
N1285 G3 X6.7375 Y3.1913 I0.0139 J0.2937
N1290 X6.8944 Y3.2732 I-0.1134 J0.4086
N1295 X6.8215 Y4.1407 I-0.3268 J0.4094
N1300 G1 X6.8172 Y4.1423
N1305 X6.8127 Y4.1435
N1310 G3 X6.6723 Y4.1456 I-0.1057 J-2.3223
N1315 X6.6632 Y4.1416 I0.0001 J-0.0125
N1320 G1 X6.6613 Y4.1399
N1325 X6.6592 Y4.1387
N1330 X6.6569 Y4.1379
N1335 X6.6544 Y4.1375
N1340 X6.6437 Y4.1372
N1345 X6.5143 Y4.1328
N1350 X6.5121 Y4.1329
N1355 X6.51 Y4.1334
N1360 X6.5079 Y4.1343
N1365 X6.5076 Y4.1345
N1370 G3 X6.478 Y4.142 I-0.0296 J-0.0548
N1375 G1 X6.4316 Y4.1403
N1380 G3 X6.3299 Y4.1332 I0.077 J-1.8153
N1385 X6.2716 Y4.1127 I0.0336 J-0.1892
N1390 X6.1729 Y4.0357 I0.1804 J-0.3329
N1395 X6.1348 Y3.3333 I0.3977 J-0.3738
N1400 X6.3282 Y3.1713 I0.4346 J0.3225
N1405 G1 X6.3337 Y3.1704
N1410 X6.3393
N1415 G2 X6.4512 Y3.1777 I0.1881 J-2.0216
N1420 G3 X6.457 Y3.2006 I-0.0011 J0.0125
N1425 G1 X6.4546 Y3.2021 Z-0.0497
N1430 X6.4524 Y3.2035 Z-0.0488
N1435 X6.4505 Y3.2049 Z-0.0473
N1440 X6.4488 Y3.2059 Z-0.0453
N1445 X6.4476 Y3.2068 Z-0.0429
N1450 X6.4468 Y3.2073 Z-0.0403
N1455 X6.4465 Y3.2074 Z-0.0375
N1460 G0 Z0.2
N1465 G1 X6.3861 Y4.1226 F500.
N1470 G0 Z-0.025
N1475 G1 Z-0.0375 F78.258
N1480 X6.3858 Y4.1227 Z-0.0403
N1485 X6.385 Y4.1231 Z-0.0429
N1490 X6.3837 Y4.1238 Z-0.0453
N1495 X6.3819 Y4.1247 Z-0.0473
N1500 X6.3798 Y4.1258 Z-0.0488
N1505 X6.3775 Y4.127 Z-0.0497
N1510 X6.375 Y4.1282 Z-0.05
N1515 G3 X6.3448 Y4.1349 I-0.0282 J-0.0556
N1520 G1 X6.2927 Y4.1314
N1525 G3 X6.2298 Y4.1241 I0.0131 J-0.3877
N1530 X6.1605 Y4.0856 I0.0645 J-0.1975
N1535 X6.0624 Y3.9693 I0.2802 J-0.3359
N1540 X6.2385 Y3.1684 I0.5103 J-0.3076
N1545 G1 X6.2445 Y3.1651
N1550 X6.2511 Y3.1635
N1555 X6.2579
N1560 X6.2811 Y3.1655
N1565 X6.3393 Y3.1704
N1570 G3 X6.3444 Y3.1934 I-0.0015 J0.0124
N1575 G1 X6.342 Y3.1949 Z-0.0497
N1580 X6.3397 Y3.1963 Z-0.0488
N1585 X6.3377 Y3.1975 Z-0.0473
N1590 X6.336 Y3.1985 Z-0.0453
N1595 X6.3348 Y3.1993 Z-0.0429
N1600 X6.334 Y3.1998 Z-0.0403
N1605 X6.3337 Y3.2 Z-0.0375
N1610 G0 Z0.2
N1615 G1 X6.2805 Y4.1177 F500.
N1620 G0 Z-0.025
N1625 G1 Z-0.0375 F78.258
N1630 X6.2802 Y4.1178 Z-0.0403
N1635 X6.2794 Y4.1182 Z-0.0429
N1640 X6.278 Y4.1188 Z-0.0453
N1645 X6.2762 Y4.1197 Z-0.0473
N1650 X6.2741 Y4.1207 Z-0.0488
N1655 X6.2717 Y4.1218 Z-0.0497
N1660 X6.2692 Y4.123 Z-0.05
N1665 G3 X6.2464 Y4.1272 I-0.0197 J-0.0424
N1670 G1 X6.1711 Y4.1195
N1675 G3 X6.1139 Y4.0962 I0.0173 J-0.1245
N1680 X6.05 Y4.0346 I0.1589 J-0.2288
N1685 X5.9396 Y3.7798 I0.4746 J-0.3569
N1690 X6.1671 Y3.1614 I0.6331 J-0.1182
N1695 G1 X6.1736 Y3.1574
N1700 X6.1809 Y3.1553
N1705 X6.1886 Y3.1552
N1710 X6.2579 Y3.1635
N1715 G0 Z0.2
N1720 G1 X6.2128 Y4.1086 F500.
N1725 G0 Z-0.025
N1730 G1 Z-0.0375 F78.258
N1735 X6.2125 Y4.1087 Z-0.0403
N1740 X6.2117 Y4.1091 Z-0.0429
N1745 X6.2104 Y4.1097 Z-0.0453
N1750 X6.2086 Y4.1105 Z-0.0473
N1755 X6.2064 Y4.1115 Z-0.0488
N1760 X6.204 Y4.1127 Z-0.0497
N1765 X6.2015 Y4.1138 Z-0.05
N1770 G3 X6.1711 Y4.1195 I-0.0262 J-0.0565
N1775 G1 X6.1595 Y4.1183
N1780 G3 X6.0823 Y4.107 I0.0607 J-0.6874
N1785 X6.0173 Y4.0619 I0.0656 J-0.1639
N1790 X5.959 Y3.9804 I0.2623 J-0.2489
N1795 X5.9033 Y3.4858 I0.6 J-0.318
N1800 X6.1013 Y3.1546 I0.6648 J0.1726
N1805 G1 X6.1085 Y3.1498
N1810 X6.1167 Y3.1472
N1815 X6.1253
N1820 X6.1421 Y3.1497
N1825 X6.1886 Y3.1552
N1830 G0 Z0.2
N1835 G1 X6.1379 Y4.1006 F500.
N1840 G0 Z-0.025
N1845 G1 Z-0.0375 F78.258
N1850 X6.1376 Y4.1007 Z-0.0403
N1855 X6.1368 Y4.1011 Z-0.0429
N1860 X6.1354 Y4.1017 Z-0.0453
N1865 X6.1336 Y4.1024 Z-0.0473
N1870 X6.1314 Y4.1034 Z-0.0488
N1875 X6.129 Y4.1044 Z-0.0497
N1880 X6.1264 Y4.1055 Z-0.05
N1885 G3 X6.0958 Y4.1099 I-0.0241 J-0.0575
N1890 G1 X6.0321 Y4.101
N1895 G3 X5.974 Y4.071 I0.0219 J-0.1137
N1900 X5.9189 Y4.0036 I0.1771 J-0.2009
N1905 X5.8429 Y3.7886 I0.5438 J-0.3132
N1910 X6.041 Y3.1458 I0.7285 J-0.1274
N1915 G1 X6.0485 Y3.1407
N1920 X6.0571 Y3.1379
N1925 X6.0661
N1930 X6.1253 Y3.1472
N1935 G0 Z0.2
N1940 G1 X6.0742 Y4.0917 F500.
N1945 G0 Z-0.025
N1950 G1 Z-0.0375 F78.258
N1955 X6.074 Y4.0918 Z-0.0403
N1960 X6.0731 Y4.0921 Z-0.0429
N1965 X6.0717 Y4.0927 Z-0.0453
N1970 X6.0699 Y4.0935 Z-0.0473
N1975 X6.0677 Y4.0944 Z-0.0488
N1980 X6.0653 Y4.0954 Z-0.0497
N1985 X6.0627 Y4.0965 Z-0.05
N1990 G3 X6.0321 Y4.101 I-0.0241 J-0.0575
N1995 G1 X6.0263 Y4.1002
N2000 G3 X5.9532 Y4.0863 I0.0918 J-0.6841
N2005 X5.8985 Y4.0462 I0.0579 J-0.1366
N2010 X5.8472 Y3.9669 I0.2333 J-0.207
N2015 X5.7841 Y3.6956 I0.6507 J-0.2943
N2020 X5.9838 Y3.1361 I0.7869 J-0.0345
N2025 G1 X5.9915 Y3.1309
N2030 X6.0004 Y3.1283
N2035 X6.0096 Y3.1285
N2040 X6.0263 Y3.1316
N2045 X6.0661 Y3.1379
N2050 G3 X6.0695 Y3.1613 I-0.0024 J0.0123
N2055 G1 X6.067 Y3.1626 Z-0.0497
N2060 X6.0647 Y3.1638 Z-0.0488
N2065 X6.0626 Y3.1649 Z-0.0473
N2070 X6.0608 Y3.1658 Z-0.0453
N2075 X6.0595 Y3.1664 Z-0.0429
N2080 X6.0587 Y3.1669 Z-0.0403
N2085 X6.0584 Y3.167 Z-0.0375
N2090 G0 Z0.2
N2095 G1 X6.0109 Y4.0825 F500.
N2100 G0 Z-0.025
N2105 G1 Z-0.0375 F78.258
N2110 X6.0106 Y4.0826 Z-0.0403
N2115 X6.0097 Y4.0829 Z-0.0429
N2120 X6.0083 Y4.0835 Z-0.0453
N2125 X6.0065 Y4.0841 Z-0.0473
N2130 X6.0043 Y4.085 Z-0.0488
N2135 X6.0018 Y4.0859 Z-0.0497
N2140 X5.9992 Y4.0869 Z-0.05
N2145 G3 X5.9684 Y4.0901 I-0.0217 J-0.0584
N2150 G1 X5.9105 Y4.0796
N2155 G3 X5.852 Y4.0479 I0.0181 J-0.1032
N2160 X5.8041 Y3.9825 I0.1691 J-0.174
N2165 X5.7488 Y3.8136 I0.5388 J-0.2701
N2170 X5.9263 Y3.1286 I0.8207 J-0.1528
N2175 X5.9486 Y3.1172 I0.0248 J0.0211
N2180 G1 X5.9557 Y3.1178
N2185 X6.0096 Y3.1285
N2190 G3 X6.0123 Y3.152 I-0.0027 J0.0122
N2195 G1 X6.0098 Y3.1532 Z-0.0497
N2200 X6.0074 Y3.1543 Z-0.0488
N2205 X6.0053 Y3.1553 Z-0.0473
N2210 X6.0035 Y3.1562 Z-0.0453
N2215 X6.0022 Y3.1569 Z-0.0429
N2220 X6.0013 Y3.1573 Z-0.0403
N2225 X6.001 Y3.1574 Z-0.0375
N2230 G0 Z0.2
N2235 G1 X5.9472 Y4.0711 F500.
N2240 G0 Z-0.025
N2245 G1 Z-0.0375 F78.258
N2250 X5.9469 Y4.0712 Z-0.0403
N2255 X5.9461 Y4.0715 Z-0.0429
N2260 X5.9447 Y4.072 Z-0.0453
N2265 X5.9428 Y4.0727 Z-0.0473
N2270 X5.9406 Y4.0735 Z-0.0488
N2275 X5.9381 Y4.0744 Z-0.0497
N2280 X5.9355 Y4.0754 Z-0.05
N2285 G3 X5.9047 Y4.0785 I-0.0215 J-0.0585
N2290 G1 X5.8868 Y4.075
N2295 X5.8411 Y4.0646
N2300 G3 X5.7887 Y4.0302 I0.0315 J-0.1047
N2305 X5.7428 Y3.9596 I0.189 J-0.173
N2310 X5.692 Y3.763 I0.6045 J-0.2612
N2315 X5.8694 Y3.1219 I0.8764 J-0.1026
N2320 G1 X5.8753 Y3.1157
N2325 G3 X5.9035 Y3.107 I0.0215 J0.0197
N2330 G1 X5.9105 Y3.1087
N2335 X5.9163 Y3.1099
N2340 X5.9557 Y3.1178
N2345 G3 X5.9581 Y3.1413 I-0.0029 J0.0122
N2350 G1 X5.9556 Y3.1424 Z-0.0497
N2355 X5.9532 Y3.1436 Z-0.0488
N2360 X5.9511 Y3.1446 Z-0.0473
N2365 X5.9493 Y3.1454 Z-0.0453
N2370 X5.9479 Y3.146 Z-0.0429
N2375 X5.9471 Y3.1464 Z-0.0403
N2380 X5.9468 Y3.1465 Z-0.0375
N2385 G0 Z0.2
N2390 G1 X5.8838 Y4.0589 F500.
N2395 G0 Z-0.025
N2400 G1 Z-0.0375 F78.258
N2405 X5.8835 Y4.059 Z-0.0403
N2410 X5.8826 Y4.0592 Z-0.0429
N2415 X5.8812 Y4.0597 Z-0.0453
N2420 X5.8793 Y4.0603 Z-0.0473
N2425 X5.8771 Y4.061 Z-0.0488
N2430 X5.8746 Y4.0619 Z-0.0497
N2435 X5.8719 Y4.0627 Z-0.05
N2440 G3 X5.8411 Y4.0646 I-0.0192 J-0.0593
N2445 G1 X5.7848 Y4.0519
N2450 G3 X5.7358 Y4.0212 I0.0274 J-0.0984
N2455 X5.6933 Y3.9585 I0.1667 J-0.1588
N2460 X5.65 Y3.8124 I0.5056 J-0.2293
N2465 X5.8141 Y3.1147 I0.9143 J-0.1532
N2470 G1 X5.8225 Y3.105
N2475 G3 X5.8527 Y3.0946 I0.0234 J0.0192
N2480 G1 X5.8932 Y3.1046
N2485 X5.9035 Y3.107
N2490 G3 X5.9051 Y3.1306 I-0.0033 J0.0121
N2495 G1 X5.9025 Y3.1317 Z-0.0497
N2500 X5.9001 Y3.1327 Z-0.0488
N2505 X5.8979 Y3.1336 Z-0.0473
N2510 X5.8961 Y3.1344 Z-0.0453
N2515 X5.8947 Y3.135 Z-0.0429
N2520 X5.8939 Y3.1353 Z-0.0403
N2525 X5.8936 Y3.1355 Z-0.0375
N2530 G0 Z0.2
N2535 G1 X5.8276 Y4.0461 F500.
N2540 G0 Z-0.025
N2545 G1 Z-0.0375 F78.258
N2550 X5.8273 Y4.0462 Z-0.0403
N2555 X5.8264 Y4.0465 Z-0.0429
N2560 X5.825 Y4.0469 Z-0.0453
N2565 X5.8231 Y4.0475 Z-0.0473
N2570 X5.8209 Y4.0483 Z-0.0488
N2575 X5.8183 Y4.0491 Z-0.0497
N2580 X5.8157 Y4.0499 Z-0.05
N2585 G3 X5.7848 Y4.0519 I-0.0192 J-0.0593
N2590 G1 X5.7774 Y4.0501
N2595 X5.7716 Y4.0487
N2600 X5.7253 Y4.0359
N2605 G3 X5.6757 Y4.0022 I0.0313 J-0.0993
N2610 G1 X5.6665 Y3.9914
N2615 G3 X5.6258 Y3.9123 I0.2293 J-0.1682
N2620 X5.5899 Y3.7123 I0.6946 J-0.2277
N2625 X5.758 Y3.1095 I0.9748 J-0.053
N2630 G1 X5.768 Y3.0969
N2635 X5.7737 Y3.0906
N2640 G3 X5.8024 Y3.0822 I0.0214 J0.0198
N2645 G1 X5.8179 Y3.0861
N2650 X5.8527 Y3.0946
N2655 G3 X5.8541 Y3.1182 I-0.0034 J0.012
N2660 G1 X5.8515 Y3.1193 Z-0.0497
N2665 X5.8491 Y3.1203 Z-0.0488
N2670 X5.8469 Y3.1212 Z-0.0473
N2675 X5.8451 Y3.122 Z-0.0453
N2680 X5.8437 Y3.1225 Z-0.0429
N2685 X5.8428 Y3.1229 Z-0.0403
N2690 X5.8426 Y3.123 Z-0.0375
N2695 G0 Z0.2
N2700 G1 X5.7682 Y4.0321 F500.
N2705 G0 Z-0.025
N2710 G1 Z-0.0375 F78.258
N2715 X5.7679 Y4.0322 Z-0.0403
N2720 X5.767 Y4.0324 Z-0.0429
N2725 X5.7656 Y4.0328 Z-0.0453
N2730 X5.7637 Y4.0333 Z-0.0473
N2735 X5.7614 Y4.034 Z-0.0488
N2740 X5.7588 Y4.0347 Z-0.0497
N2745 X5.7562 Y4.0354 Z-0.05
N2750 G3 X5.7253 Y4.0359 I-0.0165 J-0.0601
N2755 G1 X5.6781 Y4.0229
N2760 G3 X5.6193 Y3.9855 I0.0231 J-0.1013
N2765 G1 X5.6101 Y3.974
N2770 G3 X5.5717 Y3.8949 I0.2319 J-0.1613
N2775 X5.5403 Y3.6942 I0.7119 J-0.2142
N2780 X5.7101 Y3.0935 I1.0217 J-0.0355
N2785 G1 X5.7194 Y3.0824
N2790 X5.7254 Y3.0762
N2795 G3 X5.7548 Y3.0683 I0.0212 J0.0201
N2800 G1 X5.7947 Y3.08
N2805 X5.8005 Y3.0817
N2810 X5.8024 Y3.0822
N2815 G3 X5.8035 Y3.1058 I-0.0035 J0.012
N2820 G1 X5.801 Y3.1068 Z-0.0497
N2825 X5.7985 Y3.1078 Z-0.0488
N2830 X5.7963 Y3.1087 Z-0.0473
N2835 X5.7945 Y3.1094 Z-0.0453
N2840 X5.7931 Y3.11 Z-0.0429
N2845 X5.7922 Y3.1103 Z-0.0403
N2850 X5.7919 Y3.1104 Z-0.0375
N2855 G0 Z0.2
N2860 G1 X5.7104 Y4.0169 F500.
N2865 G0 Z-0.025
N2870 G1 Z-0.0375 F78.258
N2875 X5.7101 Y4.017 Z-0.0403
N2880 X5.7092 Y4.0172 Z-0.0429
N2885 X5.7078 Y4.0176 Z-0.0453
N2890 X5.7058 Y4.0181 Z-0.0473
N2895 X5.7035 Y4.0186 Z-0.0488
N2900 X5.701 Y4.0193 Z-0.0497
N2905 X5.6983 Y4.02 Z-0.05
N2910 G3 X5.6673 Y4.0198 I-0.0151 J-0.0604
N2915 G1 X5.6558 Y4.0163
N2920 G3 X5.5971 Y3.9961 I0.1708 J-0.5905
N2925 X5.545 Y3.94 I0.0741 J-0.1212
N2930 X5.511 Y3.8497 I0.2814 J-0.1575
N2935 X5.4926 Y3.5965 I0.8599 J-0.1897
N2940 X5.653 Y3.0918 I1.0704 J0.0623
N2945 G1 X5.6646 Y3.0757
N2950 X5.6728 Y3.066
N2955 X5.6773 Y3.0614
N2960 G3 X5.7063 Y3.054 I0.0207 J0.0205
N2965 G1 X5.7426 Y3.0647
N2970 X5.7548 Y3.0683
N2975 G3 X5.7551 Y3.0919 I-0.0039 J0.0119
N2980 G1 X5.7524 Y3.0928 Z-0.0497
N2985 X5.75 Y3.0937 Z-0.0488
N2990 X5.7477 Y3.0945 Z-0.0473
N2995 X5.7459 Y3.0952 Z-0.0453
N3000 X5.7445 Y3.0957 Z-0.0429
N3005 X5.7436 Y3.096 Z-0.0403
N3010 X5.7433 Y3.0961 Z-0.0375
N3015 G0 Z0.2
N3020 G1 X5.6526 Y3.9994 F500.
N3025 G0 Z-0.025
N3030 G1 Z-0.0375 F78.258
N3035 X5.6523 Y3.9995 Z-0.0403
N3040 X5.6513 Y3.9997 Z-0.0429
N3045 X5.6499 Y4. Z-0.0453
N3050 X5.648 Y4.0004 Z-0.0473
N3055 X5.6456 Y4.0009 Z-0.0488
N3060 X5.6431 Y4.0015 Z-0.0497
N3065 X5.6404 Y4.0021 Z-0.05
N3070 G3 X5.6094 Y4.0011 I-0.0135 J-0.0608
N3075 G1 X5.5631 Y3.9859
N3080 G3 X5.5044 Y3.9424 I0.0299 J-0.1017
N3085 X5.4692 Y3.8705 I0.196 J-0.1406
N3090 X5.4439 Y3.7202 I0.6018 J-0.1785
N3095 X5.5993 Y3.0862 I1.1078 J-0.0645
N3100 G1 X5.6121 Y3.067
N3105 X5.6216 Y3.0549
N3110 X5.6288 Y3.0471
N3115 G3 X5.6609 Y3.0385 I0.0226 J0.02
N3120 G1 X5.6963 Y3.0508
N3125 X5.7021 Y3.0527
N3130 X5.7063 Y3.054
N3135 G3 X5.7066 Y3.0776 I-0.004 J0.0119
N3140 G1 X5.704 Y3.0786 Z-0.0497
N3145 X5.7015 Y3.0794 Z-0.0488
N3150 X5.6993 Y3.0802 Z-0.0473
N3155 X5.6974 Y3.0809 Z-0.0453
N3160 X5.696 Y3.0814 Z-0.0429
N3165 X5.6951 Y3.0817 Z-0.0403
N3170 X5.6948 Y3.0818 Z-0.0375
N3175 G0 Z0.2
N3180 G1 X5.5947 Y3.9821 F500.
N3185 G0 Z-0.025
N3190 G1 Z-0.0375 F78.258
N3195 X5.5944 Y3.9822 Z-0.0403
N3200 X5.5935 Y3.9823 Z-0.0429
N3205 X5.592 Y3.9826 Z-0.0453
N3210 X5.59 Y3.9829 Z-0.0473
N3215 X5.5877 Y3.9833 Z-0.0488
N3220 X5.5851 Y3.9837 Z-0.0497
N3225 X5.5824 Y3.9842 Z-0.05
N3230 G3 X5.5515 Y3.9817 I-0.0105 J-0.0614
N3235 G1 X5.4936 Y3.9594
N3240 G3 X5.4491 Y3.9201 I0.0433 J-0.0939
N3245 G1 X5.4407 Y3.9073
N3250 G3 X5.4094 Y3.823 I0.2581 J-0.1439
N3255 X5.3936 Y3.6203 I0.8002 J-0.1645
N3260 X5.5429 Y3.0857 I1.1605 J0.036
N3265 G1 X5.5562 Y3.0639
N3270 X5.5677 Y3.0475
N3275 X5.5769 Y3.0365
N3280 G3 X5.5991 Y3.0211 I0.0334 J0.0247
N3285 G1 X5.6068 Y3.0208
N3290 X5.6143 Y3.0223
N3295 X5.6609 Y3.0385
N3300 G3 X5.6601 Y3.0621 I-0.0045 J0.0117
N3305 G1 X5.6574 Y3.0629 Z-0.0497
N3310 X5.6549 Y3.0637 Z-0.0488
N3315 X5.6526 Y3.0644 Z-0.0473
N3320 X5.6507 Y3.065 Z-0.0453
N3325 X5.6493 Y3.0654 Z-0.0429
N3330 X5.6484 Y3.0657 Z-0.0403
N3335 X5.6481 Y3.0658 Z-0.0375
N3340 G0 Z0.2
N3345 G1 X5.5368 Y3.9599 F500.
N3350 G0 Z-0.025
N3355 G1 Z-0.0375 F78.258
N3360 X5.5365 Z-0.0403
N3365 X5.5356 Y3.9601 Z-0.0429
N3370 X5.5341 Y3.9603 Z-0.0453
N3375 X5.5321 Y3.9607 Z-0.0473
N3380 X5.5298 Y3.9611 Z-0.0488
N3385 X5.5272 Y3.9615 Z-0.0497
N3390 X5.5245 Y3.962 Z-0.05
N3395 G3 X5.4936 Y3.9594 I-0.0105 J-0.0614
N3400 G1 X5.463 Y3.9477
N3405 G3 X5.4251 Y3.9299 I0.0756 J-0.211
N3410 X5.3838 Y3.8785 I0.0865 J-0.1118
N3415 X5.3552 Y3.7889 I0.2769 J-0.1377
N3420 X5.3479 Y3.5603 I0.8883 J-0.1429
N3425 X5.4925 Y3.0756 I1.2034 J0.095
N3430 G1 X5.5055 Y3.0537
N3435 X5.5184 Y3.0345
N3440 X5.5277 Y3.0229
N3445 X5.5353 Y3.0148
N3450 X5.5399 Y3.0106
N3455 G3 X5.5704 Y3.0051 I0.0196 J0.0216
N3460 G1 X5.6037 Y3.0185
N3465 X5.6112 Y3.0213
N3470 X5.6143 Y3.0223
N3475 G0 Z0.2
N3480 G1 X5.4792 Y3.9387 F500.
N3485 G0 Z-0.025
N3490 G1 Z-0.0375 F78.258
N3495 X5.4789 Z-0.0403
N3500 X5.4779 Y3.9388 Z-0.0429
N3505 X5.4765 Y3.939 Z-0.0453
N3510 X5.4745 Y3.9392 Z-0.0473
N3515 X5.4721 Y3.9395 Z-0.0488
N3520 X5.4695 Y3.9398 Z-0.0497
N3525 X5.4667 Y3.9401 Z-0.05
N3530 G3 X5.4361 Y3.9361 I-0.0074 J-0.0619
N3535 G1 X5.384 Y3.9129
N3540 G3 X5.3417 Y3.8733 I0.0456 J-0.0911
N3545 G1 X5.3346 Y3.8618
N3550 G3 X5.3062 Y3.7776 I0.2528 J-0.1323
N3555 X5.2978 Y3.5745 I0.8172 J-0.1355
N3560 X5.4431 Y3.0637 I1.2481 J0.0792
N3565 G1 X5.4561 Y3.0418
N3570 X5.4695 Y3.0211
N3575 G3 X5.4962 Y2.9912 I0.1254 J0.0849
N3580 X5.5253 Y2.987 I0.0182 J0.0228
N3585 G1 X5.5704 Y3.0051
N3590 G3 X5.5684 Y3.0287 I-0.0051 J0.0114
N3595 G1 X5.5657 Y3.0294 Z-0.0497
N3600 X5.5632 Y3.03 Z-0.0488
N3605 X5.5609 Y3.0306 Z-0.0473
N3610 X5.5589 Y3.0311 Z-0.0453
N3615 X5.5575 Y3.0315 Z-0.0429
N3620 X5.5566 Y3.0317 Z-0.0403
N3625 X5.5563 Y3.0318 Z-0.0375
N3630 G0 Z0.2
N3635 G1 X5.4271 Y3.9155 F500.
N3640 G0 Z-0.025
N3645 G1 Z-0.0375 F78.258
N3650 X5.4268 Y3.9156 Z-0.0403
N3655 X5.4258 Y3.9157 Z-0.0429
N3660 X5.4244 Y3.9159 Z-0.0453
N3665 X5.4224 Y3.9161 Z-0.0473
N3670 X5.4201 Y3.9164 Z-0.0488
N3675 X5.4174 Y3.9167 Z-0.0497
N3680 X5.4147 Y3.917 Z-0.05
N3685 G3 X5.384 Y3.9129 I-0.0073 J-0.0619
N3690 G1 X5.3663 Y3.905
N3695 G3 X5.3148 Y3.8781 I0.1824 J-0.412
N3700 X5.2765 Y3.8249 I0.0974 J-0.1103
N3705 X5.2524 Y3.7337 I0.2897 J-0.1252
N3710 X5.2548 Y3.5049 I0.9366 J-0.1048
N3715 X5.3975 Y3.0453 I1.2861 J0.1473
N3720 G1 X5.4105 Y3.0234
N3725 X5.4244 Y3.0025
N3730 G3 X5.4527 Y2.9716 I0.1215 J0.0829
N3735 X5.4829 Y2.968 I0.018 J0.023
N3740 G2 X5.5253 Y2.987 I0.346 J-0.7176
N3745 G3 X5.5233 Y3.0105 I-0.0051 J0.0114
N3750 G1 X5.5206 Y3.0112 Z-0.0497
N3755 X5.5181 Y3.0118 Z-0.0488
N3760 X5.5158 Y3.0124 Z-0.0473
N3765 X5.5139 Y3.0129 Z-0.0453
N3770 X5.5124 Y3.0133 Z-0.0429
N3775 X5.5115 Y3.0135 Z-0.0403
N3780 X5.5112 Y3.0136 Z-0.0375
N3785 G0 Z0.2
N3790 G1 X5.361 Y3.8883 F500.
N3795 G0 Z-0.025
N3800 G1 Z-0.0375 F78.258
N3805 X5.3607 Z-0.0403
N3810 X5.3598 Z-0.0429
N3815 X5.3583 Y3.8884 Z-0.0453
N3820 X5.3563 Y3.8886 Z-0.0473
N3825 X5.3539 Y3.8887 Z-0.0488
N3830 X5.3513 Y3.8889 Z-0.0497
N3835 X5.3485 Y3.8891 Z-0.05
N3840 G3 X5.3257 Y3.8849 I-0.0031 J-0.0466
N3845 G1 X5.2736 Y3.8584
N3850 G3 X5.2335 Y3.8153 I0.0526 J-0.0892
N3855 X5.2074 Y3.7403 I0.212 J-0.1159
N3860 X5.199 Y3.588 I0.6593 J-0.1126
N3865 X5.3518 Y3.0271 I1.3279 J0.0605
N3870 G1 X5.3649 Y3.0052
N3875 X5.3787 Y2.9844
N3880 G3 X5.4093 Y2.9514 I0.1252 J0.0853
N3885 X5.4394 Y2.948 I0.0179 J0.023
N3890 G1 X5.4829 Y2.968
N3895 G0 Z0.2
N3900 G1 X5.3165 Y3.8632 F500.
N3905 G0 Z-0.025
N3910 G1 Z-0.0375 F78.258
N3915 X5.3162 Y3.8633 Z-0.0403
N3920 X5.3153 Z-0.0429
N3925 X5.3138 Y3.8634 Z-0.0453
N3930 X5.3118 Y3.8636 Z-0.0473
N3935 X5.3094 Y3.8637 Z-0.0488
N3940 X5.3068 Y3.8639 Z-0.0497
N3945 X5.304 Y3.8641 Z-0.05
N3950 G3 X5.2736 Y3.8584 I-0.0042 J-0.0622
N3955 G1 X5.267 Y3.855
N3960 X5.2186 Y3.8274
N3965 G3 X5.1794 Y3.7812 I0.0582 J-0.0893
N3970 X5.1555 Y3.7017 I0.2276 J-0.1115
N3975 X5.1542 Y3.5237 I0.7571 J-0.0944
N3980 X5.3035 Y3.0134 I1.3692 J0.1235
N3985 G1 X5.3166 Y2.9915
N3990 X5.3305 Y2.9701
N3995 X5.343 Y2.9536
N4000 G3 X5.3683 Y2.929 I0.108 J0.0857
N4005 X5.3983 Y2.9272 I0.0165 J0.024
N4010 G2 X5.4394 Y2.948 I0.4343 J-0.8094
N4015 G0 Z0.2
N4020 G1 X5.2612 Y3.8343 F500.
N4025 G0 Z-0.025
N4030 G1 Z-0.0375 F78.258
N4035 X5.2609 Z-0.0403
N4040 X5.26 Y3.8344 Z-0.0429
N4045 X5.2585 Z-0.0453
N4050 X5.2565 Z-0.0473
N4055 X5.2542 Y3.8345 Z-0.0488
N4060 X5.2515 Z-0.0497
N4065 X5.2487 Y3.8346 Z-0.05
N4070 G3 X5.2186 Y3.8274 I-0.0011 J-0.0623
N4075 G1 X5.1926 Y3.8125
N4080 G3 X5.1553 Y3.7883 I0.1147 J-0.2179
N4085 X5.1207 Y3.7326 I0.0979 J-0.0993
N4090 X5.1031 Y3.6402 I0.2959 J-0.1043
N4095 X5.1193 Y3.412 I1.0091 J-0.0431
N4100 X5.2541 Y3.0021 I1.3889 J0.2298
N4105 G1 X5.267 Y2.9801
N4110 X5.2805 Y2.9585
N4115 X5.2941 Y2.9394
N4120 G3 X5.3256 Y2.9076 I0.1198 J0.0871
N4125 X5.3565 Y2.9054 I0.0172 J0.0236
N4130 G1 X5.3983 Y2.9272
N4135 G3 X5.394 Y2.9504 I-0.0062 J0.0109
N4140 G1 X5.3912 Y2.9509 Z-0.0497
N4145 X5.3886 Y2.9513 Z-0.0488
N4150 X5.3863 Y2.9516 Z-0.0473
N4155 X5.3843 Y2.9519 Z-0.0453
N4160 X5.3828 Y2.9521 Z-0.0429
N4165 X5.3819 Y2.9523 Z-0.0403
N4170 X5.3816 Z-0.0375
N4175 G0 Z0.2
N4180 G1 X5.2092 Y3.806 F500.
N4185 G0 Z-0.025
N4190 G1 Z-0.0375 F78.258
N4195 X5.2089 Z-0.0403
N4200 X5.208 Z-0.0429
N4205 X5.2065 Y3.8059 Z-0.0453
N4210 X5.2045 Z-0.0473
N4215 X5.2022 Y3.8058 Z-0.0488
N4220 X5.1995 Y3.8057 Z-0.0497
N4225 X5.1967 Z-0.05
N4230 G3 X5.167 Y3.7971 I0.0018 J-0.0623
N4235 G1 X5.1123 Y3.7624
N4240 G3 X5.0806 Y3.7237 I0.0579 J-0.0798
N4245 G1 X5.075 Y3.7119
N4250 G3 X5.0559 Y3.6268 I0.2584 J-0.1026
N4255 X5.064 Y3.4489 I0.8415 J-0.051
N4260 X5.1946 Y3.0112 I1.4496 J0.1942
N4265 X5.2591 Y2.9076 I0.4941 J0.2355
N4270 X5.286 Y2.8835 I0.1095 J0.0953
N4275 X5.3165 Y2.8828 I0.0158 J0.0245
N4280 G1 X5.3354 Y2.8939
N4285 X5.3373 Y2.895
N4290 X5.3565 Y2.9054
N4295 G3 X5.3521 Y2.9286 I-0.0063 J0.0108
N4300 G1 X5.3493 Y2.929 Z-0.0497
N4305 X5.3467 Y2.9294 Z-0.0488
N4310 X5.3443 Y2.9297 Z-0.0473
N4315 X5.3424 Y2.93 Z-0.0453
N4320 X5.3409 Y2.9302 Z-0.0429
N4325 X5.34 Y2.9303 Z-0.0403
N4330 X5.3397 Y2.9304 Z-0.0375
N4335 G0 Z0.2
N4340 G1 X5.1545 Y3.7713 F500.
N4345 G0 Z-0.025
N4350 G1 Z-0.0375 F78.258
N4355 X5.1542 Z-0.0403
N4360 X5.1533 Y3.7712 Z-0.0429
N4365 X5.1518 Z-0.0453
N4370 X5.1498 Y3.7711 Z-0.0473
N4375 X5.1474 Z-0.0488
N4380 X5.1448 Y3.771 Z-0.0497
N4385 X5.142 Y3.7709 Z-0.05
N4390 G3 X5.1123 Y3.7624 I0.0018 J-0.0623
N4395 G1 X5.0999 Y3.7544
N4400 G3 X5.0514 Y3.72 I0.2436 J-0.394
N4405 X5.0197 Y3.6614 I0.1084 J-0.0966
N4410 X5.007 Y3.5669 I0.3126 J-0.0902
N4415 X5.0328 Y3.3395 I1.0775 J0.0072
N4420 X5.156 Y2.9788 I1.4379 J0.2896
N4425 X5.2095 Y2.8937 I0.5333 J0.2763
N4430 X5.2444 Y2.8604 I0.1246 J0.0956
N4435 X5.2759 Y2.8591 I0.0167 J0.0239
N4440 G1 X5.3165 Y2.8828
N4445 G3 X5.3111 Y2.9058 I-0.0067 J0.0106
N4450 G1 X5.3084 Y2.9061 Z-0.0497
N4455 X5.3057 Y2.9064 Z-0.0488
N4460 X5.3034 Y2.9066 Z-0.0473
N4465 X5.3014 Y2.9068 Z-0.0453
N4470 X5.2999 Y2.907 Z-0.0429
N4475 X5.299 Y2.9071 Z-0.0403
N4480 X5.2987 Z-0.0375
N4485 G0 Z0.2
N4490 G1 X5.1026 Y3.7383 F500.
N4495 G0 Z-0.025
N4500 G1 Z-0.0375 F78.258
N4505 X5.1023 Z-0.0403
N4510 X5.1014 Y3.7382 Z-0.0429
N4515 X5.0999 Y3.7381 Z-0.0453
N4520 X5.098 Y3.738 Z-0.0473
N4525 X5.0956 Y3.7378 Z-0.0488
N4530 X5.093 Y3.7376 Z-0.0497
N4535 X5.0902 Y3.7374 Z-0.05
N4540 G3 X5.0609 Y3.7276 I0.0045 J-0.0621
N4545 G1 X5.0189 Y3.6984
N4550 G3 X4.9762 Y3.6408 I0.0607 J-0.0896
N4555 G1 X4.9709 Y3.6252
N4560 G3 X4.9602 Y3.5305 I0.3205 J-0.084
N4565 X4.9902 Y3.3036 I1.1011 J0.0301
N4570 X5.1069 Y2.9673 I1.4553 J0.3166
N4575 X5.1733 Y2.8634 I0.5208 J0.2596
N4580 X5.2058 Y2.835 I0.1141 J0.0975
N4585 X5.2374 I0.0157 J0.0246
N4590 G1 X5.262 Y2.851
N4595 X5.2759 Y2.8591
N4600 G3 X5.2705 Y2.8821 I-0.0067 J0.0106
N4605 G1 X5.2677 Y2.8824 Z-0.0497
N4610 X5.2651 Y2.8826 Z-0.0488
N4615 X5.2628 Y2.8829 Z-0.0473
N4620 X5.2608 Y2.8831 Z-0.0453
N4625 X5.2593 Y2.8832 Z-0.0429
N4630 X5.2584 Y2.8833 Z-0.0403
N4635 X5.2581 Y2.8834 Z-0.0375
N4640 G0 Z0.2
N4645 G1 X5.0548 Y3.7054 F500.
N4650 G0 Z-0.025
N4655 G1 Z-0.0375 F78.258
N4660 X5.0545 Y3.7053 Z-0.0403
N4665 X5.0535 Z-0.0429
N4670 X5.0521 Y3.7051 Z-0.0453
N4675 X5.0501 Y3.705 Z-0.0473
N4680 X5.0477 Y3.7048 Z-0.0488
N4685 X5.0451 Y3.7046 Z-0.0497
N4690 X5.0423 Y3.7044 Z-0.05
N4695 G3 X5.0131 Y3.6943 I0.005 J-0.0621
N4700 G1 X4.988 Y3.6755
N4705 X4.961 Y3.6551
N4710 G3 X4.9277 Y3.6028 I0.0712 J-0.0821
N4715 X4.9141 Y3.517 I0.2523 J-0.084
N4720 X4.9325 Y3.3399 I0.883 J0.0025
N4725 X5.0589 Y2.9536 I1.5147 J0.2817
N4730 X5.1261 Y2.8461 I0.583 J0.2895
N4735 X5.1677 Y2.8086 I0.1379 J0.1111
N4740 X5.198 Y2.8096 I0.0143 J0.0259
N4745 G1 X5.2374 Y2.835
N4750 G3 X5.231 Y2.8577 I-0.0071 J0.0103
N4755 G1 X5.2282 Y2.8579 Z-0.0497
N4760 X5.2255 Y2.8581 Z-0.0488
N4765 X5.2232 Y2.8582 Z-0.0473
N4770 X5.2212 Y2.8583 Z-0.0453
N4775 X5.2197 Y2.8584 Z-0.0429
N4780 X5.2188 Y2.8585 Z-0.0403
N4785 X5.2185 Z-0.0375
N4790 G0 Z0.2
N4795 G1 X5.0023 Y3.6674 F500.
N4800 G0 Z-0.025
N4805 G1 Z-0.0375 F78.258
N4810 X5.002 Y3.6673 Z-0.0403
N4815 X5.0011 Y3.6672 Z-0.0429
N4820 X4.9996 Y3.6671 Z-0.0453
N4825 X4.9976 Y3.6669 Z-0.0473
N4830 X4.9953 Y3.6666 Z-0.0488
N4835 X4.9927 Y3.6663 Z-0.0497
N4840 X4.9899 Y3.666 Z-0.05
N4845 G3 X4.961 Y3.6551 I0.0068 J-0.0619
N4850 G1 X4.9378 Y3.6377
N4855 G3 X4.9041 Y3.6094 I0.1821 J-0.2513
N4860 X4.8762 Y3.5506 I0.1076 J-0.087
N4865 X4.8688 Y3.4562 I0.3126 J-0.0718
N4870 X4.9065 Y3.2304 I1.1298 J0.0724
N4875 X5.021 Y2.9203 I1.4415 J0.3559
N4880 X5.0901 Y2.8154 I0.5381 J0.2795
N4885 X5.1299 Y2.7818 I0.1287 J0.1119
N4890 X5.1603 Y2.7838 I0.0135 J0.0262
N4895 G1 X5.181 Y2.7984
N4900 X5.1852 Y2.8012
N4905 X5.198 Y2.8096
N4910 G3 X5.1915 Y2.8323 I-0.0072 J0.0102
N4915 G1 X5.1888 Y2.8324 Z-0.0497
N4920 X5.1861 Y2.8326 Z-0.0488
N4925 X5.1838 Y2.8327 Z-0.0473
N4930 X5.1818 Y2.8328 Z-0.0453
N4935 X5.1803 Y2.8329 Z-0.0429
N4940 X5.1794 Y2.833 Z-0.0403
N4945 X5.1791 Z-0.0375
N4950 G0 Z0.2
N4955 G1 X4.9556 Y3.6328 F500.
N4960 G0 Z-0.025
N4965 G1 Z-0.0375 F78.258
N4970 X4.9553 Z-0.0403
N4975 X4.9544 Y3.6327 Z-0.0429
N4980 X4.9529 Y3.6324 Z-0.0453
N4985 X4.9509 Y3.6322 Z-0.0473
N4990 X4.9486 Y3.6318 Z-0.0488
N4995 X4.946 Y3.6315 Z-0.0497
N5000 X4.9432 Y3.6311 Z-0.05
N5005 G3 X4.9146 Y3.6193 I0.0087 J-0.0617
N5010 G1 X4.8683 Y3.582
N5015 G3 X4.8349 Y3.5297 I0.0681 J-0.0803
N5020 X4.8233 Y3.4482 I0.2397 J-0.076
N5025 X4.841 Y3.2966 I0.7842 J0.0149
N5030 X4.9705 Y2.9112 I1.5349 J0.3014
N5035 X5.0382 Y2.8034 I0.6459 J0.3306
N5040 G1 X5.0535 Y2.7859
N5045 G3 X5.0904 Y2.7557 I0.1133 J0.1003
N5050 X5.1221 Y2.7569 I0.0149 J0.0251
N5055 G1 X5.1603 Y2.7838
N5060 G3 X5.153 Y2.8063 I-0.0076 J0.01
N5065 G1 X5.1502 Z-0.0497
N5070 X5.1475 Y2.8064 Z-0.0488
N5075 X5.1452 Z-0.0473
N5080 X5.1432 Y2.8065 Z-0.0453
N5085 X5.1417 Z-0.0429
N5090 X5.1408 Z-0.0403
N5095 X5.1405 Z-0.0375
N5100 G0 Z0.2
N5105 G1 X4.9093 Y3.5956 F500.
N5110 G0 Z-0.025
N5115 G1 Z-0.0375 F78.258
N5120 X4.909 Y3.5955 Z-0.0403
N5125 X4.9081 Y3.5954 Z-0.0429
N5130 X4.9066 Y3.5952 Z-0.0453
N5135 X4.9046 Y3.5949 Z-0.0473
N5140 X4.9023 Y3.5946 Z-0.0488
N5145 X4.8997 Y3.5942 Z-0.0497
N5150 X4.8969 Y3.5938 Z-0.05
N5155 G3 X4.8683 Y3.582 I0.0087 J-0.0617
N5160 G1 X4.8622 Y3.5771
N5165 G3 X4.8104 Y3.5323 I0.4534 J-0.5767
N5170 X4.7847 Y3.4742 I0.1113 J-0.0839
N5175 X4.78 Y3.3811 I0.3073 J-0.0622
N5180 X4.8176 Y3.181 I1.0866 J0.1003
N5185 X4.9357 Y2.8723 I1.4404 J0.374
N5190 X5.0068 Y2.7668 I0.5688 J0.3067
N5195 G1 X5.0213 Y2.7518
N5200 G3 X5.0542 Y2.7273 I0.0979 J0.0966
N5205 X5.0854 Y2.7298 I0.0136 J0.0258
N5210 G1 X5.1057 Y2.7452
N5215 X5.1193 Y2.7549
N5220 X5.1221 Y2.7569
N5225 G3 X5.1148 Y2.7793 I-0.0076 J0.01
N5230 G1 X5.112 Y2.7794 Z-0.0497
N5235 X5.1093 Z-0.0488
N5240 X5.107 Y2.7795 Z-0.0473
N5245 X5.105 Z-0.0453
N5250 X5.1035 Y2.7796 Z-0.0429
N5255 X5.1026 Z-0.0403
N5260 X5.1023 Z-0.0375
N5265 G0 Z0.2
N5270 G1 X4.8614 Y3.5569 F500.
N5275 G0 Z-0.025
N5280 G1 Z-0.0375 F78.258
N5285 X4.8611 Z-0.0403
N5290 X4.8602 Y3.5567 Z-0.0429
N5295 X4.8587 Y3.5565 Z-0.0453
N5300 X4.8568 Y3.5562 Z-0.0473
N5305 X4.8545 Y3.5558 Z-0.0488
N5310 X4.8518 Y3.5553 Z-0.0497
N5315 X4.8491 Y3.5549 Z-0.05
N5320 G3 X4.8208 Y3.5424 I0.0103 J-0.0615
N5325 G1 X4.7798 Y3.5076
N5330 G3 X4.7436 Y3.4496 I0.0661 J-0.0815
N5335 X4.735 Y3.3665 I0.2434 J-0.0672
N5340 X4.7642 Y3.1909 I0.8709 J0.0545
N5345 X4.8882 Y2.8572 I1.4875 J0.3627
N5350 X4.9579 Y2.7507 I0.6372 J0.3411
N5355 G1 X4.9742 Y2.7325
N5360 G3 X5.0163 Y2.6992 I0.1221 J0.111
N5365 X5.0481 Y2.7015 I0.0141 J0.0258
N5370 G1 X5.0854 Y2.7298
N5375 G3 X5.0773 Y2.752 I-0.0079 J0.0097
N5380 G1 X5.0745 Y2.7519 Z-0.0497
N5385 X5.0719 Z-0.0488
N5390 X5.0695 Z-0.0473
N5395 X5.0676 Y2.7518 Z-0.0453
N5400 X5.0661 Z-0.0429
N5405 X5.0651 Z-0.0403
N5410 X5.0648 Z-0.0375
N5415 G0 Z0.2
N5420 G1 X4.8135 Y3.5171 F500.
N5425 G0 Z-0.025
N5430 G1 Z-0.0375 F78.258
N5435 X4.8132 Z-0.0403
N5440 X4.8123 Y3.5169 Z-0.0429
N5445 X4.8109 Y3.5166 Z-0.0453
N5450 X4.8089 Y3.5163 Z-0.0473
N5455 X4.8066 Y3.5158 Z-0.0488
N5460 X4.804 Y3.5153 Z-0.0497
N5465 X4.8012 Y3.5148 Z-0.05
N5470 G3 X4.7732 Y3.5018 I0.0114 J-0.0613
N5475 G1 X4.7294 Y3.4633
N5480 G3 X4.6997 Y3.4113 I0.0716 J-0.0753
N5485 X4.6917 Y3.3303 I0.2389 J-0.0644
N5490 X4.7164 Y3.1797 I0.7828 J0.051
N5495 X4.839 Y2.8455 I1.5098 J0.3642
N5500 X4.9229 Y2.718 I0.6505 J0.3366
N5505 G1 X4.9395 Y2.7006
N5510 G3 X4.9811 Y2.6695 I0.1147 J0.1101
N5515 X5.0121 Y2.6731 I0.0127 J0.0264
N5520 G1 X5.0304 Y2.6879
N5525 X5.0422 Y2.697
N5530 X5.0481 Y2.7015
N5535 G3 X5.04 Y2.7237 I-0.0079 J0.0097
N5540 G1 X5.0372 Y2.7236 Z-0.0497
N5545 X5.0346 Z-0.0488
N5550 X5.0322 Y2.7235 Z-0.0473
N5555 X5.0303 Z-0.0453
N5560 X5.0288 Z-0.0429
N5565 X5.0278 Z-0.0403
N5570 X5.0275 Z-0.0375
N5575 G0 Z0.2
N5580 G1 X4.7697 Y3.4787 F500.
N5585 G0 Z-0.025
N5590 G1 Z-0.0375 F78.258
N5595 X4.7694 Y3.4786 Z-0.0403
N5600 X4.7685 Y3.4784 Z-0.0429
N5605 X4.767 Y3.4782 Z-0.0453
N5610 X4.7651 Y3.4778 Z-0.0473
N5615 X4.7627 Y3.4774 Z-0.0488
N5620 X4.7601 Y3.4769 Z-0.0497
N5625 X4.7574 Y3.4764 Z-0.05
N5630 G3 X4.7294 Y3.4633 I0.0114 J-0.0612
N5635 G1 X4.7062 Y3.443
N5640 G3 X4.6747 Y3.4131 I0.1673 J-0.2084
N5645 X4.6517 Y3.3524 I0.1147 J-0.0781
N5650 X4.6521 Y3.2576 I0.316 J-0.0463
N5655 X4.7071 Y3.0354 I1.1826 J0.1748
N5660 X4.82 Y2.7794 I1.2689 J0.4066
N5665 X4.8957 Y2.6772 I0.5257 J0.3105
N5670 G1 X4.9113 Y2.6627
N5675 G3 X4.945 Y2.6399 I0.0932 J0.1019
N5680 X4.9757 Y2.6437 I0.0123 J0.0264
N5685 G1 X5.0121 Y2.6731
N5690 G0 Z0.2
N5695 G1 X4.7232 Y3.438 F500.
N5700 G0 Z-0.025
N5705 G1 Z-0.0375 F78.258
N5710 X4.7229 Y3.4379 Z-0.0403
N5715 X4.722 Y3.4378 Z-0.0429
N5720 X4.7205 Y3.4375 Z-0.0453
N5725 X4.7186 Y3.4371 Z-0.0473
N5730 X4.7162 Y3.4366 Z-0.0488
N5735 X4.7136 Y3.4361 Z-0.0497
N5740 X4.7109 Y3.4356 Z-0.05
N5745 G3 X4.683 Y3.4222 I0.0122 J-0.0611
N5750 G1 X4.6425 Y3.3857
N5755 G3 X4.6132 Y3.3335 I0.0703 J-0.0738
N5760 G1 X4.6099 Y3.32
N5765 G3 X4.6087 Y3.2298 I0.2945 J-0.0491
N5770 X4.6563 Y3.0319 I1.0461 J0.1468
N5775 X4.7791 Y2.7526 I1.3068 J0.4075
N5780 X4.8551 Y2.6506 I0.5585 J0.3374
N5785 G1 X4.8718 Y2.635
N5790 G3 X4.9089 Y2.61 I0.0989 J0.107
N5795 X4.9401 Y2.6142 I0.0124 J0.0264
N5800 G2 X4.9757 Y2.6437 I1.1385 J-1.3354
N5805 G0 Z0.2
N5810 G1 X4.6826 Y3.4015 F500.
N5815 G0 Z-0.025
N5820 G1 Z-0.0375 F78.258
N5825 X4.6823 Z-0.0403
N5830 X4.6814 Y3.4013 Z-0.0429
N5835 X4.68 Y3.401 Z-0.0453
N5840 X4.678 Y3.4006 Z-0.0473
N5845 X4.6757 Y3.4001 Z-0.0488
N5850 X4.6731 Y3.3996 Z-0.0497
N5855 X4.6704 Y3.3991 Z-0.05
N5860 G3 X4.6425 Y3.3857 I0.0122 J-0.0611
N5865 G1 X4.6236 Y3.3687
N5870 X4.5982 Y3.3455
N5875 G3 X4.5708 Y3.2951 I0.0714 J-0.0715
N5880 G1 X4.5674 Y3.2808
N5885 G3 X4.567 Y3.192 I0.29 J-0.0457
N5890 X4.6168 Y2.9946 I1.0293 J0.1546
N5895 X4.7435 Y2.7171 I1.267 J0.4109
N5900 X4.8218 Y2.6168 I0.5341 J0.336
N5905 G1 X4.8379 Y2.6024
N5910 G3 X4.8737 Y2.5794 I0.0938 J0.1066
N5915 X4.9043 Y2.5838 I0.0118 J0.0267
N5920 G1 X4.9401 Y2.6142
N5925 G3 X4.9308 Y2.6359 I-0.0084 J0.0093
N5930 G1 X4.9281 Y2.6357 Z-0.0497
N5935 X4.9254 Y2.6355 Z-0.0488
N5940 X4.9231 Y2.6353 Z-0.0473
N5945 X4.9211 Y2.6352 Z-0.0453
N5950 X4.9196 Y2.6351 Z-0.0429
N5955 X4.9187 Y2.635 Z-0.0403
N5960 X4.9184 Z-0.0375
N5965 G0 Z0.2
N5970 G1 X4.6313 Y3.3582 F500.
N5975 G0 Z-0.025
N5980 G1 Z-0.0375 F78.258
N5985 X4.631 Y3.3581 Z-0.0403
N5990 X4.6301 Y3.3579 Z-0.0429
N5995 X4.6286 Y3.3576 Z-0.0453
N6000 X4.6267 Y3.3572 Z-0.0473
N6005 X4.6244 Y3.3567 Z-0.0488
N6010 X4.6218 Y3.3562 Z-0.0497
N6015 X4.6191 Y3.3557 Z-0.05
N6020 G3 X4.5982 Y3.3455 I0.0094 J-0.0458
N6025 G1 X4.5557 Y3.3067
N6030 G3 X4.5288 Y3.2569 I0.0706 J-0.0702
N6035 G1 X4.5255 Y3.2427
N6040 G3 X4.5256 Y3.1546 I0.2854 J-0.0437
N6045 X4.5691 Y2.9819 I0.9487 J0.1469
N6050 X4.6944 Y2.7037 I1.3093 J0.4223
N6055 X4.7703 Y2.6015 I0.6217 J0.3825
N6060 G1 X4.7883 Y2.5835
N6065 G3 X4.8386 Y2.5483 I0.127 J0.1282
N6070 X4.8691 Y2.5534 I0.011 J0.0276
N6075 G1 X4.8809 Y2.5638
N6080 X4.8944 Y2.5754
N6085 X4.9043 Y2.5838
N6090 G3 X4.895 Y2.6056 I-0.0084 J0.0093
N6095 G1 X4.8922 Y2.6054 Z-0.0497
N6100 X4.8896 Y2.6052 Z-0.0488
N6105 X4.8872 Y2.605 Z-0.0473
N6110 X4.8853 Y2.6049 Z-0.0453
N6115 X4.8838 Y2.6048 Z-0.0429
N6120 X4.8829 Y2.6047 Z-0.0403
N6125 X4.8826 Z-0.0375
N6130 G0 Z0.2
N6135 G1 X4.5957 Y3.3228 F500.
N6140 G0 Z-0.025
N6145 G1 Z-0.0375 F78.258
N6150 X4.5954 Y3.3227 Z-0.0403
N6155 X4.5945 Y3.3225 Z-0.0429
N6160 X4.593 Y3.3222 Z-0.0453
N6165 X4.5911 Y3.3218 Z-0.0473
N6170 X4.5888 Y3.3213 Z-0.0488
N6175 X4.5862 Y3.3208 Z-0.0497
N6180 X4.5835 Y3.3202 Z-0.05
N6185 G3 X4.5557 Y3.3067 I0.0126 J-0.061
N6190 G1 X4.5151 Y3.2697
N6195 G3 X4.4874 Y3.2196 I0.0683 J-0.0705
N6200 G1 X4.4842 Y3.2057
N6205 G3 X4.4843 Y3.119 I0.2775 J-0.043
N6210 X4.5291 Y2.9466 I0.9172 J0.1466
N6215 X4.6578 Y2.67 I1.2771 J0.4258
N6220 X4.7351 Y2.5689 I0.6167 J0.3916
N6225 G1 X4.7534 Y2.5511
N6230 G3 X4.8036 Y2.517 I0.1248 J0.1297
N6235 X4.8336 Y2.5223 I0.0106 J0.0278
N6240 G1 X4.8691 Y2.5534
N6245 G3 X4.8594 Y2.575 I-0.0086 J0.0091
N6250 G1 X4.8566 Y2.5747 Z-0.0497
N6255 X4.854 Y2.5745 Z-0.0488
N6260 X4.8516 Y2.5743 Z-0.0473
N6265 X4.8497 Y2.5741 Z-0.0453
N6270 X4.8482 Y2.574 Z-0.0429
N6275 X4.8473 Y2.5739 Z-0.0403
N6280 X4.847 Z-0.0375
N6285 G0 Z0.2
N6290 G1 X4.5552 Y3.2858 F500.
N6295 G0 Z-0.025
N6300 G1 Z-0.0375 F78.258
N6305 X4.5549 Y3.2857 Z-0.0403
N6310 X4.5539 Y3.2856 Z-0.0429
N6315 X4.5525 Y3.2853 Z-0.0453
N6320 X4.5506 Y3.2849 Z-0.0473
N6325 X4.5482 Y3.2844 Z-0.0488
N6330 X4.5456 Y3.2838 Z-0.0497
N6335 X4.5429 Y3.2833 Z-0.05
N6340 G3 X4.5151 Y3.2697 I0.0126 J-0.061
N6345 G1 X4.4712 Y3.2297
N6350 G3 X4.4451 Y3.1782 I0.0711 J-0.0684
N6355 G1 X4.4422 Y3.164
N6360 G3 X4.4445 Y3.0749 I0.2889 J-0.037
N6365 X4.4923 Y2.9034 I0.9406 J0.1693
N6370 X4.626 Y2.6291 I1.2396 J0.4348
N6375 X4.706 Y2.5302 I0.5732 J0.382
N6380 G1 X4.7243 Y2.5137
N6385 G3 X4.7692 Y2.4853 I0.1081 J0.121
N6390 X4.7984 Y2.4911 I0.0097 J0.0275
N6395 G1 X4.815 Y2.5059
N6400 X4.8336 Y2.5223
N6405 G3 X4.824 Y2.5439 I-0.0086 J0.0091
N6410 G1 X4.8212 Y2.5436 Z-0.0497
N6415 X4.8186 Y2.5434 Z-0.0488
N6420 X4.8162 Y2.5432 Z-0.0473
N6425 X4.8142 Y2.543 Z-0.0453
N6430 X4.8127 Y2.5429 Z-0.0429
N6435 X4.8118 Y2.5428 Z-0.0403
N6440 X4.8115 Z-0.0375
N6445 G0 Z0.2
N6450 G1 X4.5113 Y3.2456 F500.
N6455 G0 Z-0.025
N6460 G1 Z-0.0375 F78.258
N6465 X4.511 Y3.2455 Z-0.0403
N6470 X4.5101 Y3.2454 Z-0.0429
N6475 X4.5086 Y3.2451 Z-0.0453
N6480 X4.5067 Y3.2447 Z-0.0473
N6485 X4.5044 Y3.2442 Z-0.0488
N6490 X4.5018 Y3.2437 Z-0.0497
N6495 X4.4991 Y3.2431 Z-0.05
N6500 G3 X4.4712 Y3.2297 I0.0123 J-0.0611
N6505 G1 X4.4328 Y3.195
N6510 G3 X4.4052 Y3.1454 I0.0659 J-0.0691
N6515 X4.3997 Y3.0733 I0.2117 J-0.0523
N6520 X4.4255 Y2.9488 I0.572 J0.0536
N6525 X4.5711 Y2.6242 I1.3263 J0.3996
N6530 X4.6647 Y2.5036 I0.6411 J0.4012
N6535 G1 X4.6834 Y2.4863
N6540 G3 X4.7335 Y2.4537 I0.1227 J0.1338
N6545 X4.7632 Y2.4594 I0.01 J0.0279
N6550 G1 X4.7984 Y2.4911
N6555 G3 X4.7885 Y2.5125 I-0.0087 J0.009
N6560 G1 X4.7857 Y2.5122 Z-0.0497
N6565 X4.7831 Y2.512 Z-0.0488
N6570 X4.7807 Y2.5117 Z-0.0473
N6575 X4.7788 Y2.5115 Z-0.0453
N6580 X4.7773 Y2.5114 Z-0.0429
N6585 X4.7764 Y2.5113 Z-0.0403
N6590 X4.776 Z-0.0375
N6595 G0 Z0.2
N6600 G1 X4.4729 Y3.2108 F500.
N6605 G0 Z-0.025
N6610 G1 Z-0.0375 F78.258
N6615 X4.4726 Z-0.0403
N6620 X4.4717 Y3.2106 Z-0.0429
N6625 X4.4702 Y3.2103 Z-0.0453
N6630 X4.4683 Y3.2099 Z-0.0473
N6635 X4.4659 Y3.2094 Z-0.0488
N6640 X4.4634 Y3.2089 Z-0.0497
N6645 X4.4606 Y3.2084 Z-0.05
N6650 G3 X4.4328 Y3.195 I0.0123 J-0.0611
N6655 G1 X4.3935 Y3.1595
N6660 G3 X4.3644 Y3.1084 I0.0611 J-0.0687
N6665 G1 X4.3613 Y3.0951
N6670 G3 X4.362 Y3.0114 I0.2636 J-0.0395
N6675 X4.4109 Y2.8402 I0.8353 J0.1459
N6680 X4.5493 Y2.5683 I1.2159 J0.4476
N6685 X4.6303 Y2.4702 I0.5991 J0.4122
N6690 G1 X4.6492 Y2.4531
N6695 G3 X4.6986 Y2.4217 I0.1198 J0.134
N6700 X4.728 Y2.4277 I0.0097 J0.028
N6705 G1 X4.7441 Y2.4423
N6710 X4.7632 Y2.4594
N6715 G3 X4.7533 Y2.4809 I-0.0087 J0.009
N6720 G1 X4.7505 Y2.4806 Z-0.0497
N6725 X4.7479 Y2.4803 Z-0.0488
N6730 X4.7455 Y2.4801 Z-0.0473
N6735 X4.7436 Y2.4799 Z-0.0453
N6740 X4.7421 Y2.4798 Z-0.0429
N6745 X4.7412 Y2.4797 Z-0.0403
N6750 X4.7408 Y2.4796 Z-0.0375
N6755 G0 Z0.2
N6760 G1 X4.4306 Y3.1723 F500.
N6765 G0 Z-0.025
N6770 G1 Z-0.0375 F78.258
N6775 X4.4303 Z-0.0403
N6780 X4.4294 Y3.1721 Z-0.0429
N6785 X4.4279 Y3.1718 Z-0.0453
N6790 X4.426 Y3.1714 Z-0.0473
N6795 X4.4236 Y3.171 Z-0.0488
N6800 X4.4211 Y3.1705 Z-0.0497
N6805 X4.4183 Y3.17 Z-0.05
N6810 G3 X4.3904 Y3.1567 I0.0119 J-0.0612
N6815 G1 X4.3683 Y3.1371
N6820 X4.3487 Y3.1197
N6825 G3 X4.323 Y3.0695 I0.068 J-0.0664
N6830 G1 X4.3202 Y3.0559
N6835 G3 X4.3227 Y2.9698 I0.2722 J-0.0353
N6840 X4.3741 Y2.7993 I0.8525 J0.1641
N6845 X4.5167 Y2.5297 I1.1929 J0.4582
N6850 X4.5997 Y2.4332 I0.5779 J0.4136
N6855 G1 X4.619 Y2.4166
N6860 G3 X4.662 Y2.3903 I0.1043 J0.1224
N6865 X4.6928 Y2.3957 I0.0112 J0.0269
N6870 G1 X4.728 Y2.4277
N6875 G3 X4.718 Y2.4491 I-0.0087 J0.0089
N6880 G1 X4.7152 Y2.4488 Z-0.0497
N6885 X4.7126 Y2.4485 Z-0.0488
N6890 X4.7102 Y2.4483 Z-0.0473
N6895 X4.7083 Y2.4481 Z-0.0453
N6900 X4.7068 Y2.4479 Z-0.0429
N6905 X4.7059 Y2.4478 Z-0.0403
N6910 X4.7055 Z-0.0375
N6915 G0 Z0.2
N6920 G1 X4.3889 Y3.1352 F500.
N6925 G0 Z-0.025
N6930 G1 Z-0.0375 F78.258
N6935 X4.3886 Y3.1351 Z-0.0403
N6940 X4.3877 Y3.135 Z-0.0429
N6945 X4.3862 Y3.1347 Z-0.0453
N6950 X4.3843 Y3.1343 Z-0.0473
N6955 X4.382 Y3.1339 Z-0.0488
N6960 X4.3794 Y3.1334 Z-0.0497
N6965 X4.3766 Y3.1328 Z-0.05
N6970 G3 X4.3487 Y3.1197 I0.0117 J-0.0612
N6975 G1 X4.3095 Y3.0849
N6980 G3 X4.2835 Y3.0374 I0.0643 J-0.066
N6985 X4.2783 Y2.9687 I0.1995 J-0.0496
N6990 X4.3057 Y2.8446 I0.5176 J0.0493
N6995 X4.4753 Y2.5035 I1.2542 J0.4106
N7000 X4.5578 Y2.4067 I0.6142 J0.4401
N7005 G1 X4.5769 Y2.3897
N7010 G3 X4.6281 Y2.3575 I0.123 J0.1387
N7015 X4.6575 Y2.3635 I0.0096 J0.0281
N7020 G1 X4.6928 Y2.3957
N7025 G3 X4.6828 Y2.4171 I-0.0087 J0.0089
N7030 G1 X4.68 Y2.4168 Z-0.0497
N7035 X4.6774 Y2.4165 Z-0.0488
N7040 X4.675 Y2.4162 Z-0.0473
N7045 X4.6731 Y2.416 Z-0.0453
N7050 X4.6716 Y2.4159 Z-0.0429
N7055 X4.6707 Y2.4158 Z-0.0403
N7060 X4.6703 Z-0.0375
N7065 G0 Z0.2
N7070 G1 X4.3498 Y3.1003 F500.
N7075 G0 Z-0.025
N7080 G1 Z-0.0375 F78.258
N7085 X4.3495 Y3.1002 Z-0.0403
N7090 X4.3486 Y3.1 Z-0.0429
N7095 X4.3471 Y3.0998 Z-0.0453
N7100 X4.3452 Y3.0994 Z-0.0473
N7105 X4.3428 Y3.099 Z-0.0488
N7110 X4.3402 Y3.0985 Z-0.0497
N7115 X4.3375 Y3.098 Z-0.05
N7120 G3 X4.3095 Y3.0849 I0.0114 J-0.0613
N7125 G1 X4.3009 Y3.0775
N7130 X4.2693 Y3.0502
N7135 G3 X4.2434 Y3.0031 I0.0635 J-0.0656
N7140 X4.238 Y2.9356 I0.1945 J-0.0493
N7145 X4.2656 Y2.8116 I0.4987 J0.0458
N7150 X4.4379 Y2.4719 I1.2413 J0.416
N7155 X4.5398 Y2.3583 I0.5719 J0.4103
N7160 G1 X4.5581 Y2.3444
N7165 G3 X4.5928 Y2.3253 I0.0857 J0.115
N7170 X4.622 Y2.3313 I0.0096 J0.0275
N7175 G1 X4.6575 Y2.3635
N7180 G3 X4.6474 Y2.3849 I-0.0087 J0.0089
N7185 G1 X4.6447 Y2.3846 Z-0.0497
N7190 X4.642 Y2.3844 Z-0.0488
N7195 X4.6397 Y2.3841 Z-0.0473
N7200 X4.6377 Y2.3839 Z-0.0453
N7205 X4.6362 Y2.3837 Z-0.0429
N7210 X4.6353 Y2.3836 Z-0.0403
N7215 X4.635 Z-0.0375
N7220 G0 Z0.2
N7225 G1 X4.3098 Y3.0652 F500.
N7230 G0 Z-0.025
N7235 G1 Z-0.0375 F78.258
N7240 X4.3094 Y3.0651 Z-0.0403
N7245 X4.3085 Y3.065 Z-0.0429
N7250 X4.3071 Y3.0647 Z-0.0453
N7255 X4.3051 Y3.0644 Z-0.0473
N7260 X4.3028 Y3.0639 Z-0.0488
N7265 X4.3002 Y3.0635 Z-0.0497
N7270 X4.2974 Y3.063 Z-0.05
N7275 G3 X4.2693 Y3.0502 I0.0109 J-0.0613
N7280 G1 X4.2291 Y3.0155
N7285 G3 X4.2032 Y2.9686 I0.0631 J-0.0653
N7290 X4.1979 Y2.9021 I0.1919 J-0.0488
N7295 X4.2258 Y2.7781 I0.4841 J0.0439
N7300 X4.4161 Y2.4195 I1.2203 J0.4176
N7305 X4.5032 Y2.3267 I0.5546 J0.4334
N7310 G1 X4.5218 Y2.3125
N7315 G3 X4.5573 Y2.293 I0.087 J0.1165
N7320 X4.5865 Y2.299 I0.0096 J0.0275
N7325 G1 X4.622 Y2.3313
N7330 G3 X4.612 Y2.3527 I-0.0087 J0.0089
N7335 G1 X4.6092 Y2.3524 Z-0.0497
N7340 X4.6066 Y2.3521 Z-0.0488
N7345 X4.6043 Y2.3519 Z-0.0473
N7350 X4.6023 Y2.3516 Z-0.0453
N7355 X4.6008 Y2.3515 Z-0.0429
N7360 X4.5999 Y2.3514 Z-0.0403
N7365 X4.5996 Z-0.0375
N7370 G0 Z0.2
N7375 G1 X4.2695 Y3.0304 F500.
N7380 G0 Z-0.025
N7385 G1 Z-0.0375 F78.258
N7390 X4.2692 Z-0.0403
N7395 X4.2683 Y3.0302 Z-0.0429
N7400 X4.2668 Y3.03 Z-0.0453
N7405 X4.2649 Y3.0296 Z-0.0473
N7410 X4.2625 Y3.0292 Z-0.0488
N7415 X4.2599 Y3.0287 Z-0.0497
N7420 X4.2572 Y3.0283 Z-0.05
N7425 G3 X4.2291 Y3.0155 I0.0109 J-0.0613
N7430 G1 X4.2223 Y3.0097
N7435 G3 X4.1822 Y2.975 I0.3437 J-0.4386
N7440 X4.1591 Y2.9145 I0.0971 J-0.0718
N7445 X4.1628 Y2.8294 I0.2593 J-0.0312
N7450 X4.2192 Y2.6606 I0.782 J0.1675
N7455 X4.3878 Y2.3766 I1.1557 J0.4939
N7460 X4.4775 Y2.2863 I0.4935 J0.4006
N7465 X4.5204 Y2.2611 I0.1138 J0.1442
N7470 X4.5507 Y2.2666 I0.0106 J0.0276
N7475 G1 X4.5865 Y2.299
N7480 G3 X4.5765 Y2.3203 I-0.0087 J0.009
N7485 G1 X4.5737 Y2.3201 Z-0.0497
N7490 X4.5711 Y2.3198 Z-0.0488
N7495 X4.5687 Y2.3195 Z-0.0473
N7500 X4.5668 Y2.3193 Z-0.0453
N7505 X4.5653 Y2.3192 Z-0.0429
N7510 X4.5644 Y2.3191 Z-0.0403
N7515 X4.5641 Y2.319 Z-0.0375
N7520 G0 Z0.2
N7525 G1 X4.2316 Y2.9977 F500.
N7530 G0 Z-0.025
N7535 G1 Z-0.0375 F78.258
N7540 X4.2313 Y2.9976 Z-0.0403
N7545 X4.2304 Y2.9975 Z-0.0429
N7550 X4.2289 Y2.9972 Z-0.0453
N7555 X4.2269 Y2.9969 Z-0.0473
N7560 X4.2246 Y2.9966 Z-0.0488
N7565 X4.222 Y2.9961 Z-0.0497
N7570 X4.2192 Y2.9957 Z-0.05
N7575 G3 X4.1909 Y2.9834 I0.0099 J-0.0615
N7580 G1 X4.1504 Y2.9495
N7585 G3 X4.1239 Y2.9047 I0.0596 J-0.0653
N7590 X4.1173 Y2.8442 I0.1756 J-0.0498
N7595 X4.1355 Y2.7453 I0.3851 J0.0197
N7600 X4.2507 Y2.4905 I1.1414 J0.3627
N7605 X4.4033 Y2.2873 I0.8637 J0.4895
N7610 G1 X4.4222 Y2.2702
N7615 X4.4418 Y2.2539
N7620 X4.4582 Y2.2425
N7625 X4.4705 Y2.2352
N7630 X4.4799 Y2.2307
N7635 G3 X4.5082 Y2.2298 I0.0151 J0.0276
N7640 G1 X4.5149 Y2.2343
N7645 X4.5507 Y2.2666
N7650 G3 X4.5407 Y2.288 I-0.0087 J0.009
N7655 G1 X4.538 Y2.2878 Z-0.0497
N7660 X4.5353 Y2.2875 Z-0.0488
N7665 X4.533 Y2.2873 Z-0.0473
N7670 X4.531 Y2.2871 Z-0.0453
N7675 X4.5295 Y2.2869 Z-0.0429
N7680 X4.5286 Y2.2868 Z-0.0403
N7685 X4.5283 Z-0.0375
N7690 G0 Z0.2
N7695 G1 X4.1911 Y2.9638 F500.
N7700 G0 Z-0.025
N7705 G1 Z-0.0375 F78.258
N7710 X4.1907 Z-0.0403
N7715 X4.1898 Y2.9636 Z-0.0429
N7720 X4.1884 Y2.9634 Z-0.0453
N7725 X4.1864 Y2.9631 Z-0.0473
N7730 X4.1841 Y2.9627 Z-0.0488
N7735 X4.1815 Y2.9623 Z-0.0497
N7740 X4.1787 Y2.9619 Z-0.05
N7745 G3 X4.1504 Y2.9495 I0.0099 J-0.0615
N7750 G1 X4.1446 Y2.9447
N7755 X4.1272 Y2.9304
N7760 X4.1106 Y2.917
N7765 G3 X4.0839 Y2.8727 I0.0599 J-0.0662
N7770 X4.0772 Y2.8124 I0.1824 J-0.0507
N7775 X4.0952 Y2.714 I0.3762 J0.018
N7780 X4.1989 Y2.4819 I1.0985 J0.3514
N7785 X4.3649 Y2.257 I0.9276 J0.5108
N7790 X4.433 Y2.2035 I0.2609 J0.2623
N7795 G1 X4.4429 Y2.1988
N7800 X4.4483 Y2.1966
N7805 G3 X4.4785 Y2.2019 I0.0108 J0.0271
N7810 G1 X4.5093 Y2.2293
N7815 X4.5149 Y2.2343
N7820 G3 X4.5049 Y2.2557 I-0.0087 J0.009
N7825 G1 X4.5022 Y2.2555 Z-0.0497
N7830 X4.4995 Y2.2552 Z-0.0488
N7835 X4.4972 Y2.2549 Z-0.0473
N7840 X4.4952 Y2.2548 Z-0.0453
N7845 X4.4937 Y2.2546 Z-0.0429
N7850 X4.4928 Y2.2545 Z-0.0403
N7855 X4.4925 Z-0.0375
N7860 G0 Z0.2
N7865 G1 X4.1515 Y2.9306 F500.
N7870 G0 Z-0.025
N7875 G1 Z-0.0375 F78.258
N7880 X4.1512 Y2.9305 Z-0.0403
N7885 X4.1503 Y2.9304 Z-0.0429
N7890 X4.1488 Y2.9302 Z-0.0453
N7895 X4.1469 Y2.9299 Z-0.0473
N7900 X4.1445 Y2.9296 Z-0.0488
N7905 X4.1419 Y2.9292 Z-0.0497
N7910 X4.1392 Y2.9288 Z-0.05
N7915 G3 X4.1106 Y2.917 I0.0087 J-0.0617
N7920 G1 X4.0716 Y2.8858
N7925 G3 X4.0419 Y2.832 I0.0613 J-0.069
N7930 X4.0382 Y2.7634 I0.1975 J-0.045
N7935 X4.0696 Y2.6403 I0.4803 J0.0568
N7940 X4.2875 Y2.2683 I1.2043 J0.4557
N7945 X4.3784 Y2.1828 I0.458 J0.3958
N7950 X4.4133 Y2.1639 I0.1011 J0.145
N7955 X4.4421 Y2.1697 I0.0094 J0.0278
N7960 G1 X4.4785 Y2.2019
N7965 G3 X4.4687 Y2.2234 I-0.0086 J0.0091
N7970 G1 X4.4659 Y2.2232 Z-0.0497
N7975 X4.4633 Y2.2229 Z-0.0488
N7980 X4.4609 Y2.2227 Z-0.0473
N7985 X4.459 Y2.2225 Z-0.0453
N7990 X4.4575 Y2.2224 Z-0.0429
N7995 X4.4566 Y2.2223 Z-0.0403
N8000 X4.4563 Z-0.0375
N8005 G0 Z0.2
N8010 G1 X4.1126 Y2.8993 F500.
N8015 G0 Z-0.025
N8020 G1 Z-0.0375 F78.258
N8025 X4.1123 Z-0.0403
N8030 X4.1114 Y2.8991 Z-0.0429
N8035 X4.1099 Y2.8989 Z-0.0453
N8040 X4.1079 Y2.8986 Z-0.0473
N8045 X4.1056 Y2.8983 Z-0.0488
N8050 X4.103 Y2.8979 Z-0.0497
N8055 X4.1002 Y2.8976 Z-0.05
N8060 G3 X4.0716 Y2.8858 I0.0087 J-0.0617
N8065 G1 X4.0519 Y2.87
N8070 G3 X4.022 Y2.8452 I0.1633 J-0.2278
N8075 X3.9987 Y2.784 I0.0975 J-0.0721
N8080 X4.0025 Y2.7014 I0.253 J-0.0297
N8085 X4.051 Y2.5567 I0.668 J0.1434
N8090 X4.2529 Y2.2338 I1.1901 J0.5193
N8095 X4.326 Y2.1628 I0.5407 J0.4843
N8100 G1 X4.345 Y2.1488
N8105 X4.3578 Y2.1408
N8110 X4.3687 Y2.1352
N8115 X4.3749 Y2.1326
N8120 G3 X4.4052 Y2.1374 I0.0113 J0.0269
N8125 G1 X4.4296 Y2.1585
N8130 X4.4421 Y2.1697
N8135 G3 X4.4324 Y2.1912 I-0.0086 J0.0091
N8140 G1 X4.4296 Y2.1909 Z-0.0497
N8145 X4.427 Y2.1907 Z-0.0488
N8150 X4.4246 Y2.1905 Z-0.0473
N8155 X4.4226 Y2.1903 Z-0.0453
N8160 X4.4211 Y2.1901 Z-0.0429
N8165 X4.4202 Z-0.0403
N8170 X4.4199 Y2.19 Z-0.0375
N8175 G0 Z0.2
N8180 G1 X4.072 Y2.866 F500.
N8185 G0 Z-0.025
N8190 G1 Z-0.0375 F78.258
N8195 X4.0717 Z-0.0403
N8200 X4.0707 Y2.8659 Z-0.0429
N8205 X4.0693 Y2.8657 Z-0.0453
N8210 X4.0673 Y2.8655 Z-0.0473
N8215 X4.0649 Y2.8652 Z-0.0488
N8220 X4.0623 Y2.8649 Z-0.0497
N8225 X4.0596 Y2.8646 Z-0.05
N8230 G3 X4.0307 Y2.8533 I0.0075 J-0.0619
N8235 G1 X3.9931 Y2.8244
N8240 G3 X3.9624 Y2.7721 I0.0576 J-0.0689
N8245 X3.9575 Y2.7074 I0.1854 J-0.0465
N8250 X3.9791 Y2.6081 I0.3993 J0.0346
N8255 X4.0884 Y2.3785 I1.0964 J0.3815
N8260 X4.241 Y2.1751 I0.9669 J0.5666
N8265 X4.3136 Y2.1132 I0.3514 J0.3389
N8270 G1 X4.3262 Y2.1061
N8275 X4.3354 Y2.1017
N8280 G3 X4.3684 Y2.1055 I0.0136 J0.0269
N8285 G1 X4.4052 Y2.1374
N8290 G3 X4.3957 Y2.159 I-0.0085 J0.0092
N8295 G1 X4.393 Y2.1588 Z-0.0497
N8300 X4.3903 Y2.1586 Z-0.0488
N8305 X4.388 Y2.1584 Z-0.0473
N8310 X4.386 Y2.1582 Z-0.0453
N8315 X4.3845 Y2.1581 Z-0.0429
N8320 X4.3836 Z-0.0403
N8325 X4.3833 Y2.158 Z-0.0375
N8330 G0 Z0.2
N8335 G1 X4.0343 Y2.837 F500.
N8340 G0 Z-0.025
N8345 G1 Z-0.0375 F78.258
N8350 X4.034 Z-0.0403
N8355 X4.0331 Y2.8369 Z-0.0429
N8360 X4.0316 Y2.8367 Z-0.0453
N8365 X4.0296 Y2.8365 Z-0.0473
N8370 X4.0273 Y2.8362 Z-0.0488
N8375 X4.0247 Y2.8359 Z-0.0497
N8380 X4.0219 Y2.8356 Z-0.05
N8385 G3 X3.9931 Y2.8244 I0.0074 J-0.0619
N8390 G1 X3.9535 Y2.794
N8395 G3 X3.9227 Y2.7431 I0.0555 J-0.0683
N8400 X3.9172 Y2.6791 I0.1803 J-0.0478
N8405 X3.938 Y2.5806 I0.3835 J0.0294
N8410 X4.0475 Y2.3511 I1.0777 J0.3738
N8415 X4.2178 Y2.1294 I0.9681 J0.5672
N8420 X4.2863 Y2.0756 I0.2841 J0.2912
N8425 G1 X4.2964 Y2.0708
N8430 G3 X4.3243 Y2.0692 I0.0155 J0.0274
N8435 G1 X4.331 Y2.0734
N8440 X4.3414 Y2.0822
N8445 X4.3684 Y2.1055
N8450 G3 X4.3589 Y2.1272 I-0.0085 J0.0092
N8455 G1 X4.3561 Y2.1269 Z-0.0497
N8460 X4.3535 Y2.1267 Z-0.0488
N8465 X4.3511 Y2.1265 Z-0.0473
N8470 X4.3492 Y2.1264 Z-0.0453
N8475 X4.3477 Y2.1263 Z-0.0429
N8480 X4.3467 Y2.1262 Z-0.0403
N8485 X4.3464 Z-0.0375
N8490 G0 Z0.2
N8495 G1 X3.9949 Y2.806 F500.
N8500 G0 Z-0.025
N8505 G1 Z-0.0375 F78.258
N8510 X3.9946 Z-0.0403
N8515 X3.9937 Y2.8059 Z-0.0429
N8520 X3.9922 Y2.8057 Z-0.0453
N8525 X3.9902 Y2.8055 Z-0.0473
N8530 X3.9879 Y2.8053 Z-0.0488
N8535 X3.9853 Y2.805 Z-0.0497
N8540 X3.9825 Y2.8047 Z-0.05
N8545 G3 X3.9535 Y2.794 I0.0064 J-0.062
N8550 G1 X3.932 Y2.7781
N8555 X3.913 Y2.7641
N8560 G3 X3.8822 Y2.7122 I0.0565 J-0.0685
N8565 X3.877 Y2.6474 I0.1825 J-0.0472
N8570 X3.8984 Y2.5484 I0.3862 J0.0315
N8575 X4.0092 Y2.3195 I1.0773 J0.3802
N8580 X4.1801 Y2.0983 I0.9848 J0.5842
N8585 X4.2492 Y2.0438 I0.281 J0.2855
N8590 G1 X4.259 Y2.0391
N8595 G3 X4.2866 Y2.0376 I0.0153 J0.0278
N8600 G1 X4.2933 Y2.0419
N8605 X4.331 Y2.0734
N8610 G3 X4.3218 Y2.0952 I-0.0084 J0.0093
N8615 G1 X4.319 Y2.095 Z-0.0497
N8620 X4.3164 Y2.0949 Z-0.0488
N8625 X4.314 Y2.0947 Z-0.0473
N8630 X4.312 Y2.0946 Z-0.0453
N8635 X4.3106 Y2.0945 Z-0.0429
N8640 X4.3096 Y2.0944 Z-0.0403
N8645 X4.3093 Z-0.0375
N8650 G0 Z0.2
N8655 G1 X3.9545 Y2.7758 F500.
N8660 G0 Z-0.025
N8665 G1 Z-0.0375 F78.258
N8670 X3.9542 Z-0.0403
N8675 X3.9533 Y2.7757 Z-0.0429
N8680 X3.9518 Y2.7755 Z-0.0453
N8685 X3.9498 Y2.7754 Z-0.0473
N8690 X3.9474 Y2.7751 Z-0.0488
N8695 X3.9448 Y2.7749 Z-0.0497
N8700 X3.942 Y2.7746 Z-0.05
N8705 G3 X3.913 Y2.7641 I0.0059 J-0.062
N8710 G1 X3.8724 Y2.7344
N8715 G3 X3.8417 Y2.682 I0.0572 J-0.0687
N8720 X3.8368 Y2.6162 I0.1849 J-0.0471
N8725 X3.8586 Y2.5171 I0.3867 J0.0333
N8730 X3.9704 Y2.2887 I1.076 J0.3849
N8735 X4.1417 Y2.0678 I1.0049 J0.6024
N8740 G1 X4.1606 Y2.0506
N8745 X4.1801 Y2.0342
N8750 G3 X4.2257 Y2.0057 I0.1234 J0.147
N8755 X4.2602 Y2.0144 I0.0111 J0.029
N8760 G1 X4.2933 Y2.0419
N8765 G3 X4.2841 Y2.0636 I-0.0084 J0.0093
N8770 G1 X4.2814 Y2.0635 Z-0.0497
N8775 X4.2787 Y2.0633 Z-0.0488
N8780 X4.2764 Y2.0631 Z-0.0473
N8785 X4.2744 Y2.063 Z-0.0453
N8790 X4.2729 Y2.0629 Z-0.0429
N8795 X4.272 Z-0.0403
N8800 X4.2717 Y2.0628 Z-0.0375
N8805 G0 Z0.2
N8810 G1 X3.914 Y2.7461 F500.
N8815 G0 Z-0.025
N8820 G1 Z-0.0375 F78.258
N8825 X3.9136 Z-0.0403
N8830 X3.9127 Y2.746 Z-0.0429
N8835 X3.9112 Y2.7459 Z-0.0453
N8840 X3.9093 Y2.7457 Z-0.0473
N8845 X3.9069 Y2.7455 Z-0.0488
N8850 X3.9043 Y2.7452 Z-0.0497
N8855 X3.9015 Y2.7449 Z-0.05
N8860 G3 X3.8724 Y2.7344 I0.0059 J-0.062
N8865 G1 X3.8493 Y2.7175
N8870 X3.8319 Y2.7054
N8875 G3 X3.8039 Y2.663 I0.0541 J-0.0661
N8880 X3.7964 Y2.5854 I0.186 J-0.0571
N8885 X3.8187 Y2.4863 I0.3877 J0.0352
N8890 X3.9313 Y2.2583 I1.0754 J0.3893
N8895 X4.103 Y2.0375 I1.0259 J0.6206
N8900 G1 X4.1218 Y2.0203
N8905 X4.1412 Y2.0038
N8910 G3 X4.1871 Y1.9747 I0.1271 J0.1496
N8915 X4.2169 Y1.9789 I0.0113 J0.0274
N8920 G1 X4.2488 Y2.0047
N8925 X4.2555 Y2.0102
N8930 G3 X4.2465 Y2.0321 I-0.0083 J0.0094
N8935 G1 X4.2437 Y2.0319 Z-0.0497
N8940 X4.2411 Y2.0318 Z-0.0488
N8945 X4.2387 Y2.0316 Z-0.0473
N8950 X4.2367 Y2.0315 Z-0.0453
N8955 X4.2352 Y2.0314 Z-0.0429
N8960 X4.2343 Z-0.0403
N8965 X4.234 Z-0.0375
N8970 G0 Z0.2
N8975 G1 X3.8737 Y2.7161 F500.
N8980 G0 Z-0.025
N8985 G1 Z-0.0375 F78.258
N8990 X3.8734 Z-0.0403
N8995 X3.8725 Y2.716 Z-0.0429
N9000 X3.871 Y2.7159 Z-0.0453
N9005 X3.869 Y2.7158 Z-0.0473
N9010 X3.8666 Y2.7156 Z-0.0488
N9015 X3.864 Y2.7154 Z-0.0497
N9020 X3.8612 Y2.7152 Z-0.05
N9025 G3 X3.8319 Y2.7054 I0.0044 J-0.0621
N9030 G1 X3.7948 Y2.6796
N9035 G3 X3.7623 Y2.63 I0.0516 J-0.0693
N9040 X3.7551 Y2.5699 I0.17 J-0.0508
N9045 X3.7732 Y2.4727 I0.3524 J0.0154
N9050 X3.8697 Y2.2652 I0.9714 J0.3256
N9055 X4.0515 Y2.0202 I1.1216 J0.6422
N9060 X4.1248 Y1.9567 I0.3892 J0.3752
N9065 G1 X4.1373 Y1.9493
N9070 X4.1465 Y1.9447
N9075 G3 X4.1785 Y1.9479 I0.0135 J0.0266
N9080 G1 X4.2168 Y1.9789
N9085 G0 Z0.2
N9090 G1 X3.8366 Y2.6903 F500.
N9095 G0 Z-0.025
N9100 G1 Z-0.0375 F78.258
N9105 X3.8363 Z-0.0403
N9110 X3.8354 Y2.6902 Z-0.0429
N9115 X3.8339 Y2.6901 Z-0.0453
N9120 X3.8319 Y2.69 Z-0.0473
N9125 X3.8295 Y2.6898 Z-0.0488
N9130 X3.8269 Y2.6896 Z-0.0497
N9135 X3.8241 Y2.6894 Z-0.05
N9140 G3 X3.7948 Y2.6796 I0.0044 J-0.0621
N9145 G1 X3.7615 Y2.6565
N9150 G3 X3.7212 Y2.6001 I0.044 J-0.074
N9155 X3.7146 Y2.5383 I0.1715 J-0.0496
N9160 X3.7337 Y2.4404 I0.3601 J0.0196
N9165 X3.8313 Y2.2334 I0.9811 J0.336
N9170 X4.0138 Y1.9889 I1.137 J0.6581
N9175 X4.087 Y1.9254 I0.384 J0.3687
N9180 G1 X4.0992 Y1.9182
N9185 G3 X4.1252 Y1.911 I0.0237 J0.0346
N9190 G1 X4.1325 Y1.9131
N9195 X4.139 Y1.9169
N9200 X4.1619 Y1.9346
N9205 X4.1785 Y1.9479
N9210 G0 Z0.2
N9215 G1 X3.7949 Y2.6609 F500.
N9220 G0 Z-0.025
N9225 G1 Z-0.0375 F78.258
N9230 X3.7946 Z-0.0403
N9235 X3.7937 Z-0.0429
N9240 X3.7922 Y2.6608 Z-0.0453
N9245 X3.7902 Y2.6606 Z-0.0473
N9250 X3.7878 Y2.6605 Z-0.0488
N9255 X3.7852 Y2.6603 Z-0.0497
N9260 X3.7824 Y2.6602 Z-0.05
N9265 G3 X3.753 Y2.6507 I0.0038 J-0.0622
N9270 G1 X3.7445 Y2.6449
N9275 X3.7358 Y2.6391
N9280 X3.7129 Y2.6241
N9285 G3 X3.6808 Y2.574 I0.0521 J-0.0688
N9290 X3.6737 Y2.5116 I0.1735 J-0.0513
N9295 X3.6923 Y2.4147 I0.3546 J0.0176
N9300 X3.7895 Y2.2075 I0.9671 J0.3277
N9305 X3.9713 Y1.9625 I1.165 J0.6743
N9310 X4.0451 Y1.8971 I0.4238 J0.4034
N9315 G1 X4.0575 Y1.8893
N9320 X4.0672 Y1.8841
N9325 G3 X4.0998 Y1.8865 I0.0145 J0.0263
N9330 G1 X4.139 Y1.9169
N9335 G3 X4.1307 Y1.939 I-0.008 J0.0096
N9340 G1 X4.1279 Y1.9389 Z-0.0497
N9345 X4.1253 Y1.9388 Z-0.0488
N9350 X4.1229 Z-0.0473
N9355 X4.1209 Y1.9387 Z-0.0453
N9360 X4.1194 Z-0.0429
N9365 X4.1185 Z-0.0403
N9370 X4.1182 Z-0.0375
N9375 G0 Z0.2
N9380 G1 X3.755 Y2.6337 F500.
N9385 G0 Z-0.025
N9390 G1 Z-0.0375 F78.258
N9395 X3.7547 Z-0.0403
N9400 X3.7537 Y2.6336 Z-0.0429
N9405 X3.7522 Z-0.0453
N9410 X3.7503 Y2.6335 Z-0.0473
N9415 X3.7479 Y2.6334 Z-0.0488
N9420 X3.7453 Y2.6332 Z-0.0497
N9425 X3.7425 Y2.6331 Z-0.05
N9430 G3 X3.7129 Y2.6241 I0.0029 J-0.0622
N9435 G1 X3.6742 Y2.5986
N9440 G3 X3.641 Y2.5503 I0.0495 J-0.0696
N9445 X3.6336 Y2.4701 I0.1913 J-0.0581
N9450 X3.6656 Y2.3472 I0.4476 J0.0507
N9455 X3.7985 Y2.1011 I1.1603 J0.468
N9460 X3.9602 Y1.9048 I0.9996 J0.6586
N9465 G1 X3.9793 Y1.888
N9470 X3.9991 Y1.8719
N9475 X4.0129 Y1.8624
N9480 X4.0241 Y1.8559
N9485 X4.03 Y1.8531
N9490 G3 X4.0634 Y1.8587 I0.0126 J0.0272
N9495 G1 X4.0751 Y1.8674
N9500 X4.0998 Y1.8865
N9505 G3 X4.0915 Y1.9086 I-0.008 J0.0096
N9510 G1 X4.0887 Y1.9085 Z-0.0497
N9515 X4.0861 Z-0.0488
N9520 X4.0837 Y1.9084 Z-0.0473
N9525 X4.0817 Y1.9083 Z-0.0453
N9530 X4.0802 Z-0.0429
N9535 X4.0793 Z-0.0403
N9540 X4.079 Z-0.0375
N9545 G0 Z0.2
N9550 G1 X3.7163 Y2.6082 F500.
N9555 G0 Z-0.025
N9560 G1 Z-0.0375 F78.258
N9565 X3.7159 Z-0.0403
N9570 X3.715 Y2.6081 Z-0.0429
N9575 X3.7135 Z-0.0453
N9580 X3.7116 Y2.608 Z-0.0473
N9585 X3.7092 Y2.6079 Z-0.0488
N9590 X3.7066 Y2.6077 Z-0.0497
N9595 X3.7038 Y2.6076 Z-0.05
N9600 G3 X3.6742 Y2.5986 I0.0029 J-0.0622
N9605 G1 X3.6466 Y2.5804
N9610 G3 X3.6225 Y2.5639 I0.0691 J-0.1266
N9615 X3.5935 Y2.4949 I0.0895 J-0.0781
N9620 X3.597 Y2.4116 I0.2488 J-0.0314
N9625 X3.6468 Y2.2675 I0.6062 J0.1289
N9630 X3.8871 Y1.9091 I1.2943 J0.6079
N9635 X3.9617 Y1.8403 I0.4905 J0.4569
N9640 G1 X3.9754 Y1.8311
N9645 X3.9855 Y1.8254
N9650 G3 X4.0129 Y1.8225 I0.0167 J0.0266
N9655 G1 X4.0197 Y1.8262
N9660 X4.0599 Y1.856
N9665 G3 X4.0521 Y1.8783 I-0.0078 J0.0098
N9670 G1 X4.0493 Y1.8782 Z-0.0497
N9675 X4.0466 Z-0.0488
N9680 X4.0443 Z-0.0473
N9685 X4.0423 Z-0.0453
N9690 X4.0408 Z-0.0429
N9695 X4.0399 Z-0.0403
N9700 X4.0396 Z-0.0375
N9705 G0 Z0.2
N9710 G1 X3.6742 Y2.5797 F500.
N9715 G0 Z-0.025
N9720 G1 Z-0.0375 F78.258
N9725 X3.6739 Z-0.0403
N9730 X3.673 Z-0.0429
N9735 X3.6715 Z-0.0453
N9740 X3.6695 Z-0.0473
N9745 X3.6671 Y2.5796 Z-0.0488
N9750 X3.6645 Z-0.0497
N9755 X3.6617 Y2.5795 Z-0.05
N9760 G3 X3.6319 Y2.5712 I0.0012 J-0.0623
N9765 G1 X3.5921 Y2.5465
N9770 G3 X3.5589 Y2.498 I0.0493 J-0.0693
N9775 X3.5514 Y2.4163 I0.1945 J-0.0593
N9780 X3.5832 Y2.2933 I0.4496 J0.0507
N9785 X3.7019 Y2.0684 I1.1291 J0.4525
N9790 X3.8766 Y1.8499 I1.0989 J0.6995
N9795 X3.9415 Y1.7978 I0.2741 J0.2747
N9800 X3.9657 Y1.7911 I0.0223 J0.0337
N9805 G1 X3.9729 Y1.793
N9810 X3.9795 Y1.7966
N9815 X3.994 Y1.8073
N9820 X4.0197 Y1.8262
N9825 G3 X4.0119 Y1.8485 I-0.0078 J0.0098
N9830 G1 X4.0091 Z-0.0497
N9835 X4.0065 Z-0.0488
N9840 X4.0041 Z-0.0473
N9845 X4.0021 Z-0.0453
N9850 X4.0006 Z-0.0429
N9855 X3.9997 Z-0.0403
N9860 X3.9994 Z-0.0375
N9865 G0 Z0.2
N9870 G1 X3.6344 Y2.555 F500.
N9875 G0 Z-0.025
N9880 G1 Z-0.0375 F78.258
N9885 X3.6341 Z-0.0403
N9890 X3.6332 Z-0.0429
N9895 X3.6317 Y2.5549 Z-0.0453
N9900 X3.6297 Z-0.0473
N9905 X3.6273 Y2.5548 Z-0.0488
N9910 X3.6247 Z-0.0497
N9915 X3.6219 Y2.5547 Z-0.05
N9920 G3 X3.5921 Y2.5465 I0.0012 J-0.0623
N9925 G1 X3.5508 Y2.5208
N9930 G3 X3.5174 Y2.4714 I0.0502 J-0.0699
N9935 X3.5091 Y2.4107 I0.1689 J-0.0542
N9940 X3.5255 Y2.3137 I0.342 J0.0082
N9945 X3.6084 Y2.1279 I0.8861 J0.2839
N9950 X3.8175 Y1.84 I1.2752 J0.7063
N9955 X3.8895 Y1.7758 I0.4216 J0.4007
N9960 G1 X3.9012 Y1.7687
N9965 X3.9079 Y1.7652
N9970 G3 X3.9381 Y1.7672 I0.0135 J0.0259
N9975 G1 X3.9709 Y1.7902
N9980 X3.9795 Y1.7966
N9985 G3 X3.9718 Y1.8189 I-0.0077 J0.0098
N9990 G1 X3.969 Z-0.0497
N9995 X3.9663 Z-0.0488
N10000 X3.964 Z-0.0473
N10005 X3.962 Z-0.0453
N10010 X3.9605 Z-0.0429
N10015 X3.9596 Z-0.0403
N10020 X3.9593 Z-0.0375
N10025 G0 Z0.2
N10030 G1 X3.5931 Y2.5292 F500.
N10035 G0 Z-0.025
N10040 G1 Z-0.0375 F78.258
N10045 X3.5928 Z-0.0403
N10050 X3.5919 Z-0.0429
N10055 X3.5904 Z-0.0453
N10060 X3.5884 Y2.5291 Z-0.0473
N10065 X3.586 Z-0.0488
N10070 X3.5834 Z-0.0497
N10075 X3.5806 Y2.529 Z-0.05
N10080 G3 X3.5508 Y2.5208 I0.0011 J-0.0623
N10085 G1 X3.5424 Y2.5157
N10090 X3.5308 Y2.5086
N10095 X3.5103 Y2.4966
N10100 G3 X3.4799 Y2.4577 I0.0463 J-0.0675
N10105 X3.4675 Y2.3871 I0.1666 J-0.0656
N10110 X3.4832 Y2.2907 I0.3373 J0.0052
N10115 X3.5652 Y2.1046 I0.872 J0.2731
N10120 X3.773 Y1.8157 I1.2998 J0.716
N10125 X3.8449 Y1.7498 I0.4682 J0.4385
N10130 G1 X3.8576 Y1.7415
N10135 X3.8667 Y1.7364
N10140 G3 X3.8972 Y1.7384 I0.0136 J0.0261
N10145 G1 X3.9381 Y1.7672
N10150 G3 X3.9308 Y1.7897 I-0.0075 J0.01
N10155 G1 X3.928 Z-0.0497
N10160 X3.9254 Y1.7898 Z-0.0488
N10165 X3.923 Z-0.0473
N10170 X3.9211 Y1.7899 Z-0.0453
N10175 X3.9196 Z-0.0429
N10180 X3.9186 Z-0.0403
N10185 X3.9183 Z-0.0375
N10190 G0 Z0.2
N10195 G1 X3.5528 Y2.504 F500.
N10200 G0 Z-0.025
N10205 G1 Z-0.0375 F78.258
N10210 X3.5524 Z-0.0403
N10215 X3.5515 Z-0.0429
N10220 X3.55 Z-0.0453
N10225 X3.5481 Z-0.0473
N10230 X3.5457 Z-0.0488
N10235 X3.543 Z-0.0497
N10240 X3.5403 Y2.5041 Z-0.05
N10245 G3 X3.5103 Y2.4966 I-0.0004 J-0.0623
N10250 G1 X3.4697 Y2.4728
N10255 G3 X3.4355 Y2.4248 I0.0477 J-0.0702
N10260 X3.4264 Y2.3443 I0.1912 J-0.0623
N10265 X3.4564 Y2.2209 I0.4365 J0.0405
N10270 X3.5734 Y1.9951 I1.1085 J0.4312
N10275 X3.7631 Y1.7561 I1.159 J0.7253
N10280 G1 X3.7821 Y1.7392
N10285 X3.8013 Y1.7233
N10290 X3.8138 Y1.7146
N10295 X3.8235 Y1.7089
N10300 G3 X3.8552 Y1.7095 I0.0153 J0.0257
N10305 G1 X3.8724 Y1.7211
N10310 X3.8936 Y1.7359
N10315 X3.8972 Y1.7384
N10320 G3 X3.8899 Y1.7609 I-0.0075 J0.01
N10325 G1 X3.8871 Z-0.0497
N10330 X3.8845 Y1.761 Z-0.0488
N10335 X3.8821 Z-0.0473
N10340 X3.8801 Y1.7611 Z-0.0453
N10345 X3.8786 Z-0.0429
N10350 X3.8777 Z-0.0403
N10355 X3.8774 Z-0.0375
N10360 G0 Z0.2
N10365 G1 X3.5122 Y2.4802 F500.
N10370 G0 Z-0.025
N10375 G1 Z-0.0375 F78.258
N10380 X3.5119 Z-0.0403
N10385 X3.511 Z-0.0429
N10390 X3.5095 Z-0.0453
N10395 X3.5075 Z-0.0473
N10400 X3.5052 Y2.4803 Z-0.0488
N10405 X3.5025 Z-0.0497
N10410 X3.4997 Z-0.05
N10415 G3 X3.4697 Y2.4728 I-0.0004 J-0.0623
N10420 G1 X3.4275 Y2.448
N10425 G3 X3.4009 Y2.4174 I0.0379 J-0.0597
N10430 X3.3842 Y2.3376 I0.1499 J-0.073
N10435 X3.3996 Y2.2401 I0.3344 J0.0027
N10440 X3.4811 Y2.0537 I0.8716 J0.2702
N10445 X3.7049 Y1.7451 I1.3265 J0.7266
N10450 X3.7725 Y1.686 I0.3653 J0.3498
N10455 G1 X3.7821 Y1.6806
N10460 G3 X3.8132 Y1.6815 I0.0149 J0.0257
N10465 G1 X3.8552 Y1.7096
N10470 G0 Z0.2
N10475 G1 X3.4702 Y2.4544 F500.
N10480 G0 Z-0.025
N10485 G1 Z-0.0375 F78.258
N10490 X3.4698 Y2.4545 Z-0.0403
N10495 X3.4689 Z-0.0429
N10500 X3.4674 Z-0.0453
N10505 X3.4655 Y2.4546 Z-0.0473
N10510 X3.4631 Y2.4547 Z-0.0488
N10515 X3.4604 Z-0.0497
N10520 X3.4577 Y2.4548 Z-0.05
N10525 G3 X3.4275 Y2.448 I-0.0019 J-0.0623
N10530 G1 X3.3919 Y2.4283
N10535 G3 X3.3537 Y2.3811 I0.0394 J-0.0709
N10540 X3.3422 Y2.3041 I0.1795 J-0.0661
N10545 X3.3687 Y2.1809 I0.4092 J0.0234
N10550 X3.4696 Y1.9754 I1.0337 J0.38
N10555 X3.6691 Y1.7118 I1.2833 J0.7641
N10560 X3.7339 Y1.6562 I0.3097 J0.2955
N10565 G1 X3.7409 Y1.6525
N10570 G3 X3.7739 Y1.6554 I0.0144 J0.026
N10575 G1 X3.8132 Y1.6815
N10580 G0 Z0.2
N10585 G1 X3.4313 Y2.4329 F500.
N10590 G0 Z-0.025
N10595 G1 Z-0.0375 F78.258
N10600 X3.431 Z-0.0403
N10605 X3.4301 Z-0.0429
N10610 X3.4286 Y2.433 Z-0.0453
N10615 X3.4266 Z-0.0473
N10620 X3.4243 Y2.4331 Z-0.0488
N10625 X3.4216 Y2.4332 Z-0.0497
N10630 X3.4189 Y2.4333 Z-0.05
N10635 G3 X3.3887 Y2.4266 I-0.002 J-0.0623
N10640 G1 X3.3455 Y2.4028
N10645 G3 X3.3142 Y2.3647 I0.0449 J-0.0688
N10650 X3.3001 Y2.2949 I0.1631 J-0.0694
N10655 X3.3135 Y2.1975 I0.3337 J-0.0038
N10660 X3.3929 Y2.0103 I0.8423 J0.2469
N10665 X3.6309 Y1.6807 I1.3633 J0.734
N10670 G1 X3.6494 Y1.6631
N10675 X3.6684 Y1.6461
N10680 X3.6832 Y1.6346
N10685 X3.6936 Y1.6278
N10690 G3 X3.7209 Y1.6229 I0.0186 J0.0256
N10695 G1 X3.7279 Y1.6261
N10700 X3.7641 Y1.649
N10705 X3.7708 Y1.6533
N10710 G3 X3.7646 Y1.6761 I-0.0071 J0.0103
N10715 G1 X3.7618 Y1.6763 Z-0.0497
N10720 X3.7592 Y1.6765 Z-0.0488
N10725 X3.7568 Y1.6766 Z-0.0473
N10730 X3.7549 Y1.6768 Z-0.0453
N10735 X3.7534 Y1.6769 Z-0.0429
N10740 X3.7525 Z-0.0403
N10745 X3.7521 Z-0.0375
N10750 G0 Z0.2
N10755 G1 X3.3882 Y2.4091 F500.
N10760 G0 Z-0.025
N10765 G1 Z-0.0375 F78.258
N10770 X3.3879 Z-0.0403
N10775 X3.387 Z-0.0429
N10780 X3.3855 Y2.4092 Z-0.0453
N10785 X3.3835 Z-0.0473
N10790 X3.3811 Y2.4093 Z-0.0488
N10795 X3.3785 Y2.4094 Z-0.0497
N10800 X3.3757 Y2.4095 Z-0.05
N10805 G3 X3.3455 Y2.4028 I-0.002 J-0.0623
N10810 G1 X3.3224 Y2.39
N10815 G3 X3.295 Y2.374 I0.0745 J-0.159
N10820 X3.2623 Y2.3102 I0.0804 J-0.0815
N10825 X3.2598 Y2.2306 I0.23 J-0.0471
N10830 X3.3027 Y2.0843 I0.5391 J0.0786
N10835 X3.4394 Y1.8402 I1.254 J0.5423
N10840 X3.6 Y1.6429 I1.1512 J0.7726
N10845 G1 X3.6187 Y1.6256
N10850 G3 X3.6567 Y1.5976 I0.1356 J0.1443
N10855 X3.6852 Y1.5991 I0.0128 J0.0264
N10860 G1 X3.7279 Y1.6261
N10865 G3 X3.7217 Y1.6489 I-0.007 J0.0103
N10870 G1 X3.719 Y1.6491 Z-0.0497
N10875 X3.7163 Y1.6493 Z-0.0488
N10880 X3.714 Y1.6495 Z-0.0473
N10885 X3.712 Y1.6496 Z-0.0453
N10890 X3.7105 Y1.6497 Z-0.0429
N10895 X3.7096 Y1.6498 Z-0.0403
N10900 X3.7093 Z-0.0375
N10905 G0 Z0.2
N10910 G1 X3.3478 Y2.3863 F500.
N10915 G0 Z-0.025
N10920 G1 Z-0.0375 F78.258
N10925 X3.3475 Z-0.0403
N10930 X3.3465 Z-0.0429
N10935 X3.3451 Y2.3864 Z-0.0453
N10940 X3.3431 Y2.3865 Z-0.0473
N10945 X3.3407 Y2.3866 Z-0.0488
N10950 X3.3381 Y2.3867 Z-0.0497
N10955 X3.3353 Y2.3869 Z-0.05
N10960 G3 X3.305 Y2.3807 I-0.003 J-0.0622
N10965 G1 X3.2992 Y2.3776
N10970 X3.2645 Y2.3596
N10975 G3 X3.2282 Y2.3146 I0.0423 J-0.0712
N10980 X3.2153 Y2.2386 I0.1787 J-0.0696
N10985 X3.2393 Y2.1152 I0.4023 J0.0143
N10990 X3.3375 Y1.9084 I1.0117 J0.3537
N10995 X3.5505 Y1.6232 I1.349 J0.7854
N11000 G1 X3.5689 Y1.6056
N11005 X3.5879 Y1.5887
N11010 X3.6003 Y1.5792
N11015 X3.6102 Y1.5729
N11020 G3 X3.6413 Y1.5723 I0.0161 J0.025
N11025 G1 X3.6582 Y1.5823
N11030 X3.6756 Y1.5931
N11035 X3.6852 Y1.5991
N11040 G3 X3.679 Y1.6219 I-0.007 J0.0103
N11045 G1 X3.6762 Y1.6221 Z-0.0497
N11050 X3.6736 Y1.6223 Z-0.0488
N11055 X3.6712 Y1.6225 Z-0.0473
N11060 X3.6692 Y1.6226 Z-0.0453
N11065 X3.6678 Y1.6227 Z-0.0429
N11070 X3.6668 Y1.6228 Z-0.0403
N11075 X3.6665 Z-0.0375
N11080 G0 Z0.2
N11085 G1 X3.3073 Y2.3648 F500.
N11090 G0 Z-0.025
N11095 G1 Z-0.0375 F78.258
N11100 X3.307 Z-0.0403
N11105 X3.3061 Z-0.0429
N11110 X3.3046 Y2.3649 Z-0.0453
N11115 X3.3026 Y2.365 Z-0.0473
N11120 X3.3002 Y2.3652 Z-0.0488
N11125 X3.2976 Y2.3653 Z-0.0497
N11130 X3.2948 Y2.3655 Z-0.05
N11135 G3 X3.2645 Y2.3596 I-0.0036 J-0.0622
N11140 G1 X3.2239 Y2.3385
N11145 G3 X3.1869 Y2.2949 I0.0406 J-0.0719
N11150 X3.1728 Y2.2217 I0.1654 J-0.0698
N11155 X3.187 Y2.1233 I0.3496 J0.0002
N11160 X3.2656 Y1.9357 I0.8607 J0.2505
N11165 X3.501 Y1.6042 I1.4199 J0.7586
N11170 X3.563 Y1.5489 I0.3152 J0.2909
N11175 G1 X3.568 Y1.5461
N11180 G3 X3.5978 Y1.5463 I0.0148 J0.0251
N11185 G1 X3.6413 Y1.5723
N11190 G3 X3.6357 Y1.5952 I-0.0068 J0.0105
N11195 G1 X3.633 Y1.5955 Z-0.0497
N11200 X3.6303 Y1.5957 Z-0.0488
N11205 X3.628 Y1.5959 Z-0.0473
N11210 X3.626 Y1.5961 Z-0.0453
N11215 X3.6245 Y1.5963 Z-0.0429
N11220 X3.6236 Y1.5964 Z-0.0403
N11225 X3.6233 Z-0.0375
N11230 G0 Z0.2
N11235 G1 X3.2668 Y2.3437 F500.
N11240 G0 Z-0.025
N11245 G1 Z-0.0375 F78.258
N11250 X3.2665 Z-0.0403
N11255 X3.2655 Y2.3438 Z-0.0429
N11260 X3.264 Y2.3439 Z-0.0453
N11265 X3.2621 Y2.344 Z-0.0473
N11270 X3.2597 Y2.3441 Z-0.0488
N11275 X3.2571 Y2.3443 Z-0.0497
N11280 X3.2543 Y2.3444 Z-0.05
N11285 G3 X3.2239 Y2.3385 I-0.0036 J-0.0622
N11290 G1 X3.2066 Y2.3295
N11295 G3 X3.17 Y2.3099 I0.1219 J-0.2719
N11300 X3.1358 Y2.2473 I0.079 J-0.0838
N11305 X3.1312 Y2.1696 I0.2273 J-0.0524
N11310 X3.1615 Y2.0462 I0.4797 J0.0525
N11315 X3.2763 Y1.8193 I1.1378 J0.4328
N11320 X3.4605 Y1.5758 I1.3474 J0.8276
N11325 G1 X3.4785 Y1.5577
N11330 X3.4971 Y1.5403
N11335 X3.5108 Y1.5292
N11340 X3.5207 Y1.5224
N11345 G3 X3.5597 Y1.5237 I0.0187 J0.0257
N11350 G1 X3.5856 Y1.539
N11355 X3.5978 Y1.5463
N11360 G3 X3.5922 Y1.5692 I-0.0068 J0.0105
N11365 G1 X3.5894 Y1.5695 Z-0.0497
N11370 X3.5868 Y1.5697 Z-0.0488
N11375 X3.5844 Y1.5699 Z-0.0473
N11380 X3.5824 Y1.5701 Z-0.0453
N11385 X3.581 Y1.5703 Z-0.0429
N11390 X3.58 Y1.5704 Z-0.0403
N11395 X3.5797 Z-0.0375
N11400 G0 Z0.2
N11405 G1 X3.2232 Y2.3204 F500.
N11410 G0 Z-0.025
N11415 G1 Z-0.0375 F78.258
N11420 X3.2229 Z-0.0403
N11425 X3.2219 Y2.3205 Z-0.0429
N11430 X3.2204 Y2.3206 Z-0.0453
N11435 X3.2185 Y2.3207 Z-0.0473
N11440 X3.2161 Y2.3209 Z-0.0488
N11445 X3.2135 Y2.3212 Z-0.0497
N11450 X3.2107 Y2.3214 Z-0.05
N11455 G3 X3.1802 Y2.3162 I-0.0051 J-0.0621
N11460 G1 X3.1393 Y2.2962
N11465 G3 X3.102 Y2.2526 I0.0401 J-0.0719
N11470 X3.0872 Y2.1779 I0.1675 J-0.072
N11475 X3.1009 Y2.079 I0.3529 J-0.0016
N11480 X3.1782 Y1.8909 I0.863 J0.2448
N11485 X3.4107 Y1.5573 I1.4632 J0.7718
N11490 G1 X3.4284 Y1.5389
N11495 G3 X3.4792 Y1.4954 I0.2072 J0.1903
N11500 X3.509 Y1.4948 I0.0154 J0.0256
N11505 G1 X3.5536 Y1.52
N11510 G3 X3.5485 Y1.5431 I-0.0065 J0.0107
N11515 G1 X3.5458 Y1.5434 Z-0.0497
N11520 X3.5432 Y1.5437 Z-0.0488
N11525 X3.5408 Y1.544 Z-0.0473
N11530 X3.5388 Y1.5442 Z-0.0453
N11535 X3.5374 Y1.5444 Z-0.0429
N11540 X3.5364 Y1.5445 Z-0.0403
N11545 X3.5361 Z-0.0375
N11550 G0 Z0.2
N11555 G1 X3.1822 Y2.3004 F500.
N11560 G0 Z-0.025
N11565 G1 Z-0.0375 F78.258
N11570 X3.1819 Z-0.0403
N11575 X3.181 Y2.3005 Z-0.0429
N11580 X3.1795 Y2.3006 Z-0.0453
N11585 X3.1775 Y2.3007 Z-0.0473
N11590 X3.1751 Y2.3009 Z-0.0488
N11595 X3.1725 Y2.3012 Z-0.0497
N11600 X3.1697 Y2.3014 Z-0.05
N11605 G3 X3.1393 Y2.2962 I-0.0051 J-0.0621
N11610 G1 X3.0966 Y2.2754
N11615 G3 X3.059 Y2.2311 I0.0409 J-0.0728
N11620 X3.0442 Y2.1557 I0.1687 J-0.0722
N11625 X3.0577 Y2.057 I0.3551 J-0.0016
N11630 X3.1345 Y1.8686 I0.8668 J0.2433
N11635 X3.3828 Y1.5152 I1.4682 J0.7676
N11640 G1 X3.4011 Y1.4975
N11645 X3.4168 Y1.4835
N11650 X3.4284 Y1.4747
N11655 X3.4346 Y1.4707
N11660 G3 X3.4647 Y1.4699 I0.0157 J0.0246
N11665 G1 X3.509 Y1.4949
N11670 G3 X3.504 Y1.5179 I-0.0065 J0.0107
N11675 G1 X3.5012 Y1.5183 Z-0.0497
N11680 X3.4986 Y1.5186 Z-0.0488
N11685 X3.4962 Y1.5189 Z-0.0473
N11690 X3.4943 Y1.5191 Z-0.0453
N11695 X3.4928 Y1.5193 Z-0.0429
N11700 X3.4919 Y1.5194 Z-0.0403
N11705 X3.4916 Z-0.0375
N11710 G0 Z0.2
N11715 G1 X3.1395 Y2.2795 F500.
N11720 G0 Z-0.025
N11725 G1 Z-0.0375 F78.258
N11730 X3.1392 Y2.2796 Z-0.0403
N11735 X3.1383 Z-0.0429
N11740 X3.1368 Y2.2798 Z-0.0453
N11745 X3.1348 Y2.2799 Z-0.0473
N11750 X3.1324 Y2.2801 Z-0.0488
N11755 X3.1298 Y2.2803 Z-0.0497
N11760 X3.127 Y2.2806 Z-0.05
N11765 G3 X3.0966 Y2.2754 I-0.0051 J-0.0621
N11770 G1 X3.0676 Y2.2613
N11775 G3 X3.018 Y2.2147 I0.0275 J-0.0791
N11780 X3.0013 Y2.1437 I0.16 J-0.0749
N11785 X3.0119 Y2.0455 I0.338 J-0.0133
N11790 X3.0857 Y1.856 I0.8283 J0.2137
N11795 X3.3302 Y1.4999 I1.4962 J0.7652
N11800 G1 X3.348 Y1.4816
N11805 X3.3664 Y1.464
N11810 X3.3792 Y1.4534
N11815 X3.3884 Y1.4469
N11820 G3 X3.4191 Y1.445 I0.0169 J0.0244
N11825 G1 X3.4434 Y1.4579
N11830 X3.4498 Y1.4615
N11835 X3.4647 Y1.4699
N11840 G3 X3.4596 Y1.493 I-0.0065 J0.0107
N11845 G1 X3.4569 Y1.4933 Z-0.0497
N11850 X3.4543 Y1.4936 Z-0.0488
N11855 X3.4519 Y1.4939 Z-0.0473
N11860 X3.4499 Y1.4941 Z-0.0453
N11865 X3.4485 Y1.4943 Z-0.0429
N11870 X3.4475 Y1.4944 Z-0.0403
N11875 X3.4472 Z-0.0375
N11880 G0 Z0.2
N11885 G1 X3.0991 Y2.2591 F500.
N11890 G0 Z-0.025
N11895 G1 Z-0.0375 F78.258
N11900 X3.0987 Y2.2592 Z-0.0403
N11905 X3.0978 Y2.2593 Z-0.0429
N11910 X3.0963 Y2.2594 Z-0.0453
N11915 X3.0944 Y2.2596 Z-0.0473
N11920 X3.092 Y2.2599 Z-0.0488
N11925 X3.0894 Y2.2602 Z-0.0497
N11930 X3.0866 Y2.2605 Z-0.05
N11935 G3 X3.056 Y2.256 I-0.0066 J-0.062
N11940 G1 X3.0123 Y2.236
N11945 G3 X2.9742 Y2.1932 I0.0386 J-0.0727
N11950 X2.9579 Y2.1187 I0.1652 J-0.0754
N11955 X2.9694 Y2.0201 I0.3462 J-0.0095
N11960 X3.0436 Y1.8307 I0.8495 J0.2235
N11965 X3.2874 Y1.474 I1.5154 J0.7742
N11970 G1 X3.3051 Y1.4557
N11975 X3.3235 Y1.4381
N11980 X3.3355 Y1.4282
N11985 X3.3446 Y1.422
N11990 G3 X3.3737 Y1.4209 I0.0155 J0.0248
N11995 G1 X3.4191 Y1.445
N12000 G3 X3.4147 Y1.4682 I-0.0062 J0.0108
N12005 G1 X3.4119 Y1.4686 Z-0.0497
N12010 X3.4093 Y1.469 Z-0.0488
N12015 X3.407 Y1.4693 Z-0.0473
N12020 X3.405 Y1.4696 Z-0.0453
N12025 X3.4036 Y1.4698 Z-0.0429
N12030 X3.4026 Y1.47 Z-0.0403
N12035 X3.4023 Z-0.0375
N12040 G0 Z0.2
N12045 G1 X3.0553 Y2.2391 F500.
N12050 G0 Z-0.025
N12055 G1 Z-0.0375 F78.258
N12060 X3.055 Z-0.0403
N12065 X3.0541 Y2.2392 Z-0.0429
N12070 X3.0526 Y2.2394 Z-0.0453
N12075 X3.0507 Y2.2396 Z-0.0473
N12080 X3.0483 Y2.2398 Z-0.0488
N12085 X3.0457 Y2.2401 Z-0.0497
N12090 X3.0429 Y2.2404 Z-0.05
N12095 G3 X3.0123 Y2.236 I-0.0066 J-0.062
N12100 G1 X2.9697 Y2.2164
N12105 G3 X2.9312 Y2.1736 I0.0385 J-0.0734
N12110 X2.9144 Y2.0998 I0.1646 J-0.0762
N12115 X2.9253 Y2.0012 I0.3477 J-0.0115
N12120 X2.9983 Y1.8114 I0.8455 J0.2163
N12125 X3.2401 Y1.4533 I1.5316 J0.7733
N12130 G1 X3.2576 Y1.4348
N12135 X3.2757 Y1.4168
N12140 X3.2879 Y1.4063
N12145 X3.2974 Y1.3994
N12150 G3 X3.3343 Y1.4002 I0.0179 J0.0256
N12155 G1 X3.3737 Y1.4209
N12160 G3 X3.3693 Y1.4441 I-0.0062 J0.0108
N12165 G1 X3.3666 Y1.4445 Z-0.0497
N12170 X3.3639 Y1.4449 Z-0.0488
N12175 X3.3616 Y1.4452 Z-0.0473
N12180 X3.3596 Y1.4455 Z-0.0453
N12185 X3.3582 Y1.4457 Z-0.0429
N12190 X3.3572 Y1.4459 Z-0.0403
N12195 X3.3569 Z-0.0375
N12200 G0 Z0.2
N12205 G1 X3.0128 Y2.2196 F500.
N12210 G0 Z-0.025
N12215 G1 Z-0.0375 F78.258
N12220 X3.0125 Z-0.0403
N12225 X3.0115 Y2.2197 Z-0.0429
N12230 X3.0101 Y2.2198 Z-0.0453
N12235 X3.0081 Y2.2201 Z-0.0473
N12240 X3.0057 Y2.2203 Z-0.0488
N12245 X3.0031 Y2.2206 Z-0.0497
N12250 X3.0003 Y2.2209 Z-0.05
N12255 G3 X2.9697 Y2.2164 I-0.0066 J-0.062
N12260 G1 X2.9518 Y2.2082
N12265 G3 X2.9181 Y2.1924 I0.1112 J-0.2803
N12270 X2.8807 Y2.136 I0.0651 J-0.0838
N12275 X2.8705 Y2.0656 I0.2001 J-0.0647
N12280 X2.8925 Y1.9406 I0.4312 J0.0112
N12285 X2.985 Y1.7312 I1.0226 J0.3268
N12290 X3.2046 Y1.4193 I1.5167 J0.8344
N12295 X3.2528 Y1.3754 I0.2358 J0.21
N12300 X3.2821 Y1.3736 I0.0162 J0.0252
N12305 G1 X3.3117 Y1.3885
N12310 X3.3285 Y1.397
N12315 G3 X3.3242 Y1.4202 I-0.0062 J0.0109
N12320 G1 X3.3215 Y1.4206 Z-0.0497
N12325 X3.3189 Y1.421 Z-0.0488
N12330 X3.3165 Y1.4214 Z-0.0473
N12335 X3.3146 Y1.4217 Z-0.0453
N12340 X3.3131 Y1.4219 Z-0.0429
N12345 X3.3122 Y1.422 Z-0.0403
N12350 X3.3119 Y1.4221 Z-0.0375
N12355 G0 Z0.2
N12360 G1 X2.9717 Y2.2001 F500.
N12365 G0 Z-0.025
N12370 G1 Z-0.0375 F78.258
N12375 X2.9714 Y2.2002 Z-0.0403
N12380 X2.9705 Y2.2003 Z-0.0429
N12385 X2.969 Y2.2005 Z-0.0453
N12390 X2.9671 Y2.2007 Z-0.0473
N12395 X2.9647 Y2.201 Z-0.0488
N12400 X2.9621 Y2.2014 Z-0.0497
N12405 X2.9593 Y2.2017 Z-0.05
N12410 G3 X2.9286 Y2.198 I-0.0081 J-0.0618
N12415 G1 X2.8849 Y2.1792
N12420 G3 X2.8459 Y2.1381 I0.036 J-0.0734
N12425 X2.8275 Y2.0656 I0.1598 J-0.0791
N12430 X2.836 Y1.9677 I0.337 J-0.0199
N12435 X2.906 Y1.7768 I0.8262 J0.1944
N12440 X3.1595 Y1.3962 I1.5584 J0.7634
N12445 X3.2068 Y1.3525 I0.2273 J0.1989
N12450 X3.2363 Y1.3507 I0.0163 J0.0251
N12455 G1 X3.2821 Y1.3737
N12460 G0 Z0.2
N12465 G1 X2.928 Y2.1813 F500.
N12470 G0 Z-0.025
N12475 G1 Z-0.0375 F78.258
N12480 X2.9277 Z-0.0403
N12485 X2.9268 Y2.1814 Z-0.0429
N12490 X2.9253 Y2.1816 Z-0.0453
N12495 X2.9234 Y2.1819 Z-0.0473
N12500 X2.921 Y2.1822 Z-0.0488
N12505 X2.9184 Y2.1825 Z-0.0497
N12510 X2.9156 Y2.1829 Z-0.05
N12515 G3 X2.8849 Y2.1792 I-0.0081 J-0.0618
N12520 G1 X2.8418 Y2.1606
N12525 G3 X2.8023 Y2.1193 I0.0361 J-0.074
N12530 X2.7837 Y2.0472 I0.1594 J-0.0797
N12535 X2.7918 Y1.9491 I0.339 J-0.0215
N12540 X2.8607 Y1.7578 I0.8265 J0.1897
N12545 X3.1121 Y1.3757 I1.5731 J0.7615
N12550 X3.1604 Y1.3302 I0.2357 J0.2015
N12555 X3.1952 Y1.3307 I0.017 J0.0265
N12560 G1 X3.2124 Y1.3388
N12565 X3.2355 Y1.3504
N12570 X3.2363 Y1.3507
N12575 G0 Z0.2
N12580 G1 X2.8849 Y2.1627 F500.
N12585 G0 Z-0.025
N12590 G1 Z-0.0375 F78.258
N12595 X2.8846 Z-0.0403
N12600 X2.8837 Y2.1629 Z-0.0429
N12605 X2.8822 Y2.1631 Z-0.0453
N12610 X2.8802 Y2.1633 Z-0.0473
N12615 X2.8779 Y2.1636 Z-0.0488
N12620 X2.8752 Y2.164 Z-0.0497
N12625 X2.8725 Y2.1643 Z-0.05
N12630 G3 X2.8418 Y2.1606 I-0.0081 J-0.0618
N12635 G1 X2.8186 Y2.1506
N12640 X2.7982 Y2.1422
N12645 G3 X2.7585 Y2.1007 I0.0355 J-0.0738
N12650 X2.7396 Y2.0276 I0.1606 J-0.0804
N12655 X2.7477 Y1.9292 I0.3426 J-0.0216
N12660 X2.8159 Y1.7377 I0.8332 J0.189
N12665 X3.0655 Y1.3544 I1.5881 J0.7614
N12670 X3.1135 Y1.3084 I0.24 J0.2019
N12675 X3.1429 Y1.3059 I0.0169 J0.0248
N12680 G1 X3.1896 Y1.3279
N12685 G3 X3.1863 Y1.3513 I-0.0057 J0.0111
N12690 G1 X3.1835 Y1.3518 Z-0.0497
N12695 X3.1809 Y1.3523 Z-0.0488
N12700 X3.1786 Y1.3528 Z-0.0473
N12705 X3.1767 Y1.3531 Z-0.0453
N12710 X3.1752 Y1.3534 Z-0.0429
N12715 X3.1743 Y1.3536 Z-0.0403
N12720 X3.174 Y1.3537 Z-0.0375
N12725 G0 Z0.2
N12730 G1 X2.8414 Y2.1435 F500.
N12735 G0 Z-0.025
N12740 G1 Z-0.0375 F78.258
N12745 X2.8411 Z-0.0403
N12750 X2.8401 Y2.1437 Z-0.0429
N12755 X2.8387 Y2.1439 Z-0.0453
N12760 X2.8367 Y2.1442 Z-0.0473
N12765 X2.8344 Y2.1445 Z-0.0488
N12770 X2.8318 Y2.1449 Z-0.0497
N12775 X2.829 Y2.1453 Z-0.05
N12780 G3 X2.7982 Y2.1422 I-0.0092 J-0.0616
N12785 G1 X2.7549 Y2.1246
N12790 G3 X2.7148 Y2.083 I0.0356 J-0.0745
N12795 X2.6956 Y2.0099 I0.161 J-0.0815
N12800 X2.7032 Y1.9111 I0.3448 J-0.0232
N12805 X2.7704 Y1.7192 I0.8345 J0.1847
N12810 X3.0179 Y1.3346 I1.6016 J0.7584
N12815 X3.0668 Y1.2867 I0.2457 J0.202
N12820 X3.0963 Y1.284 I0.0172 J0.0247
N12825 G1 X3.1429 Y1.3059
N12830 G3 X3.1396 Y1.3293 I-0.0057 J0.0111
N12835 G1 X3.1368 Y1.3298 Z-0.0497
N12840 X3.1343 Y1.3303 Z-0.0488
N12845 X3.1319 Y1.3308 Z-0.0473
N12850 X3.13 Y1.3312 Z-0.0453
N12855 X3.1285 Y1.3315 Z-0.0429
N12860 X3.1276 Y1.3316 Z-0.0403
N12865 X3.1273 Y1.3317 Z-0.0375
N12870 G0 Z0.2
N12875 G1 X2.7981 Y2.1258 F500.
N12880 G0 Z-0.025
N12885 G1 Z-0.0375 F78.258
N12890 X2.7978 Y2.1259 Z-0.0403
N12895 X2.7968 Y2.126 Z-0.0429
N12900 X2.7954 Y2.1262 Z-0.0453
N12905 X2.7934 Y2.1265 Z-0.0473
N12910 X2.7911 Y2.1269 Z-0.0488
N12915 X2.7885 Y2.1273 Z-0.0497
N12920 X2.7857 Y2.1277 Z-0.05
N12925 G3 X2.7549 Y2.1246 I-0.0094 J-0.0616
N12930 G1 X2.71 Y2.1064
N12935 G3 X2.6698 Y2.0631 I0.0376 J-0.0751
N12940 X2.651 Y1.9862 I0.1689 J-0.082
N12945 X2.6599 Y1.8861 I0.3584 J-0.0184
N12950 X2.7278 Y1.6944 I0.864 J0.1982
N12955 X2.9748 Y1.3094 I1.6198 J0.7671
N12960 X3.0199 Y1.2653 I0.2251 J0.1855
N12965 X3.0487 Y1.2625 I0.0169 J0.0247
N12970 G1 X3.0792 Y1.276
N12975 X3.0963 Y1.284
N12980 G3 X3.0931 Y1.3074 I-0.0057 J0.0111
N12985 G1 X3.0904 Y1.308 Z-0.0497
N12990 X3.0878 Y1.3085 Z-0.0488
N12995 X3.0855 Y1.3089 Z-0.0473
N13000 X3.0835 Y1.3093 Z-0.0453
N13005 X3.0821 Y1.3096 Z-0.0429
N13010 X3.0811 Y1.3098 Z-0.0403
N13015 X3.0808 Y1.3099 Z-0.0375
N13020 G0 Z0.2
N13025 G1 X2.7531 Y2.1076 F500.
N13030 G0 Z-0.025
N13035 G1 Z-0.0375 F78.258
N13040 X2.7528 Z-0.0403
N13045 X2.7519 Y2.1078 Z-0.0429
N13050 X2.7504 Y2.108 Z-0.0453
N13055 X2.7484 Y2.1083 Z-0.0473
N13060 X2.7461 Y2.1087 Z-0.0488
N13065 X2.7435 Y2.1091 Z-0.0497
N13070 X2.7407 Y2.1095 Z-0.05
N13075 G3 X2.71 Y2.1064 I-0.0094 J-0.0616
N13080 G1 X2.6855 Y2.0965
N13085 G3 X2.6574 Y2.0843 I0.0547 J-0.1644
N13090 X2.6179 Y2.0269 I0.0663 J-0.0879
N13095 X2.606 Y1.9532 I0.2079 J-0.0714
N13100 X2.6251 Y1.8277 I0.4494 J0.0041
N13105 X2.7117 Y1.6158 I1.0382 J0.3008
N13110 X2.9211 Y1.2968 I1.638 J0.8468
N13115 X2.9718 Y1.2449 I0.2742 J0.2175
N13120 X3.0015 Y1.2416 I0.0178 J0.0244
N13125 G1 X3.0487 Y1.2625
N13130 G3 X3.0459 Y1.286 I-0.0055 J0.0112
N13135 G1 X3.0432 Y1.2866 Z-0.0497
N13140 X3.0406 Y1.2871 Z-0.0488
N13145 X3.0383 Y1.2876 Z-0.0473
N13150 X3.0364 Y1.2881 Z-0.0453
N13155 X3.0349 Y1.2884 Z-0.0429
N13160 X3.034 Y1.2886 Z-0.0403
N13165 X3.0337 Y1.2887 Z-0.0375
N13170 G0 Z0.2
N13175 G1 X2.7112 Y2.0903 F500.
N13180 G0 Z-0.025
N13185 G1 Z-0.0375 F78.258
N13190 X2.7109 Y2.0904 Z-0.0403
N13195 X2.71 Y2.0905 Z-0.0429
N13200 X2.7085 Y2.0908 Z-0.0453
N13205 X2.7066 Y2.0911 Z-0.0473
N13210 X2.7043 Y2.0915 Z-0.0488
N13215 X2.7016 Y2.0919 Z-0.0497
N13220 X2.6989 Y2.0924 Z-0.05
N13225 G3 X2.6681 Y2.0897 I-0.0103 J-0.0615
N13230 G1 X2.6565 Y2.0853
N13235 X2.6244 Y2.073
N13240 G3 X2.5834 Y2.032 I0.0343 J-0.0752
N13245 X2.5628 Y1.9589 I0.1604 J-0.0847
N13250 X2.5686 Y1.8598 I0.3453 J-0.0294
N13255 X2.6326 Y1.6668 I0.8322 J0.1685
N13260 X2.8266 Y1.3384 I1.6194 J0.735
N13265 X2.9066 Y1.24 I0.7675 J0.5432
N13270 G1 X2.9182 Y1.2295
N13275 X2.9246 Y1.2245
N13280 G3 X2.954 Y1.2207 I0.0179 J0.023
N13285 G1 X2.9634 Y1.2247
N13290 X3.0015 Y1.2416
N13295 G3 X2.9987 Y1.2651 I-0.0055 J0.0112
N13300 G1 X2.996 Y1.2657 Z-0.0497
N13305 X2.9934 Y1.2662 Z-0.0488
N13310 X2.9911 Y1.2667 Z-0.0473
N13315 X2.9892 Y1.2672 Z-0.0453
N13320 X2.9877 Y1.2675 Z-0.0429
N13325 X2.9868 Y1.2677 Z-0.0403
N13330 X2.9865 Z-0.0375
N13335 G0 Z0.2
N13340 G1 X2.6675 Y2.0733 F500.
N13345 G0 Z-0.025
N13350 G1 Z-0.0375 F78.258
N13355 X2.6672 Y2.0734 Z-0.0403
N13360 X2.6663 Y2.0735 Z-0.0429
N13365 X2.6648 Y2.0738 Z-0.0453
N13370 X2.6629 Y2.0741 Z-0.0473
N13375 X2.6605 Y2.0745 Z-0.0488
N13380 X2.6579 Y2.075 Z-0.0497
N13385 X2.6552 Y2.0755 Z-0.05
N13390 G3 X2.6244 Y2.073 I-0.0107 J-0.0614
N13395 G1 X2.5812 Y2.0566
N13400 G3 X2.5401 Y2.0169 I0.0331 J-0.0754
N13405 X2.5187 Y1.9458 I0.1564 J-0.086
N13410 X2.523 Y1.8469 I0.3392 J-0.0348
N13415 X2.5849 Y1.6533 I0.8195 J0.1554
N13420 X2.7616 Y1.3441 I1.5986 J0.7086
N13425 X2.8556 Y1.2237 I0.9494 J0.644
N13430 G1 X2.8679 Y1.2118
N13435 X2.8766 Y1.2045
N13440 G3 X2.906 Y1.2005 I0.0181 J0.0232
N13445 G1 X2.9402 Y1.2148
N13450 X2.954 Y1.2207
N13455 G3 X2.9515 Y1.2442 I-0.0053 J0.0113
N13460 G1 X2.9488 Y1.2448 Z-0.0497
N13465 X2.9463 Y1.2454 Z-0.0488
N13470 X2.9439 Y1.246 Z-0.0473
N13475 X2.942 Y1.2464 Z-0.0453
N13480 X2.9406 Y1.2467 Z-0.0429
N13485 X2.9397 Y1.247 Z-0.0403
N13490 X2.9394 Z-0.0375
N13495 G0 Z0.2
N13500 G1 X2.6244 Y2.0569 F500.
N13505 G0 Z-0.025
N13510 G1 Z-0.0375 F78.258
N13515 X2.6241 Z-0.0403
N13520 X2.6232 Y2.0571 Z-0.0429
N13525 X2.6217 Y2.0574 Z-0.0453
N13530 X2.6197 Y2.0577 Z-0.0473
N13535 X2.6174 Y2.0581 Z-0.0488
N13540 X2.6148 Y2.0586 Z-0.0497
N13545 X2.6121 Y2.059 Z-0.05
N13550 G3 X2.5812 Y2.0566 I-0.0107 J-0.0614
N13555 G1 X2.5465 Y2.0434
N13560 G3 X2.4962 Y2.0009 I0.0235 J-0.0788
N13565 X2.4742 Y1.9304 I0.1537 J-0.0865
N13570 X2.4776 Y1.832 I0.3357 J-0.0377
N13575 X2.5381 Y1.6379 I0.8159 J0.1478
N13580 X2.7129 Y1.3276 I1.5991 J0.6961
N13585 X2.8179 Y1.1937 I0.8808 J0.5825
N13590 G1 X2.8275 Y1.1858
N13595 G3 X2.8584 Y1.1807 I0.0196 J0.0225
N13600 G1 X2.906 Y1.2005
N13605 G3 X2.9037 Y1.2241 I-0.0052 J0.0114
N13610 G1 X2.901 Y1.2247 Z-0.0497
N13615 X2.8984 Y1.2253 Z-0.0488
N13620 X2.8961 Y1.2259 Z-0.0473
N13625 X2.8942 Y1.2264 Z-0.0453
N13630 X2.8927 Y1.2267 Z-0.0429
N13635 X2.8918 Y1.2269 Z-0.0403
N13640 X2.8915 Y1.227 Z-0.0375
N13645 G0 Z0.2
N13650 G1 X2.5807 Y2.04 F500.
N13655 G0 Z-0.025
N13660 G1 Z-0.0375 F78.258
N13665 X2.5804 Y2.0401 Z-0.0403
N13670 X2.5795 Y2.0402 Z-0.0429
N13675 X2.578 Y2.0405 Z-0.0453
N13680 X2.576 Y2.0409 Z-0.0473
N13685 X2.5737 Y2.0413 Z-0.0488
N13690 X2.5711 Y2.0418 Z-0.0497
N13695 X2.5684 Y2.0423 Z-0.05
N13700 G3 X2.5375 Y2.0401 I-0.0112 J-0.0613
N13705 G1 X2.5291 Y2.037
N13710 X2.4944 Y2.0245
N13715 G3 X2.4527 Y1.9864 I0.0306 J-0.0754
N13720 X2.43 Y1.9176 I0.1503 J-0.0878
N13725 X2.4319 Y1.8195 I0.3294 J-0.0426
N13730 X2.4904 Y1.6248 I0.8045 J0.1357
N13735 X2.6486 Y1.3343 I1.5683 J0.6656
N13740 X2.7545 Y1.1909 I1.1643 J0.7494
N13745 G1 X2.768 Y1.1768
N13750 X2.778 Y1.1677
N13755 G3 X2.8029 Y1.159 I0.0219 J0.0229
N13760 G1 X2.8102 Y1.1609
N13765 X2.829 Y1.1684
N13770 X2.8583 Y1.1807
N13775 G3 X2.8561 Y1.2042 I-0.0052 J0.0114
N13780 G1 X2.8534 Y1.2049 Z-0.0497
N13785 X2.8508 Y1.2055 Z-0.0488
N13790 X2.8485 Y1.206 Z-0.0473
N13795 X2.8466 Y1.2065 Z-0.0453
N13800 X2.8451 Y1.2069 Z-0.0429
N13805 X2.8442 Y1.2071 Z-0.0403
N13810 X2.8439 Z-0.0375
N13815 G0 Z0.2
N13820 G1 X2.5375 Y2.0239 F500.
N13825 G0 Z-0.025
N13830 G1 Z-0.0375 F78.258
N13835 X2.5372 Y2.024 Z-0.0403
N13840 X2.5363 Y2.0242 Z-0.0429
N13845 X2.5349 Y2.0245 Z-0.0453
N13850 X2.5329 Y2.0248 Z-0.0473
N13855 X2.5306 Y2.0253 Z-0.0488
N13860 X2.528 Y2.0258 Z-0.0497
N13865 X2.5253 Y2.0263 Z-0.05
N13870 G3 X2.4944 Y2.0245 I-0.0119 J-0.0612
N13875 G1 X2.4482 Y2.008
N13880 G3 X2.4066 Y1.9679 I0.0331 J-0.076
N13885 X2.3842 Y1.8939 I0.1603 J-0.0889
N13890 X2.388 Y1.7939 I0.3483 J-0.0368
N13895 X2.4478 Y1.5996 I0.8425 J0.1529
N13900 X2.6202 Y1.2879 I1.6246 J0.695
N13905 X2.712 Y1.1658 I0.9988 J0.6551
N13910 G1 X2.724 Y1.1538
N13915 X2.7327 Y1.1463
N13920 G3 X2.7617 Y1.1418 I0.0183 J0.0229
N13925 G1 X2.8102 Y1.1609
N13930 G3 X2.8083 Y1.1845 I-0.005 J0.0114
N13935 G1 X2.8056 Y1.1852 Z-0.0497
N13940 X2.8031 Y1.1858 Z-0.0488
N13945 X2.8008 Y1.1864 Z-0.0473
N13950 X2.7989 Y1.1869 Z-0.0453
N13955 X2.7974 Y1.1873 Z-0.0429
N13960 X2.7965 Y1.1875 Z-0.0403
N13965 X2.7962 Y1.1876 Z-0.0375
N13970 G0 Z0.2
N13975 G1 X2.4914 Y2.0074 F500.
N13980 G0 Z-0.025
N13985 G1 Z-0.0375 F78.258
N13990 X2.4911 Y2.0075 Z-0.0403
N13995 X2.4901 Y2.0076 Z-0.0429
N14000 X2.4887 Y2.0079 Z-0.0453
N14005 X2.4867 Y2.0083 Z-0.0473
N14010 X2.4844 Y2.0088 Z-0.0488
N14015 X2.4818 Y2.0093 Z-0.0497
N14020 X2.4791 Y2.0098 Z-0.05
N14025 G3 X2.4482 Y2.008 I-0.0119 J-0.0612
N14030 G1 X2.4044 Y1.9923
N14035 G3 X2.3623 Y1.9526 I0.0325 J-0.0765
N14040 X2.3394 Y1.8798 I0.1594 J-0.0901
N14045 X2.3423 Y1.7803 I0.3459 J-0.0397
N14050 X2.4005 Y1.5855 I0.8357 J0.1436
N14055 X2.5708 Y1.2727 I1.6236 J0.6811
N14060 X2.6616 Y1.1498 I1.0344 J0.6687
N14065 G1 X2.6737 Y1.1371
N14070 X2.6829 Y1.1287
N14075 G3 X2.7136 Y1.123 I0.02 J0.0221
N14080 G1 X2.7617 Y1.1418
N14085 G3 X2.7599 Y1.1654 I-0.005 J0.0115
N14090 G1 X2.7572 Y1.1661 Z-0.0497
N14095 X2.7546 Y1.1668 Z-0.0488
N14100 X2.7524 Y1.1674 Z-0.0473
N14105 X2.7504 Y1.1679 Z-0.0453
N14110 X2.749 Y1.1683 Z-0.0429
N14115 X2.7481 Y1.1685 Z-0.0403
N14120 X2.7478 Y1.1686 Z-0.0375
N14125 G0 Z0.2
N14130 G1 X2.4475 Y1.9917 F500.
N14135 G0 Z-0.025
N14140 G1 Z-0.0375 F78.258
N14145 X2.4472 Y1.9918 Z-0.0403
N14150 X2.4463 Y1.9919 Z-0.0429
N14155 X2.4448 Y1.9922 Z-0.0453
N14160 X2.4429 Y1.9926 Z-0.0473
N14165 X2.4405 Y1.9931 Z-0.0488
N14170 X2.438 Y1.9936 Z-0.0497
N14175 X2.4352 Y1.9941 Z-0.05
N14180 G3 X2.4044 Y1.9923 I-0.0119 J-0.0612
N14185 G1 X2.396 Y1.9893
N14190 G3 X2.3502 Y1.9728 I0.1263 J-0.4224
N14195 X2.308 Y1.9177 I0.0629 J-0.092
N14200 X2.2926 Y1.8465 I0.2021 J-0.0809
N14205 X2.3053 Y1.7201 I0.4399 J-0.0195
N14210 X2.3823 Y1.5046 I1.0251 J0.2447
N14215 X2.5929 Y1.1564 I1.7359 J0.812
N14220 X2.6363 Y1.1088 I0.2495 J0.1838
N14225 X2.6648 Y1.1043 I0.0184 J0.0236
N14230 G1 X2.6816 Y1.1105
N14235 X2.6913 Y1.1142
N14240 X2.7136 Y1.123
N14245 G3 X2.7118 Y1.1465 I-0.005 J0.0115
N14250 G1 X2.7092 Y1.1472 Z-0.0497
N14255 X2.7066 Y1.1479 Z-0.0488
N14260 X2.7043 Y1.1485 Z-0.0473
N14265 X2.7024 Y1.149 Z-0.0453
N14270 X2.701 Y1.1494 Z-0.0429
N14275 X2.7001 Y1.1497 Z-0.0403
N14280 X2.6998 Z-0.0375
N14285 G0 Z0.2
N14290 G1 X2.4043 Y1.9761 F500.
N14295 G0 Z-0.025
N14300 G1 Z-0.0375 F78.258
N14305 X2.404 Y1.9762 Z-0.0403
N14310 X2.4031 Y1.9764 Z-0.0429
N14315 X2.4017 Y1.9767 Z-0.0453
N14320 X2.3997 Y1.9771 Z-0.0473
N14325 X2.3974 Y1.9776 Z-0.0488
N14330 X2.3948 Y1.9781 Z-0.0497
N14335 X2.3921 Y1.9787 Z-0.05
N14340 G3 X2.3612 Y1.9775 I-0.0131 J-0.0609
N14345 G1 X2.3149 Y1.9619
N14350 G3 X2.2724 Y1.9215 I0.0326 J-0.0769
N14355 X2.2489 Y1.8465 I0.1621 J-0.0918
N14360 X2.2517 Y1.7461 I0.353 J-0.0405
N14365 X2.3087 Y1.5508 I0.8543 J0.1435
N14370 X2.4761 Y1.2365 I1.647 J0.6757
N14375 X2.5655 Y1.1126 I1.0574 J0.6687
N14380 G1 X2.5777 Y1.0998
N14385 X2.5862 Y1.092
N14390 G3 X2.616 Y1.0862 I0.0196 J0.0216
N14395 G1 X2.6648 Y1.1043
N14400 G3 X2.6635 Y1.1279 I-0.0047 J0.0116
N14405 G1 X2.6608 Y1.1286 Z-0.0497
N14410 X2.6583 Y1.1294 Z-0.0488
N14415 X2.656 Y1.13 Z-0.0473
N14420 X2.6541 Y1.1306 Z-0.0453
N14425 X2.6527 Y1.131 Z-0.0429
N14430 X2.6518 Y1.1312 Z-0.0403
N14435 X2.6515 Y1.1313 Z-0.0375
N14440 G0 Z0.2
N14445 G1 X2.358 Y1.9605 F500.
N14450 G0 Z-0.025
N14455 G1 Z-0.0375 F78.258
N14460 X2.3577 Y1.9606 Z-0.0403
N14465 X2.3568 Y1.9608 Z-0.0429
N14470 X2.3554 Y1.9611 Z-0.0453
N14475 X2.3534 Y1.9615 Z-0.0473
N14480 X2.3511 Y1.962 Z-0.0488
N14485 X2.3485 Y1.9625 Z-0.0497
N14490 X2.3458 Y1.9631 Z-0.05
N14495 G3 X2.3149 Y1.9619 I-0.0131 J-0.0609
N14500 G1 X2.2712 Y1.9472
N14505 G3 X2.2285 Y1.9083 I0.031 J-0.0769
N14510 X2.2042 Y1.8356 I0.158 J-0.0932
N14515 X2.2054 Y1.736 I0.3463 J-0.0458
N14520 X2.2602 Y1.5401 I0.8373 J0.1287
N14525 X2.4114 Y1.246 I1.6124 J0.6428
N14530 X2.5131 Y1.0996 I1.2462 J0.7579
N14535 G1 X2.5266 Y1.0845
N14540 X2.5355 Y1.076
N14545 G3 X2.5602 Y1.0666 I0.0226 J0.0222
N14550 G1 X2.5676 Y1.0683
N14555 X2.616 Y1.0862
N14560 G3 X2.6147 Y1.1098 I-0.0047 J0.0116
N14565 G1 X2.612 Y1.1106 Z-0.0497
N14570 X2.6094 Y1.1113 Z-0.0488
N14575 X2.6072 Y1.112 Z-0.0473
N14580 X2.6053 Y1.1125 Z-0.0453
N14585 X2.6038 Y1.1129 Z-0.0429
N14590 X2.6029 Y1.1132 Z-0.0403
N14595 X2.6026 Z-0.0375
N14600 G0 Z0.2
N14605 G1 X2.3143 Y1.9458 F500.
N14610 G0 Z-0.025
N14615 G1 Z-0.0375 F78.258
N14620 X2.314 Z-0.0403
N14625 X2.3131 Y1.946 Z-0.0429
N14630 X2.3116 Y1.9463 Z-0.0453
N14635 X2.3097 Y1.9468 Z-0.0473
N14640 X2.3074 Y1.9473 Z-0.0488
N14645 X2.3048 Y1.9478 Z-0.0497
N14650 X2.3021 Y1.9484 Z-0.05
N14655 G3 X2.2712 Y1.9472 I-0.0131 J-0.0609
N14660 G1 X2.2453 Y1.9385
N14665 G3 X2.2118 Y1.9253 I0.0308 J-0.1267
N14670 X2.1738 Y1.875 I0.07 J-0.0925
N14675 X2.157 Y1.8046 I0.202 J-0.0855
N14680 X2.167 Y1.6781 I0.4347 J-0.0292
N14685 X2.2399 Y1.4611 I1.0182 J0.2216
N14690 X2.4592 Y1.0886 I1.7617 J0.7863
N14695 G1 X2.4744 Y1.0709
N14700 X2.4849 Y1.0603
N14705 G3 X2.5109 Y1.0491 I0.0244 J0.0212
N14710 G1 X2.5183 Y1.0507
N14715 G3 X2.5676 Y1.0683 I-0.7026 J2.0401
N14720 X2.5663 Y1.0919 I-0.0047 J0.0116
N14725 G1 X2.5636 Y1.0927 Z-0.0497
N14730 X2.5611 Y1.0934 Z-0.0488
N14735 X2.5588 Y1.0941 Z-0.0473
N14740 X2.5569 Y1.0946 Z-0.0453
N14745 X2.5555 Y1.095 Z-0.0429
N14750 X2.5546 Y1.0953 Z-0.0403
N14755 X2.5543 Y1.0954 Z-0.0375
N14760 G0 Z0.2
N14765 G1 X2.2711 Y1.9308 F500.
N14770 G0 Z-0.025
N14775 G1 Z-0.0375 F78.258
N14780 X2.2708 Z-0.0403
N14785 X2.2699 Y1.9311 Z-0.0429
N14790 X2.2685 Y1.9314 Z-0.0453
N14795 X2.2666 Y1.9318 Z-0.0473
N14800 X2.2642 Y1.9324 Z-0.0488
N14805 X2.2617 Y1.933 Z-0.0497
N14810 X2.259 Y1.9336 Z-0.05
N14815 G3 X2.228 Y1.933 I-0.0142 J-0.0607
N14820 G1 X2.1817 Y1.9183
N14825 G3 X2.1386 Y1.8796 I0.0303 J-0.0772
N14830 X2.1135 Y1.8065 I0.1573 J-0.0948
N14835 X2.1137 Y1.7066 I0.3445 J-0.0492
N14840 X2.1665 Y1.5103 I0.8425 J0.1212
N14845 X2.3145 Y1.2145 I1.6266 J0.6289
N14850 X2.4144 Y1.0668 I1.2952 J0.7685
N14855 G1 X2.428 Y1.0511
N14860 X2.4374 Y1.0418
N14865 G3 X2.4619 Y1.032 I0.0229 J0.0218
N14870 G1 X2.4693 Y1.0336
N14875 X2.5183 Y1.0507
N14880 G3 X2.5175 Y1.0743 I-0.0045 J0.0117
N14885 G1 X2.5148 Y1.0751 Z-0.0497
N14890 X2.5123 Y1.0759 Z-0.0488
N14895 X2.51 Y1.0766 Z-0.0473
N14900 X2.5081 Y1.0772 Z-0.0453
N14905 X2.5067 Y1.0776 Z-0.0429
N14910 X2.5058 Y1.0779 Z-0.0403
N14915 X2.5055 Y1.078 Z-0.0375
N14920 G0 Z0.2
N14925 G1 X2.2248 Y1.9161 F500.
N14930 G0 Z-0.025
N14935 G1 Z-0.0375 F78.258
N14940 X2.2245 Y1.9162 Z-0.0403
N14945 X2.2236 Y1.9164 Z-0.0429
N14950 X2.2222 Y1.9167 Z-0.0453
N14955 X2.2202 Y1.9172 Z-0.0473
N14960 X2.2179 Y1.9177 Z-0.0488
N14965 X2.2154 Y1.9183 Z-0.0497
N14970 X2.2126 Y1.9189 Z-0.05
N14975 G3 X2.1817 Y1.9183 I-0.0142 J-0.0607
N14980 G1 X2.1361 Y1.9038
N14985 G3 X2.0925 Y1.864 I0.0314 J-0.0781
N14990 X2.0675 Y1.789 I0.1618 J-0.0957
N14995 X2.0682 Y1.6891 I0.354 J-0.0474
N15000 X2.1301 Y1.4689 I0.8949 J0.1325
N15005 X2.2676 Y1.1962 I1.649 J0.6609
N15010 X2.367 Y1.0482 I1.2941 J0.7613
N15015 G1 X2.3797 Y1.0336
N15020 X2.3889 Y1.0244
N15025 G3 X2.4205 Y1.0165 I0.022 J0.021
N15030 G1 X2.4693 Y1.0336
N15035 G3 X2.4684 Y1.0572 I-0.0045 J0.0117
N15040 G1 X2.4658 Y1.058 Z-0.0497
N15045 X2.4633 Y1.0588 Z-0.0488
N15050 X2.461 Y1.0595 Z-0.0473
N15055 X2.4591 Y1.0601 Z-0.0453
N15060 X2.4577 Y1.0605 Z-0.0429
N15065 X2.4568 Y1.0608 Z-0.0403
N15070 X2.4565 Y1.0609 Z-0.0375
N15075 G0 Z0.2
N15080 G1 X2.1792 Y1.9016 F500.
N15085 G0 Z-0.025
N15090 G1 Z-0.0375 F78.258
N15095 X2.1789 Y1.9017 Z-0.0403
N15100 X2.178 Y1.9019 Z-0.0429
N15105 X2.1765 Y1.9022 Z-0.0453
N15110 X2.1746 Y1.9027 Z-0.0473
N15115 X2.1723 Y1.9032 Z-0.0488
N15120 X2.1697 Y1.9038 Z-0.0497
N15125 X2.167 Y1.9044 Z-0.05
N15130 G3 X2.1361 Y1.9038 I-0.0142 J-0.0607
N15135 G1 X2.0917 Y1.8897
N15140 G3 X2.0481 Y1.8513 I0.0299 J-0.0778
N15145 X2.0225 Y1.7785 I0.1572 J-0.0964
N15150 G1 X2.0195 Y1.7549
N15155 X2.0187 Y1.7317
N15160 X2.019 Y1.7263
N15165 X2.0203 Y1.721
N15170 X2.0225 Y1.7161
N15175 G3 X2.0448 Y1.7181 I0.0106 J0.0066
N15180 G1 X2.046 Y1.7212
N15185 X2.1054 Y1.8701
N15190 X2.1066 Y1.873
N15195 G3 X2.0917 Y1.8897 I-0.0116 J0.0046
N15200 G1 X2.0717 Y1.8836
N15205 X2.0486 Y1.8765
N15210 G3 X2.0048 Y1.8406 I0.0268 J-0.0773
N15215 X1.9819 Y1.7852 I0.115 J-0.08
N15220 G1 X1.9833 Y1.7765
N15225 X1.987 Y1.7686
N15230 G3 X2.0078 Y1.7694 I0.0101 J0.0073
N15235 G1 X2.0111 Y1.7748
N15240 X2.0618 Y1.8569
N15245 X2.0624 Y1.8579
N15250 X2.0634 Y1.8599
N15255 X2.064 Y1.8621
N15260 X2.0643 Y1.8644
N15265 G3 X2.0486 Y1.8765 I-0.0125 J0.
N15270 G1 X2.0138 Y1.866
N15275 G3 X1.9652 Y1.8349 I0.0151 J-0.0772
N15280 X1.965 Y1.8013 I0.0236 J-0.017
N15285 X1.9851 Y1.8014 I0.01 J0.0075
N15290 G1 X1.9896 Y1.8076
N15295 X2.0153 Y1.8429
N15300 X2.0155 Y1.8431
N15305 G3 X2.0022 Y1.8626 I-0.0101 J0.0074
N15310 G1 X1.9653 Y1.8517
N15315 G3 X1.9532 Y1.8159 I0.0028 J-0.0209
N15320 X1.9627 Y1.8106 I0.016 J0.0171
N15325 X1.9633 Y1.8511 I0.0058 J0.0202
N15330 G1 X1.9501 Y1.8472
N15335 X1.9484 Y1.8467
N15340 X1.9467 Y1.8459
N15345 X1.9455 Y1.8451
N15350 X1.9443 Y1.8442
N15355 X1.9432 Y1.8432
N15360 X1.9424 Y1.8422
N15365 X1.9417 Y1.8411
N15370 X1.9411 Y1.8401
N15375 X1.9405 Y1.8386
N15380 X1.9402 Y1.8372
N15385 X1.9399 Y1.8357
N15390 Y1.8343
N15395 X1.94 Y1.8329
N15400 X1.9403 Y1.8314
N15405 G3 X1.9464 Y1.8227 I0.0192 J0.007
N15410 G2 X1.9662 Y1.7996 I-0.0655 J-0.076
N15415 X2.0246 Y1.7128 I-6.6232 J-4.5206
N15420 X2.078 Y1.6027 I-1.6726 J-0.8797
N15425 G1 X2.084 Y1.5853
N15430 X2.1086 Y1.5101
N15435 G2 X2.116 Y1.4811 I-0.4551 J-0.1327
N15440 G1 X2.1316 Y1.3943
N15445 G3 X2.1554 Y1.302 I0.2867 J0.0247
N15450 X2.2543 Y1.124 I1.2119 J0.5575
N15455 X2.3269 Y1.021 I0.849 J0.5216
N15460 G1 X2.3374 Y1.0102
N15465 X2.3422 Y1.0059
N15470 G3 X2.3708 Y0.9998 I0.0195 J0.0217
N15475 G1 X2.4018 Y1.01
N15480 X2.4205 Y1.0166
N15485 G3 X2.4196 Y1.0402 I-0.0045 J0.0117
N15490 G1 X2.417 Y1.041 Z-0.0497
N15495 X2.4144 Y1.0417 Z-0.0488
N15500 X2.4122 Y1.0424 Z-0.0473
N15505 X2.4103 Y1.043 Z-0.0453
N15510 X2.4088 Y1.0435 Z-0.0429
N15515 X2.408 Y1.0437 Z-0.0403
N15520 X2.4077 Y1.0438 Z-0.0375
N15525 G0 Z0.2
N15530 G1 X2.1455 Y1.4184 F500.
N15535 G0 Z-0.025
N15540 G1 Z-0.0375 F78.258
N15545 X2.1454 Y1.4181 Z-0.0403
N15550 X2.145 Y1.4173 Z-0.0429
N15555 X2.1443 Y1.416 Z-0.0453
N15560 X2.1434 Y1.4142 Z-0.0473
N15565 X2.1424 Y1.4121 Z-0.0488
N15570 X2.1412 Y1.4097 Z-0.0497
N15575 X2.14 Y1.4072 Z-0.05
N15580 G3 X2.1338 Y1.3769 I0.056 J-0.0273
N15585 G1 X2.1343 Y1.3711
N15590 G2 X2.1384 Y1.2657 I-3.2419 J-0.1807
N15595 G3 X2.1588 Y1.1953 I0.2372 J0.0306
N15600 X2.2498 Y1.0422 I0.8873 J0.4233
N15605 X2.2928 Y0.9896 I0.2556 J0.1651
N15610 X2.3216 Y0.9836 I0.0197 J0.0226
N15615 G1 X2.3708 Y0.9998
N15620 G3 X2.3704 Y1.0235 I-0.0043 J0.0117
N15625 G1 X2.3677 Y1.0243 Z-0.0497
N15630 X2.3652 Y1.0251 Z-0.0488
N15635 X2.363 Y1.0259 Z-0.0473
N15640 X2.3611 Y1.0265 Z-0.0453
N15645 X2.3597 Y1.0269 Z-0.0429
N15650 X2.3588 Y1.0272 Z-0.0403
N15655 X2.3585 Y1.0273 Z-0.0375
N15660 G0 Z0.2
N15665 G1 X2.1531 Y1.3131 F500.
N15670 G0 Z-0.025
N15675 G1 Z-0.0375 F78.258
N15680 X2.1529 Y1.3129 Z-0.0403
N15685 X2.1524 Y1.3121 Z-0.0429
N15690 X2.1517 Y1.3108 Z-0.0453
N15695 X2.1507 Y1.3091 Z-0.0473
N15700 X2.1495 Y1.307 Z-0.0488
N15705 X2.1481 Y1.3048 Z-0.0497
N15710 X2.1467 Y1.3024 Z-0.05
N15715 G3 X2.1381 Y1.2727 I0.0537 J-0.0316
N15720 G1 X2.1382 Y1.2611
N15725 G2 X2.132 Y1.1914 I-3.8464 J0.3058
N15730 G3 X2.1409 Y1.1413 I0.1589 J0.0024
N15735 X2.185 Y1.052 I0.3836 J0.1339
N15740 X2.2379 Y0.9792 I0.413 J0.2442
N15745 G1 X2.2436 Y0.974
N15750 G3 X2.2727 Y0.9676 I0.02 J0.0212
N15755 G1 X2.3216 Y0.9836
N15760 G3 X2.3267 Y1.0035 I-0.0043 J0.0117
N15765 G1 X2.3223 Y1.0087
N15770 X2.1556 Y1.2022
N15775 X2.1542 Y1.2039
N15780 G3 X2.1323 Y1.1974 I-0.0095 J-0.0082
N15785 G1 X2.1294 Y1.1684
N15790 G2 X2.1242 Y1.1337 I-0.2241 J0.0162
N15795 G3 X2.1283 Y1.0755 I0.1151 J-0.0211
N15800 X2.1888 Y0.9652 I0.2886 J0.0867
N15805 X2.2096 Y0.9511 I0.0309 J0.0232
N15810 G1 X2.217 Y0.9506
N15815 X2.2243 Y0.952
N15820 X2.2496 Y0.96
N15825 X2.2727 Y0.9676
N15830 G3 X2.2778 Y0.9875 I-0.0043 J0.0117
N15835 G1 X2.2734 Y0.9926
N15840 X2.1481 Y1.136
N15845 X2.1456 Y1.1388
N15850 G3 X2.1241 Y1.1337 I-0.0094 J-0.0082
N15855 G1 X2.1229 Y1.1279
N15860 X2.1088 Y1.07
N15865 G3 X2.1119 Y1.0168 I0.1083 J-0.0204
N15870 X2.15 Y0.945 I0.1693 J0.0437
N15875 X2.1794 Y0.9379 I0.0208 J0.0213
N15880 X2.1866 Y0.955 I-0.0041 J0.0118
N15885 G1 X2.1823 Y0.9641
N15890 X2.1324 Y1.0715
N15895 X2.1322 Y1.0719
N15900 G3 X2.1088 Y1.07 I-0.0113 J-0.0053
N15905 G1 X2.1032 Y1.0469
N15910 G2 X2.093 Y1.0135 I-0.2369 J0.0543
N15915 G3 X2.1088 Y0.9374 I0.0974 J-0.0194
N15920 X2.1413 Y0.9262 I0.024 J0.0166
N15925 X2.1488 Y0.9426 I-0.0041 J0.0118
N15930 G1 X2.1449 Y0.9525
N15935 X2.1185 Y1.018
N15940 X2.1181 Y1.0192
N15945 G3 X2.0949 I-0.0116 J-0.0047
N15950 G1 X2.0944 Y1.0179
N15955 G3 X2.0743 Y0.9659 I0.4886 J-0.2187
N15960 X2.0815 Y0.9271 I0.0525 J-0.0104
N15965 X2.1129 Y0.9175 I0.023 J0.0188
N15970 X2.1202 Y0.9344 I-0.004 J0.0118
N15975 G1 X2.1161 Y0.9437
N15980 X2.1017 Y0.9756
N15985 X2.1008 Y0.9775
N15990 G3 X2.078 Y0.9774 I-0.0114 J-0.0051
N15995 G1 X2.0643 Y0.9426
N16000 G3 X2.0776 Y0.9121 I0.0213 J-0.0089
N16005 G1 X2.0853 Y0.9105
N16010 X2.093 Y0.9115
N16015 G3 X2.1072 Y0.9251 I-0.0074 J0.0219
N16020 X2.0643 Y0.9426 I-0.0216 J0.0083
N16025 G1 X2.0579 Y0.9264
N16030 X2.0574 Y0.9253
N16035 X2.0567 Y0.9237
N16040 X2.0559 Y0.9213
N16045 X2.0556 Y0.9204
N16050 X2.0554 Y0.9195
N16055 X2.0562 Y0.9186
N16060 G3 X2.0714 Y0.9162 I0.0092 J0.0085
N16065 G1 X2.0829 Y0.9226
N16070 X2.0899 Y0.9265
N16075 G3 X2.0764 Y0.9475 I-0.0061 J0.0109
N16080 G1 X2.0762 Y0.9473
N16085 G3 X2.0567 Y0.9237 I0.0369 J-0.0502
N16090 G1 X2.0562 Y0.9224
N16095 X2.0557 Y0.9209
N16100 X2.0554 Y0.9195
N16105 X2.0553 Y0.918
N16110 X2.0554 Y0.9166
N16115 X2.0556 Y0.9151
N16120 X2.056 Y0.9137
N16125 X2.0566 Y0.9122
N16130 X2.0575 Y0.9108
N16135 X2.0585 Y0.9093
N16140 X2.0598 Y0.9079
N16145 X2.0601 Y0.9076
N16150 X2.0616 Y0.9066
N16155 X2.063 Y0.9058
N16160 X2.0645 Y0.9052
N16165 X2.0659 Y0.9048
N16170 X2.0674 Y0.9047
N16175 X2.0688 Y0.9046
N16180 G3 X2.2243 Y0.952 I-1.58 J5.4643
N16185 G0 Z0.2
N16190 G1 X6.6403 Y3.1995 F500.
N16195 G0 Z-0.025
N16200 G1 Z-0.0375 F78.258
N16205 X6.6406 Y3.1994 Z-0.0403
N16210 X6.6414 Y3.1989 Z-0.0429
N16215 X6.6426 Y3.1981 Z-0.0453
N16220 X6.6443 Y3.1971 Z-0.0473
N16225 X6.6464 Y3.1959 Z-0.0488
N16230 X6.6486 Y3.1945 Z-0.0497
N16235 X6.651 Y3.193 Z-0.05
N16240 G3 X6.6806 Y3.1841 I0.0322 J0.0533
N16245 G1 X6.7964 Y3.1833
N16250 G3 X6.8568 Y3.1974 I-0.0052 J0.158
N16255 X6.9589 Y3.2661 I-0.142 J0.3215
N16260 X6.9171 Y4.1353 I-0.3908 J0.4168
N16265 G1 X6.9119 Y4.1383
N16270 X6.9062 Y4.1404
N16275 X6.9003 Y4.1413
N16280 X6.8775 Y4.1424
N16285 X6.8717 Y4.1426
N16290 X6.8081 Y4.144
N16295 G3 X6.8007 Y4.1215 I0.0002 J-0.0125
N16300 G1 X6.8029 Y4.1198 Z-0.0497
N16305 X6.805 Y4.1182 Z-0.0488
N16310 X6.8068 Y4.1168 Z-0.0473
N16315 X6.8084 Y4.1156 Z-0.0453
N16320 X6.8096 Y4.1147 Z-0.0429
N16325 X6.8103 Y4.1141 Z-0.0403
N16330 X6.8106 Y4.1139 Z-0.0375
N16335 G0 Z0.2
N16340 G1 X6.7562 Y3.1989 F500.
N16345 G0 Z-0.025
N16350 G1 Z-0.0375 F78.258
N16355 X6.7565 Y3.1987 Z-0.0403
N16360 X6.7573 Y3.1982 Z-0.0429
N16365 X6.7585 Y3.1975 Z-0.0453
N16370 X6.7602 Y3.1964 Z-0.0473
N16375 X6.7622 Y3.1952 Z-0.0488
N16380 X6.7645 Y3.1938 Z-0.0497
N16385 X6.7669 Y3.1923 Z-0.05
N16390 G3 X6.7964 Y3.1833 I0.0325 J0.0531
N16395 G1 X6.8138 Y3.183
N16400 X6.8254 Y3.1827
N16405 X6.8717 Y3.1811
N16410 G3 X6.9363 Y3.1971 I0.0015 J0.1323
N16415 X7.0105 Y3.251 I-0.1324 J0.2607
N16420 X7.1633 Y3.5119 I-0.4155 J0.4185
N16425 X6.9971 Y4.1298 I-0.5934 J0.1717
N16430 G1 X6.9915 Y4.1338
N16435 X6.9852 Y4.1366
N16440 X6.9783 Y4.1377
N16445 X6.9003 Y4.1413
N16450 G3 X6.8923 Y4.1191 I-0.0001 J-0.0125
N16455 G1 X6.8944 Y4.1174 Z-0.0497
N16460 X6.8965 Y4.1157 Z-0.0488
N16465 X6.8983 Y4.1142 Z-0.0473
N16470 X6.8999 Y4.113 Z-0.0453
N16475 X6.901 Y4.112 Z-0.0429
N16480 X6.9018 Y4.1115 Z-0.0403
N16485 X6.902 Y4.1113 Z-0.0375
N16490 G0 Z0.2
N16495 G1 X6.8318 Y3.1976 F500.
N16500 G0 Z-0.025
N16505 G1 Z-0.0375 F78.258
N16510 X6.8321 Y3.1974 Z-0.0403
N16515 X6.8328 Y3.1969 Z-0.0429
N16520 X6.8341 Y3.1961 Z-0.0453
