%
O01001
(Using high feed G1 F500. instead of G0.)
(T4 D=0.125 CR=0. - ZMIN=-0.8474 - flat end mill)
(T5 D=0.3937 CR=0. - ZMIN=-0.5906 - thread mill)
N10 G90 G94 G17
N15 G20
N20 G53 G0 Z0.

(Face2)
N25 T4 M6
N30 S30099 M3
N35 G54
N40 M8
N45 G0 X4.0465 Y0.0554
N50 G43 Z0.64 H4
N55 T5
N60 G0 Z0.24
N65 G1 Z0.0125 F78.258
N70 G18 G3 X4.034 Z0. I-0.0125 K0.
N75 G1 X4.0026
N80 X2.2966
N85 X1.9574
N90 G17 G2 Y0.172 I0. J0.0583
N95 G1 X4.3418
N100 X4.5946
N105 G3 Y0.2887 I0. J0.0583
N110 G1 X1.7046
N115 X1.4982
N120 G2 Y0.4054 I0. J0.0583
N125 G1 X4.801
N130 X4.9769
N135 G3 Y0.522 I0. J0.0583
N140 G1 X1.3223
N145 X1.1687
N150 G2 Y0.6387 I0. J0.0583
N155 G1 X5.1306
N160 X5.2668
N165 G3 Y0.7553 I0. J0.0583
N170 G1 X1.0325
N175 X0.9107
N180 G2 Y0.872 I0. J0.0583
N185 G1 X5.3885
N190 X5.4981
N195 G3 Y0.9887 I0. J0.0583
N200 G1 X0.8011
N205 X0.7018
N210 G2 Y1.1053 I0. J0.0583
N215 G1 X5.5974
N220 X5.6874
N225 G3 Y1.222 I0. J0.0583
N230 G1 X0.6118
N235 X0.53
N240 G2 Y1.3387 I0. J0.0583
N245 G1 X5.7692
N250 X5.8434
N255 G3 Y1.4553 I0. J0.0583
N260 G1 X0.4558
N265 X0.3886
N270 G2 Y1.572 I0. J0.0583
N275 G1 X5.9106
N280 X5.9715
N285 G3 Y1.6887 I0. J0.0583
N290 G1 X0.3277
N295 X0.2728
N300 G2 Y1.8053 I0. J0.0583
N305 G1 X6.0264
N310 X6.0757
N315 G3 Y1.922 I0. J0.0583
N320 G1 X0.2235
N325 X0.1797
N330 G2 Y2.0387 I0. J0.0583
N335 G1 X6.1195
N340 X6.158
N345 G3 Y2.1553 I0. J0.0583
N350 G1 X0.1412
N355 X0.1075
N360 G2 Y2.272 I0. J0.0583
N365 G1 X6.1917
N370 X6.2208
N375 G3 Y2.3887 I0. J0.0583
N380 G1 X0.0784
N385 X0.0544
N390 G2 Y2.5053 I0. J0.0583
N395 G1 X6.2449
N400 X6.2645
N405 G3 Y2.622 I0. J0.0583
N410 G1 X0.0347
N415 X0.0194
N420 G2 Y2.7387 I0. J0.0583
N425 G1 X6.2798
N430 X6.2905
N435 G3 Y2.8553 I0. J0.0583
N440 G1 X0.0087
N445 X0.0023
N450 G2 Y2.972 I0. J0.0583
N455 G1 X6.2969
N460 X6.2992
N465 G3 Y3.0887 I0. J0.0583
N470 G1 X0.
N475 G2 Y3.2053 I0. J0.0583
N480 G1 X6.2992
N485 G3 Y3.322 I0. J0.0583
N490 G1 X6.2971
N495 X0.0021
N500 G2 Y3.4387 I0. J0.0583
N505 G1 X0.0083
N510 X6.2909
N515 G3 Y3.5553 I0. J0.0583
N520 G1 X6.2804
N525 X0.0188
N530 G2 Y3.672 I0. J0.0583
N535 G1 X0.034
N540 X6.2653
N545 G3 Y3.7887 I0. J0.0583
N550 G1 X6.2459
N555 X0.0534
N560 G2 Y3.9053 I0. J0.0583
N565 G1 X0.0773
N570 X6.2219
N575 G3 Y4.022 I0. J0.0583
N580 G1 X6.1931
N585 X0.1061
N590 G2 Y4.1387 I0. J0.0583
N595 G1 X0.1395
N600 X6.1597
N605 G3 Y4.2553 I0. J0.0583
N610 G1 X6.1214
N615 X0.1778
N620 G2 Y4.372 I0. J0.0583
N625 G1 X0.2215
N630 X6.0777
N635 G3 Y4.4887 I0. J0.0583
N640 G1 X6.0287
N645 X0.2705
N650 G2 Y4.6053 I0. J0.0583
N655 G1 X0.3251
N660 X5.9741
N665 G3 Y4.722 I0. J0.0583
N670 G1 X5.9135
N675 X0.3857
N680 G2 Y4.8387 I0. J0.0583
N685 G1 X0.4526
N690 X5.8466
N695 G3 Y4.9553 I0. J0.0583
N700 G1 X5.7727
N705 X0.5265
N710 G2 Y5.072 I0. J0.0583
N715 G1 X0.6079
N720 X5.6913
N725 G3 Y5.1887 I0. J0.0583
N730 G1 X5.6016
N735 X0.6976
N740 G2 Y5.3053 I0. J0.0583
N745 G1 X0.7965
N750 X5.5027
N755 G3 Y5.422 I0. J0.0583
N760 G1 X5.3936
N765 X0.9057
N770 G2 Y5.5387 I0. J0.0583
N775 G1 X1.0266
N780 X5.2726
N785 G3 Y5.6553 I0. J0.0583
N790 G1 X5.1369
N795 X1.1623
N800 G2 Y5.772 I0. J0.0583
N805 G1 X1.3149
N810 X4.9843
N815 G3 Y5.8887 I0. J0.0583
N820 G1 X4.8095
N825 X1.4897
N830 G2 Y6.0053 I0. J0.0583
N835 G1 X1.6947
N840 X4.6045
N845 G3 Y6.122 I0. J0.0583
N850 G1 X4.3543
N855 X1.9449
N860 G2 Y6.2387 I0. J0.0583
N865 G1 X2.2785
N870 X4.0207
N875 G18 G2 X4.0332 Z0.0125 I0. K0.0125
N880 G0 Z0.64

(2D Adaptive2)
N885 G1 X3.1141 Y3.102 F500.
N890 G0 Z0.64
N895 Z0.24
N900 Z0.14
N905 G17 G3 X3.1101 Y3.1053 Z0.1272 I0.0355 J0.0476 F26.086
N910 X3.1064 Y3.1089 Z0.1143 I0.0395 J0.0443
N915 X3.103 Y3.1128 Z0.1015 I0.0432 J0.0407
N920 X3.1 Y3.117 Z0.0886 I0.0466 J0.0368
N925 X3.0973 Y3.1214 Z0.0758 I0.0496 J0.0326
N930 X3.0951 Y3.1261 Z0.0629 I0.0523 J0.0282
N935 X3.0932 Y3.1309 Z0.0501 I0.0545 J0.0235
N940 X3.0918 Y3.1359 Z0.0372 I0.0564 J0.0187
N945 X3.0908 Y3.141 Z0.0244 I0.0578 J0.0137
N950 X3.0903 Y3.1462 Z0.0115 I0.0588 J0.0086
N955 X3.0902 Y3.1513 Z-0.0013 I0.0593 J0.0034
N960 X3.0906 Y3.1565 Z-0.0142 I0.0593 J-0.0018
N965 X3.0914 Y3.1616 Z-0.027 I0.059 J-0.0069
N970 X3.0927 Y3.1666 Z-0.0399 I0.0581 J-0.012
N975 X3.0944 Y3.1715 Z-0.0527 I0.0569 J-0.0171
N980 X3.209 Y3.1496 Z-0.06 I0.0552 J-0.0219
N985 X3.0902 I-0.0594 J0.
N990 X3.209 I0.0594 J0.
N995 G1 X3.2097 Y3.1771 F78.258
N1000 X3.2107 Y3.1803
N1005 X3.2116 Y3.1863
N1010 X3.2114 Y3.1923
N1015 X3.2101 Y3.1981
N1020 X3.2081 Y3.2038
N1025 X3.2054 Y3.2091
N1030 X3.2021 Y3.2141
N1035 X3.1982 Y3.2188
N1040 X3.194 Y3.223
N1045 X3.1893 Y3.2268
N1050 X3.1844 Y3.2301
N1055 X3.1791 Y3.233
N1060 X3.1736 Y3.2355
N1065 X3.1679 Y3.2376
N1070 X3.1618 Y3.2392
N1075 X3.1555 Y3.2403
N1080 X3.149 Y3.241
N1085 X3.1424 Y3.2411
N1090 X3.1357 Y3.2407
N1095 X3.1289 Y3.2398
N1100 X3.1221 Y3.2383
N1105 X3.1154 Y3.2362
N1110 X3.1088 Y3.2336
N1115 X3.1024 Y3.2304
N1120 X3.0963 Y3.2267
N1125 X3.0904 Y3.2225
N1130 X3.0848 Y3.2177
N1135 X3.0796 Y3.2126
N1140 X3.0748 Y3.207
N1145 X3.0704 Y3.201
N1150 X3.0665 Y3.1946
N1155 X3.0632 Y3.188
N1160 X3.0603 Y3.181
N1165 X3.0581 Y3.1739
N1170 X3.0564 Y3.1665
N1175 X3.0553 Y3.1591
N1180 X3.0548 Y3.1516
N1185 X3.0549 Y3.144
N1190 X3.0556 Y3.1365
N1195 X3.057 Y3.129
N1200 X3.0589 Y3.1217
N1205 X3.0614 Y3.1145
N1210 X3.0644 Y3.1075
N1215 X3.0681 Y3.1009
N1220 X3.0722 Y3.0945
N1225 X3.0769 Y3.0885
N1230 X3.082 Y3.0828
N1235 X3.0876 Y3.0776
N1240 X3.0935 Y3.0729
N1245 X3.0998 Y3.0686
N1250 X3.1065 Y3.0649
N1255 X3.1134 Y3.0617
N1260 X3.1206 Y3.0591
N1265 X3.1279 Y3.057
N1270 X3.1354 Y3.0556
N1275 X3.143 Y3.0548
N1280 X3.1506 Y3.0545
N1285 X3.1582 Y3.0549
N1290 X3.1658 Y3.0559
N1295 X3.1733 Y3.0575
N1300 X3.1806 Y3.0597
N1305 X3.1877 Y3.0625
N1310 X3.1946 Y3.0658
N1315 X3.2011 Y3.0697
N1320 X3.2074 Y3.0741
N1325 X3.2133 Y3.079
N1330 X3.2187 Y3.0843
N1335 X3.2237 Y3.0901
N1340 X3.2283 Y3.0962
N1345 X3.2324 Y3.1028
N1350 X3.2367 Y3.1113
N1355 X3.243 Y3.1263
N1360 X3.2473 Y3.1396
N1365 X3.2499 Y3.1505
N1370 X3.2515 Y3.1605
N1375 X3.2522 Y3.1699
N1380 X3.2521 Y3.1787
N1385 X3.2514 Y3.1871
N1390 X3.25 Y3.1953
N1395 X3.248 Y3.2032
N1400 X3.2454 Y3.211
N1405 X3.2421 Y3.2186
N1410 X3.2382 Y3.2258
N1415 X3.2338 Y3.2328
N1420 X3.2288 Y3.2394
N1425 X3.2232 Y3.2456
N1430 X3.217 Y3.2515
N1435 X3.2104 Y3.2569
N1440 X3.2032 Y3.2618
N1445 X3.1955 Y3.2662
N1450 X3.1873 Y3.2701
N1455 X3.1788 Y3.2733
N1460 X3.1699 Y3.2758
N1465 X3.1607 Y3.2777
N1470 X3.1513 Y3.2788
N1475 X3.1417 Y3.2791
N1480 X3.132 Y3.2787
N1485 X3.1222 Y3.2775
N1490 X3.1125 Y3.2755
N1495 X3.1029 Y3.2727
N1500 X3.0935 Y3.2691
N1505 X3.0844 Y3.2648
N1510 X3.0756 Y3.2597
N1515 X3.0671 Y3.2538
N1520 X3.0591 Y3.2473
N1525 X3.0516 Y3.2401
N1530 X3.0447 Y3.2323
N1535 X3.0384 Y3.2239
N1540 X3.0328 Y3.2151
N1545 X3.0279 Y3.2057
N1550 X3.0237 Y3.196
N1555 X3.0204 Y3.1859
N1560 X3.0178 Y3.1756
N1565 X3.0161 Y3.1651
N1570 X3.0152 Y3.1544
N1575 Y3.1437
N1580 X3.016 Y3.133
N1585 X3.0177 Y3.1224
N1590 X3.0203 Y3.112
N1595 X3.0237 Y3.1018
N1600 X3.0279 Y3.0919
N1605 X3.0328 Y3.0823
N1610 X3.0386 Y3.0732
N1615 X3.045 Y3.0645
N1620 X3.0522 Y3.0564
N1625 X3.0599 Y3.0489
N1630 X3.0683 Y3.042
N1635 X3.0771 Y3.0359
N1640 X3.0865 Y3.0304
N1645 X3.0962 Y3.0257
N1650 X3.1063 Y3.0218
N1655 X3.1167 Y3.0188
N1660 X3.1273 Y3.0165
N1665 X3.138 Y3.0152
N1670 X3.1489 Y3.0147
N1675 X3.1597 Y3.0151
N1680 X3.1704 Y3.0163
N1685 X3.1811 Y3.0184
N1690 X3.1915 Y3.0213
N1695 X3.2016 Y3.0251
N1700 X3.2115 Y3.0297
N1705 X3.2209 Y3.035
N1710 X3.2298 Y3.0411
N1715 X3.2383 Y3.0479
N1720 X3.2465 Y3.0556
N1725 X3.2551 Y3.0652
N1730 X3.2632 Y3.0758
N1735 X3.2707 Y3.0874
N1740 X3.2773 Y3.0998
N1745 X3.2828 Y3.1125
N1750 X3.2872 Y3.1253
N1755 X3.2905 Y3.138
N1760 X3.2927 Y3.1506
N1765 X3.2938 Y3.163
N1770 X3.2939 Y3.1753
N1775 X3.2931 Y3.1875
N1780 X3.2913 Y3.1993
N1785 X3.2885 Y3.2109
N1790 X3.2849 Y3.2222
N1795 X3.2804 Y3.2332
N1800 X3.275 Y3.2437
N1805 X3.2688 Y3.2537
N1810 X3.2618 Y3.2633
N1815 X3.254 Y3.2723
N1820 X3.2455 Y3.2807
N1825 X3.2362 Y3.2884
N1830 X3.2263 Y3.2955
N1835 X3.2158 Y3.3017
N1840 X3.2047 Y3.3072
N1845 X3.1931 Y3.3118
N1850 X3.181 Y3.3154
N1855 X3.1686 Y3.3181
N1860 X3.1559 Y3.3199
N1865 X3.1431 Y3.3205
N1870 X3.1301 Y3.3202
N1875 X3.1171 Y3.3188
N1880 X3.1041 Y3.3164
N1885 X3.0914 Y3.3129
N1890 X3.0788 Y3.3083
N1895 X3.0666 Y3.3028
N1900 X3.0548 Y3.2962
N1905 X3.0435 Y3.2887
N1910 X3.0328 Y3.2802
N1915 X3.0228 Y3.2709
N1920 X3.0135 Y3.2608
N1925 X3.0051 Y3.2499
N1930 X2.9975 Y3.2383
N1935 X2.9908 Y3.2261
N1940 X2.9851 Y3.2134
N1945 X2.9805 Y3.2002
N1950 X2.9769 Y3.1867
N1955 X2.9744 Y3.1729
N1960 X2.973 Y3.1589
N1965 X2.9728 Y3.1448
N1970 X2.9736 Y3.1307
N1975 X2.9756 Y3.1167
N1980 X2.9788 Y3.103
N1985 X2.983 Y3.0895
N1990 X2.9883 Y3.0763
N1995 X2.9946 Y3.0636
N2000 X3.002 Y3.0515
N2005 X3.0103 Y3.04
N2010 X3.0195 Y3.0292
N2015 X3.0295 Y3.0191
N2020 X3.0403 Y3.0099
N2025 X3.0519 Y3.0016
N2030 X3.064 Y2.9942
N2035 X3.0767 Y2.9879
N2040 X3.0899 Y2.9825
N2045 X3.1035 Y2.9783
N2050 X3.1174 Y2.9751
N2055 X3.1315 Y2.9731
N2060 X3.1457 Y2.9722
N2065 X3.1599 Y2.9725
N2070 X3.1741 Y2.9739
N2075 X3.1881 Y2.9764
N2080 X3.2019 Y2.98
N2085 X3.2153 Y2.9848
N2090 X3.2284 Y2.9906
N2095 X3.2409 Y2.9975
N2100 X3.2533 Y3.0056
N2105 X3.2654 Y3.015
N2110 X3.277 Y3.0256
N2115 X3.2881 Y3.0375
N2120 X3.2983 Y3.0504
N2125 X3.3075 Y3.0642
N2130 X3.3156 Y3.0787
N2135 X3.3225 Y3.0938
N2140 X3.3281 Y3.1092
N2145 X3.3324 Y3.1249
N2150 X3.3354 Y3.1407
N2155 X3.3371 Y3.1566
N2160 X3.3375 Y3.1725
N2165 X3.3367 Y3.1881
N2170 X3.3346 Y3.2036
N2175 X3.3313 Y3.2188
N2180 X3.3268 Y3.2336
N2185 X3.3211 Y3.248
N2190 X3.3143 Y3.2618
N2195 X3.3064 Y3.2751
N2200 X3.2975 Y3.2877
N2205 X3.2876 Y3.2996
N2210 X3.2767 Y3.3107
N2215 X3.2648 Y3.3209
N2220 X3.2522 Y3.3302
N2225 X3.2388 Y3.3385
N2230 X3.2246 Y3.3457
N2235 X3.2099 Y3.3518
N2240 X3.1946 Y3.3567
N2245 X3.1788 Y3.3604
N2250 X3.1627 Y3.3629
N2255 X3.1464 Y3.364
N2260 X3.1299 Y3.3639
N2265 X3.1134 Y3.3624
N2270 X3.097 Y3.3596
N2275 X3.0808 Y3.3554
N2280 X3.0649 Y3.35
N2285 X3.0494 Y3.3432
N2290 X3.0345 Y3.3352
N2295 X3.0201 Y3.3259
N2300 X3.0065 Y3.3156
N2305 X2.9937 Y3.3041
N2310 X2.9819 Y3.2915
N2315 X2.9711 Y3.2781
N2320 X2.9613 Y3.2637
N2325 X2.9527 Y3.2486
N2330 X2.9453 Y3.2328
N2335 X2.9392 Y3.2164
N2340 X2.9345 Y3.1995
N2345 X2.9311 Y3.1823
N2350 X2.929 Y3.1648
N2355 X2.9284 Y3.1472
N2360 X2.9292 Y3.1296
N2365 X2.9315 Y3.1121
N2370 X2.9351 Y3.0948
N2375 X2.9401 Y3.0778
N2380 X2.9464 Y3.0613
N2385 X2.9541 Y3.0453
N2390 X2.963 Y3.03
N2395 X2.9732 Y3.0155
N2400 X2.9845 Y3.0018
N2405 X2.9968 Y2.989
N2410 X3.0101 Y2.9772
N2415 X3.0244 Y2.9666
N2420 X3.0394 Y2.9572
N2425 X3.0552 Y2.9489
N2430 X3.0716 Y2.942
N2435 X3.0885 Y2.9364
N2440 X3.1058 Y2.9322
N2445 X3.1233 Y2.9294
N2450 X3.1411 Y2.928
N2455 X3.1589
N2460 X3.1766 Y2.9294
N2465 X3.1942 Y2.9323
N2470 X3.2115 Y2.9366
N2475 X3.2285 Y2.9423
N2480 X3.2452 Y2.9494
N2485 X3.2614 Y2.9579
N2490 X3.2771 Y2.9678
N2495 X3.2922 Y2.9792
N2500 X3.3067 Y2.992
N2505 X3.3202 Y3.0061
N2510 X3.3328 Y3.0214
N2515 X3.3441 Y3.0378
N2520 X3.3541 Y3.055
N2525 X3.3627 Y3.073
N2530 X3.3697 Y3.0916
N2535 X3.3753 Y3.1106
N2540 X3.3793 Y3.1299
N2545 X3.3817 Y3.1493
N2550 X3.3825 Y3.1687
N2555 X3.3818 Y3.1881
N2560 X3.3795 Y3.2072
N2565 X3.3757 Y3.226
N2570 X3.3705 Y3.2444
N2575 X3.3638 Y3.2623
N2580 X3.3556 Y3.2796
N2585 X3.3462 Y3.2962
N2590 X3.3354 Y3.312
N2595 X3.3233 Y3.3268
N2600 X3.3101 Y3.3407
N2605 X3.2957 Y3.3536
N2610 X3.2804 Y3.3653
N2615 X3.264 Y3.3757
N2620 X3.2468 Y3.3849
N2625 X3.2288 Y3.3927
N2630 X3.2102 Y3.399
N2635 X3.191 Y3.4039
N2640 X3.1714 Y3.4072
N2645 X3.1515 Y3.4089
N2650 X3.1315 Y3.4091
N2655 X3.1114 Y3.4076
N2660 X3.0914 Y3.4045
N2665 X3.0716 Y3.3998
N2670 X3.0522 Y3.3934
N2675 X3.0332 Y3.3856
N2680 X3.0149 Y3.3761
N2685 X2.9974 Y3.3652
N2690 X2.9807 Y3.3529
N2695 X2.965 Y3.3393
N2700 X2.9504 Y3.3244
N2705 X2.9371 Y3.3083
N2710 X2.925 Y3.2911
N2715 X2.9143 Y3.273
N2720 X2.9051 Y3.2541
N2725 X2.8974 Y3.2344
N2730 X2.8913 Y3.2142
N2735 X2.8869 Y3.1935
N2740 X2.8841 Y3.1725
N2745 X2.883 Y3.1512
N2750 X2.8836 Y3.13
N2755 X2.886 Y3.1088
N2760 X2.89 Y3.0879
N2765 X2.8957 Y3.0673
N2770 X2.903 Y3.0473
N2775 X2.9119 Y3.0279
N2780 X2.9224 Y3.0092
N2785 X2.9343 Y2.9915
N2790 X2.9476 Y2.9747
N2795 X2.9623 Y2.9591
N2800 X2.9781 Y2.9447
N2805 X2.9951 Y2.9316
N2810 X3.013 Y2.9199
N2815 X3.0319 Y2.9097
N2820 X3.0515 Y2.901
N2825 X3.0717 Y2.8939
N2830 X3.0925 Y2.8885
N2835 X3.1136 Y2.8847
N2840 X3.1349 Y2.8827
N2845 X3.1564 Y2.8824
N2850 X3.1778 Y2.8838
N2855 X3.1991 Y2.8869
N2860 X3.2201 Y2.8917
N2865 X3.2408 Y2.8983
N2870 X3.2611 Y2.9065
N2875 X3.2808 Y2.9165
N2880 X3.2999 Y2.9281
N2885 X3.3182 Y2.9414
N2890 X3.3356 Y2.9563
N2895 X3.352 Y2.9727
N2900 X3.367 Y2.9905
N2905 X3.3806 Y3.0095
N2910 X3.3927 Y3.0296
N2915 X3.4031 Y3.0506
N2920 X3.4119 Y3.0724
N2925 X3.4188 Y3.0947
N2930 X3.4239 Y3.1175
N2935 X3.4271 Y3.1405
N2940 X3.4285 Y3.1636
N2945 X3.428 Y3.1866
N2950 X3.4257 Y3.2095
N2955 X3.4215 Y3.2321
N2960 X3.4156 Y3.2542
N2965 X3.4079 Y3.2757
N2970 X3.3985 Y3.2965
N2975 X3.3875 Y3.3165
N2980 X3.3749 Y3.3356
N2985 X3.3608 Y3.3536
N2990 X3.3453 Y3.3705
N2995 X3.3284 Y3.3861
N3000 X3.3103 Y3.4003
N3005 X3.2911 Y3.4131
N3010 X3.2708 Y3.4243
N3015 X3.2496 Y3.4339
N3020 X3.2276 Y3.4418
N3025 X3.2049 Y3.448
N3030 X3.1817 Y3.4523
N3035 X3.1582 Y3.4547
N3040 X3.1345 Y3.4553
N3045 X3.1107 Y3.4539
N3050 X3.087 Y3.4506
N3055 X3.0635 Y3.4454
N3060 X3.0405 Y3.4384
N3065 X3.018 Y3.4294
N3070 X2.9962 Y3.4187
N3075 X2.9753 Y3.4062
N3080 X2.9554 Y3.392
N3085 X2.9367 Y3.3762
N3090 X2.9193 Y3.359
N3095 X2.9032 Y3.3403
N3100 X2.8887 Y3.3204
N3105 X2.8758 Y3.2993
N3110 X2.8646 Y3.2772
N3115 X2.8552 Y3.2542
N3120 X2.8476 Y3.2306
N3125 X2.842 Y3.2063
N3130 X2.8383 Y3.1816
N3135 X2.8366 Y3.1567
N3140 X2.8369 Y3.1318
N3145 X2.8393 Y3.1069
N3150 X2.8436 Y3.0822
N3155 X2.8499 Y3.0579
N3160 X2.8581 Y3.0343
N3165 X2.8682 Y3.0113
N3170 X2.8801 Y2.9892
N3175 X2.8938 Y2.9681
N3180 X2.9091 Y2.9482
N3185 X2.926 Y2.9296
N3190 X2.9443 Y2.9123
N3195 X2.964 Y2.8966
N3200 X2.9848 Y2.8826
N3205 X3.0067 Y2.8702
N3210 X3.0296 Y2.8596
N3215 X3.0532 Y2.8509
N3220 X3.0775 Y2.8441
N3225 X3.1022 Y2.8393
N3230 X3.1272 Y2.8365
N3235 X3.1524 Y2.8357
N3240 X3.1777 Y2.837
N3245 X3.2027 Y2.8402
N3250 X3.2276 Y2.8455
N3255 X3.2521 Y2.8528
N3260 X3.2761 Y2.8621
N3265 X3.2994 Y2.8734
N3270 X3.3219 Y2.8866
N3275 X3.3435 Y2.9018
N3280 X3.364 Y2.9187
N3285 X3.3832 Y2.9374
N3290 X3.4009 Y2.9576
N3295 X3.417 Y2.9793
N3300 X3.4313 Y3.0023
N3305 X3.4438 Y3.0264
N3310 X3.4543 Y3.0515
N3315 X3.4627 Y3.0772
N3320 X3.4691 Y3.1035
N3325 X3.4733 Y3.1302
N3330 X3.4753 Y3.157
N3335 X3.4752 Y3.1839
N3340 X3.4729 Y3.2106
N3345 X3.4685 Y3.2369
N3350 X3.462 Y3.2628
N3355 X3.4535 Y3.2881
N3360 X3.443 Y3.3125
N3365 X3.4305 Y3.3361
N3370 X3.4162 Y3.3586
N3375 X3.4001 Y3.3799
N3380 X3.3823 Y3.3998
N3385 X3.363 Y3.4183
N3390 X3.3422 Y3.4352
N3395 X3.32 Y3.4505
N3400 X3.2966 Y3.4639
N3405 X3.2722 Y3.4755
N3410 X3.2468 Y3.485
N3415 X3.2206 Y3.4926
N3420 X3.1938 Y3.498
N3425 X3.1666 Y3.5013
N3430 X3.1392 Y3.5024
N3435 X3.1117 Y3.5013
N3440 X3.0844 Y3.498
N3445 X3.0575 Y3.4925
N3450 X3.0311 Y3.4849
N3455 X3.0054 Y3.4753
N3460 X2.9805 Y3.4636
N3465 X2.9566 Y3.4501
N3470 X2.9339 Y3.4347
N3475 X2.9124 Y3.4175
N3480 X2.8923 Y3.3988
N3485 X2.8738 Y3.3785
N3490 X2.8568 Y3.3569
N3495 X2.8416 Y3.334
N3500 X2.8282 Y3.31
N3505 X2.8167 Y3.285
N3510 X2.8072 Y3.2593
N3515 X2.7997 Y3.2328
N3520 X2.7942 Y3.2059
N3525 X2.7908 Y3.1787
N3530 X2.7895 Y3.1512
N3535 X2.7903 Y3.1238
N3540 X2.7932 Y3.0964
N3545 X2.7982 Y3.0694
N3550 X2.8053 Y3.0429
N3555 X2.8143 Y3.0169
N3560 X2.8253 Y2.9917
N3565 X2.8382 Y2.9675
N3570 X2.8529 Y2.9443
N3575 X2.8693 Y2.9223
N3580 X2.8874 Y2.9016
N3585 X2.9071 Y2.8824
N3590 X2.9281 Y2.8647
N3595 X2.9504 Y2.8487
N3600 X2.9739 Y2.8344
N3605 X2.9984 Y2.822
N3610 X3.0238 Y2.8114
N3615 X3.0499 Y2.8028
N3620 X3.0765 Y2.7962
N3625 X3.1036 Y2.7917
N3630 X3.131 Y2.7892
N3635 X3.1585 Y2.7888
N3640 X3.1859 Y2.7905
N3645 X3.2131 Y2.7942
N3650 X3.24 Y2.8
N3655 X3.2663 Y2.8078
N3660 X3.292 Y2.8175
N3665 X3.3169 Y2.8292
N3670 X3.3408 Y2.8427
N3675 X3.3636 Y2.858
N3680 X3.3853 Y2.8748
N3685 X3.4058 Y2.8932
N3690 X3.4248 Y2.913
N3695 X3.4424 Y2.9341
N3700 X3.4585 Y2.9564
N3705 X3.4729 Y2.9798
N3710 X3.4856 Y3.0041
N3715 X3.4965 Y3.0294
N3720 X3.5055 Y3.0553
N3725 X3.5127 Y3.0818
N3730 X3.5179 Y3.1088
N3735 X3.5213 Y3.1361
N3740 X3.5226 Y3.1635
N3745 X3.5221 Y3.191
N3750 X3.5196 Y3.2183
N3755 X3.5151 Y3.2454
N3760 X3.5086 Y3.2721
N3765 X3.5001 Y3.2983
N3770 X3.4898 Y3.3237
N3775 X3.4777 Y3.3484
N3780 X3.4638 Y3.3721
N3785 X3.4482 Y3.3948
N3790 X3.4311 Y3.4162
N3795 X3.4125 Y3.4364
N3800 X3.3925 Y3.4553
N3805 X3.3712 Y3.4726
N3810 X3.3486 Y3.4883
N3815 X3.325 Y3.5023
N3820 X3.3004 Y3.5146
N3825 X3.275 Y3.5251
N3830 X3.249 Y3.5338
N3835 X3.2224 Y3.5406
N3840 X3.1953 Y3.5456
N3845 X3.168 Y3.5486
N3850 X3.1406 Y3.5498
N3855 X3.1131 Y3.5489
N3860 X3.0858 Y3.546
N3865 X3.0587 Y3.5413
N3870 X3.0321 Y3.5346
N3875 X3.0059 Y3.5262
N3880 X2.9804 Y3.516
N3885 X2.9557 Y3.504
N3890 X2.9318 Y3.4904
N3895 X2.909 Y3.4752
N3900 X2.8872 Y3.4583
N3905 X2.8668 Y3.44
N3910 X2.8476 Y3.4204
N3915 X2.8298 Y3.3994
N3920 X2.8134 Y3.3774
N3925 X2.7986 Y3.3542
N3930 X2.7853 Y3.3302
N3935 X2.7738 Y3.3052
N3940 X2.764 Y3.2796
N3945 X2.756 Y3.2533
N3950 X2.7498 Y3.2265
N3955 X2.7455 Y3.1994
N3960 X2.7429 Y3.172
N3965 X2.7422 Y3.1446
N3970 X2.7433 Y3.1171
N3975 X2.7462 Y3.0898
N3980 X2.7511 Y3.0627
N3985 X2.7578 Y3.0361
N3990 X2.7663 Y3.01
N3995 X2.7765 Y2.9845
N4000 X2.7884 Y2.9597
N4005 X2.802 Y2.9358
N4010 X2.8171 Y2.9129
N4015 X2.8337 Y2.891
N4020 X2.8517 Y2.8703
N4025 X2.8712 Y2.8509
N4030 X2.8919 Y2.8329
N4035 X2.9139 Y2.8163
N4040 X2.9368 Y2.8012
N4045 X2.9608 Y2.7877
N4050 X2.9855 Y2.7758
N4055 X3.011 Y2.7656
N4060 X3.0371 Y2.7571
N4065 X3.0638 Y2.7504
N4070 X3.0908 Y2.7455
N4075 X3.1181 Y2.7425
N4080 X3.1456 Y2.7413
N4085 X3.1731 Y2.742
N4090 X3.2004 Y2.7445
N4095 X3.2276 Y2.7487
N4100 X3.2544 Y2.7547
N4105 X3.2807 Y2.7625
N4110 X3.3065 Y2.7721
N4115 X3.3315 Y2.7834
N4120 X3.3557 Y2.7964
N4125 X3.379 Y2.8109
N4130 X3.4014 Y2.8269
N4135 X3.4226 Y2.8443
N4140 X3.4428 Y2.863
N4145 X3.4617 Y2.8829
N4150 X3.4793 Y2.904
N4155 X3.4955 Y2.9262
N4160 X3.5103 Y2.9494
N4165 X3.5235 Y2.9735
N4170 X3.5351 Y2.9984
N4175 X3.5451 Y3.024
N4180 X3.5535 Y3.0501
N4185 X3.5602 Y3.0768
N4190 X3.5653 Y3.1038
N4195 X3.5686 Y3.131
N4200 X3.5702 Y3.1585
N4205 X3.57 Y3.1859
N4210 X3.568 Y3.2134
N4215 X3.5642 Y3.2406
N4220 X3.5588 Y3.2675
N4225 X3.5516 Y3.294
N4230 X3.5427 Y3.32
N4235 X3.5322 Y3.3454
N4240 X3.5201 Y3.3701
N4245 X3.5063 Y3.3939
N4250 X3.4911 Y3.4167
N4255 X3.4744 Y3.4385
N4260 X3.4564 Y3.4593
N4265 X3.4371 Y3.4788
N4270 X3.4166 Y3.4971
N4275 X3.3949 Y3.5141
N4280 X3.3723 Y3.5296
N4285 X3.3487 Y3.5436
N4290 X3.3242 Y3.5561
N4295 X3.2989 Y3.5669
N4300 X3.273 Y3.5761
N4305 X3.2466 Y3.5837
N4310 X3.2198 Y3.5896
N4315 X3.1927 Y3.5939
N4320 X3.1653 Y3.5965
N4325 X3.1378 Y3.5973
N4330 X3.1104 Y3.5964
N4335 X3.083 Y3.5937
N4340 X3.0559 Y3.5893
N4345 X3.0291 Y3.5832
N4350 X3.0028 Y3.5754
N4355 X2.9769 Y3.5661
N4360 X2.9517 Y3.5552
N4365 X2.9272 Y3.5428
N4370 X2.9035 Y3.5289
N4375 X2.8807 Y3.5135
N4380 X2.8589 Y3.4968
N4385 X2.8383 Y3.4787
N4390 X2.8188 Y3.4593
N4395 X2.8005 Y3.4388
N4400 X2.7834 Y3.4173
N4405 X2.7677 Y3.3947
N4410 X2.7534 Y3.3713
N4415 X2.7405 Y3.347
N4420 X2.7292 Y3.322
N4425 X2.7193 Y3.2963
N4430 X2.7111 Y3.2701
N4435 X2.7046 Y3.2434
N4440 X2.6997 Y3.2164
N4445 X2.6964 Y3.1891
N4450 X2.6948 Y3.1617
N4455 Y3.1342
N4460 X2.6964 Y3.1068
N4465 X2.6996 Y3.0795
N4470 X2.7045 Y3.0525
N4475 X2.7111 Y3.0258
N4480 X2.7193 Y2.9996
N4485 X2.7292 Y2.9739
N4490 X2.7405 Y2.9489
N4495 X2.7533 Y2.9246
N4500 X2.7676 Y2.9011
N4505 X2.7832 Y2.8785
N4510 X2.8001 Y2.8568
N4515 X2.8183 Y2.8363
N4520 X2.8377 Y2.8169
N4525 X2.8584 Y2.7987
N4530 X2.8801 Y2.7818
N4535 X2.9027 Y2.7663
N4540 X2.9263 Y2.7522
N4545 X2.9507 Y2.7395
N4550 X2.9757 Y2.7282
N4555 X3.0014 Y2.7185
N4560 X3.0276 Y2.7103
N4565 X3.0543 Y2.7036
N4570 X3.0813 Y2.6987
N4575 X3.1086 Y2.6954
N4580 X3.136 Y2.6938
N4585 X3.1635 Y2.6939
N4590 X3.1909 Y2.6955
N4595 X3.2182 Y2.6988
N4600 X3.2452 Y2.7037
N4605 X3.272 Y2.7101
N4610 X3.2982 Y2.7181
N4615 X3.324 Y2.7277
N4620 X3.3491 Y2.7389
N4625 X3.3735 Y2.7516
N4630 X3.397 Y2.7657
N4635 X3.4197 Y2.7811
N4640 X3.4415 Y2.7979
N4645 X3.4623 Y2.8158
N4650 X3.4821 Y2.8349
N4655 X3.5008 Y2.8551
N4660 X3.5182 Y2.8763
N4665 X3.5345 Y2.8984
N4670 X3.5493 Y2.9215
N4675 X3.5628 Y2.9455
N4680 X3.5749 Y2.9702
N4685 X3.5855 Y2.9955
N4690 X3.5946 Y3.0214
N4695 X3.6023 Y3.0478
N4700 X3.6086 Y3.0746
N4705 X3.6132 Y3.1016
N4710 X3.6164 Y3.1289
N4715 X3.618 Y3.1564
N4720 X3.6179 Y3.1838
N4725 X3.6162 Y3.2112
N4730 X3.6129 Y3.2385
N4735 X3.6081 Y3.2656
N4740 X3.6017 Y3.2923
N4745 X3.5938 Y3.3186
N4750 X3.5844 Y3.3444
N4755 X3.5735 Y3.3697
N4760 X3.5612 Y3.3942
N4765 X3.5476 Y3.4181
N4770 X3.5325 Y3.441
N4775 X3.516 Y3.463
N4780 X3.4984 Y3.4841
N4785 X3.4795 Y3.5041
N4790 X3.4596 Y3.523
N4795 X3.4386 Y3.5407
N4800 X3.4166 Y3.5572
N4805 X3.3938 Y3.5725
N4810 X3.3701 Y3.5863
N4815 X3.3456 Y3.5988
N4820 X3.3204 Y3.6098
N4825 X3.2947 Y3.6194
N4830 X3.2684 Y3.6274
N4835 X3.2417 Y3.6339
N4840 X3.2147 Y3.639
N4845 X3.1874 Y3.6425
N4850 X3.16 Y3.6445
N4855 X3.1326 Y3.645
N4860 X3.1051 Y3.6439
N4865 X3.0778 Y3.6413
N4870 X3.0506 Y3.637
N4875 X3.0238 Y3.6312
N4880 X2.9973 Y3.6239
N4885 X2.9713 Y3.6151
N4890 X2.9457 Y3.6049
N4895 X2.9208 Y3.5933
N4900 X2.8966 Y3.5804
N4905 X2.8731 Y3.5661
N4910 X2.8504 Y3.5506
N4915 X2.8287 Y3.5338
N4920 X2.8079 Y3.5158
N4925 X2.7882 Y3.4967
N4930 X2.7696 Y3.4764
N4935 X2.7522 Y3.4552
N4940 X2.7359 Y3.4331
N4945 X2.7209 Y3.4101
N4950 X2.7071 Y3.3863
N4955 X2.6946 Y3.3619
N4960 X2.6835 Y3.3367
N4965 X2.6738 Y3.311
N4970 X2.6655 Y3.2848
N4975 X2.6588 Y3.2582
N4980 X2.6536 Y3.2312
N4985 X2.6498 Y3.204
N4990 X2.6475 Y3.1766
N4995 X2.6467 Y3.1491
N5000 X2.6474 Y3.1217
N5005 X2.6495 Y3.0943
N5010 X2.6532 Y3.0671
N5015 X2.6583 Y3.0401
N5020 X2.6649 Y3.0134
N5025 X2.6729 Y2.9871
N5030 X2.6825 Y2.9614
N5035 X2.6935 Y2.9362
N5040 X2.7058 Y2.9116
N5045 X2.7194 Y2.8878
N5050 X2.7343 Y2.8647
N5055 X2.7504 Y2.8424
N5060 X2.7677 Y2.8211
N5065 X2.7861 Y2.8007
N5070 X2.8057 Y2.7813
N5075 X2.8262 Y2.7631
N5080 X2.8478 Y2.7461
N5085 X2.8703 Y2.7303
N5090 X2.8936 Y2.7158
N5095 X2.9176 Y2.7025
N5100 X2.9424 Y2.6905
N5105 X2.9677 Y2.6799
N5110 X2.9936 Y2.6706
N5115 X3.0199 Y2.6628
N5120 X3.0466 Y2.6564
N5125 X3.0736 Y2.6514
N5130 X3.1009 Y2.648
N5135 X3.1283 Y2.6461
N5140 X3.1558 Y2.6458
N5145 X3.1832 Y2.6469
N5150 X3.2106 Y2.6495
N5155 X3.2378 Y2.6535
N5160 X3.2647 Y2.659
N5165 X3.2913 Y2.6658
N5170 X3.3175 Y2.6741
N5175 X3.3432 Y2.6839
N5180 X3.3683 Y2.695
N5185 X3.3928 Y2.7075
N5190 X3.4165 Y2.7213
N5195 X3.4395 Y2.7364
N5200 X3.4616 Y2.7526
N5205 X3.4829 Y2.77
N5210 X3.5033 Y2.7884
N5215 X3.5227 Y2.8079
N5220 X3.541 Y2.8284
N5225 X3.5583 Y2.8497
N5230 X3.5744 Y2.8719
N5235 X3.5894 Y2.895
N5240 X3.603 Y2.9189
N5245 X3.6154 Y2.9434
N5250 X3.6264 Y2.9686
N5255 X3.6361 Y2.9943
N5260 X3.6445 Y3.0204
N5265 X3.6516 Y3.047
N5270 X3.6572 Y3.0739
N5275 X3.6616 Y3.101
N5280 X3.6645 Y3.1283
N5285 X3.6659 Y3.1557
N5290 Y3.1832
N5295 X3.6644 Y3.2107
N5300 X3.6615 Y3.238
N5305 X3.6571 Y3.2651
N5310 X3.6513 Y3.2919
N5315 X3.6441 Y3.3185
N5320 X3.6355 Y3.3446
N5325 X3.6256 Y3.3702
N5330 X3.6144 Y3.3953
N5335 X3.6019 Y3.4198
N5340 X3.5882 Y3.4435
N5345 X3.5732 Y3.4666
N5350 X3.5569 Y3.4887
N5355 X3.5395 Y3.51
N5360 X3.521 Y3.5303
N5365 X3.5015 Y3.5496
N5370 X3.481 Y3.5679
N5375 X3.4596 Y3.5851
N5380 X3.4373 Y3.6012
N5385 X3.4142 Y3.6161
N5390 X3.3904 Y3.6298
N5395 X3.3659 Y3.6423
N5400 X3.3408 Y3.6534
N5405 X3.3151 Y3.6631
N5410 X3.2889 Y3.6715
N5415 X3.2624 Y3.6785
N5420 X3.2355 Y3.6841
N5425 X3.2083 Y3.6884
N5430 X3.181 Y3.6913
N5435 X3.1536 Y3.6928
N5440 X3.1261 Y3.6929
N5445 X3.0987 Y3.6915
N5450 X3.0713 Y3.6888
N5455 X3.0442 Y3.6847
N5460 X3.0173 Y3.679
N5465 X2.9907 Y3.672
N5470 X2.9645 Y3.6637
N5475 X2.9388 Y3.654
N5480 X2.9136 Y3.6431
N5485 X2.889 Y3.6309
N5490 X2.865 Y3.6175
N5495 X2.8417 Y3.6029
N5500 X2.8192 Y3.5872
N5505 X2.7975 Y3.5703
N5510 X2.7767 Y3.5524
N5515 X2.7569 Y3.5334
N5520 X2.7381 Y3.5133
N5525 X2.7203 Y3.4924
N5530 X2.7036 Y3.4705
N5535 X2.688 Y3.4479
N5540 X2.6735 Y3.4246
N5545 X2.6603 Y3.4005
N5550 X2.6482 Y3.3758
N5555 X2.6373 Y3.3506
N5560 X2.6278 Y3.3248
N5565 X2.6195 Y3.2986
N5570 X2.6126 Y3.272
N5575 X2.6071 Y3.2451
N5580 X2.603 Y3.218
N5585 X2.6003 Y3.1906
N5590 X2.5989 Y3.1632
N5595 X2.5988 Y3.1357
N5600 X2.6001 Y3.1083
N5605 X2.6027 Y3.0809
N5610 X2.6067 Y3.0537
N5615 X2.612 Y3.0268
N5620 X2.6187 Y3.0001
N5625 X2.6267 Y2.9738
N5630 X2.6361 Y2.948
N5635 X2.6468 Y2.9227
N5640 X2.6587 Y2.898
N5645 X2.6718 Y2.8738
N5650 X2.6862 Y2.8504
N5655 X2.7016 Y2.8277
N5660 X2.7182 Y2.8057
N5665 X2.7358 Y2.7846
N5670 X2.7544 Y2.7644
N5675 X2.774 Y2.7452
N5680 X2.7945 Y2.727
N5685 X2.816 Y2.7098
N5690 X2.8384 Y2.6938
N5695 X2.8615 Y2.6789
N5700 X2.8853 Y2.6652
N5705 X2.9097 Y2.6527
N5710 X2.9348 Y2.6414
N5715 X2.9603 Y2.6313
N5720 X2.9863 Y2.6225
N5725 X3.0128 Y2.615
N5730 X3.0395 Y2.6088
N5735 X3.0666 Y2.6039
N5740 X3.0938 Y2.6004
N5745 X3.1212 Y2.5983
N5750 X3.1487 Y2.5976
N5755 X3.1761 Y2.5983
N5760 X3.2035 Y2.6003
N5765 X3.2308 Y2.6037
N5770 X3.2579 Y2.6084
N5775 X3.2847 Y2.6143
N5780 X3.3112 Y2.6216
N5785 X3.3373 Y2.6302
N5790 X3.363 Y2.64
N5795 X3.3881 Y2.6511
N5800 X3.4126 Y2.6635
N5805 X3.4365 Y2.6771
N5810 X3.4597 Y2.6919
N5815 X3.4821 Y2.7077
N5820 X3.5037 Y2.7247
N5825 X3.5246 Y2.7426
N5830 X3.5445 Y2.7615
N5835 X3.5636 Y2.7813
N5840 X3.5817 Y2.8019
N5845 X3.5988 Y2.8234
N5850 X3.6148 Y2.8457
N5855 X3.6298 Y2.8688
N5860 X3.6435 Y2.8926
N5865 X3.6561 Y2.917
N5870 X3.6675 Y2.942
N5875 X3.6777 Y2.9675
N5880 X3.6866 Y2.9935
N5885 X3.6943 Y3.0199
N5890 X3.7008 Y3.0466
N5895 X3.7061 Y3.0735
N5900 X3.71 Y3.1007
N5905 X3.7127 Y3.1281
N5910 X3.7141 Y3.1555
N5915 Y3.183
N5920 X3.7128 Y3.2104
N5925 X3.7101 Y3.2378
N5930 X3.706 Y3.2649
N5935 X3.7007 Y3.2919
N5940 X3.6941 Y3.3186
N5945 X3.6862 Y3.3449
N5950 X3.6771 Y3.3708
N5955 X3.6668 Y3.3963
N5960 X3.6553 Y3.4212
N5965 X3.6426 Y3.4456
N5970 X3.6288 Y3.4693
N5975 X3.6138 Y3.4924
N5980 X3.5977 Y3.5146
N5985 X3.5805 Y3.5361
N5990 X3.5623 Y3.5566
N5995 X3.5431 Y3.5763
N6000 X3.5231 Y3.5951
N6005 X3.5021 Y3.6129
N6010 X3.4804 Y3.6296
N6015 X3.4578 Y3.6454
N6020 X3.4346 Y3.66
N6025 X3.4107 Y3.6736
N6030 X3.3862 Y3.6859
N6035 X3.3611 Y3.6971
N6040 X3.3354 Y3.707
N6045 X3.3094 Y3.7157
N6050 X3.2829 Y3.723
N6055 X3.2561 Y3.7292
N6060 X3.2291 Y3.734
N6065 X3.2018 Y3.7376
N6070 X3.1745 Y3.74
N6075 X3.147 Y3.741
N6080 X3.1195 Y3.7408
N6085 X3.0921 Y3.7393
N6090 X3.0648 Y3.7365
N6095 X3.0376 Y3.7324
N6100 X3.0107 Y3.727
N6105 X2.984 Y3.7203
N6110 X2.9577 Y3.7123
N6115 X2.9319 Y3.7031
N6120 X2.9064 Y3.6927
N6125 X2.8815 Y3.6811
N6130 X2.8571 Y3.6684
N6135 X2.8333 Y3.6547
N6140 X2.8102 Y3.6398
N6145 X2.7878 Y3.6239
N6150 X2.7662 Y3.607
N6155 X2.7454 Y3.589
N6160 X2.7254 Y3.5701
N6165 X2.7065 Y3.5503
N6170 X2.6884 Y3.5295
N6175 X2.6714 Y3.508
N6180 X2.6553 Y3.4857
N6185 X2.6403 Y3.4627
N6190 X2.6263 Y3.439
N6195 X2.6134 Y3.4148
N6200 X2.6017 Y3.39
N6205 X2.5911 Y3.3646
N6210 X2.5816 Y3.3388
N6215 X2.5734 Y3.3126
N6220 X2.5664 Y3.286
N6225 X2.5607 Y3.2592
N6230 X2.5563 Y3.232
N6235 X2.5531 Y3.2047
N6240 X2.5512 Y3.1773
N6245 X2.5505 Y3.1499
N6250 X2.551 Y3.1224
N6255 X2.5528 Y3.095
N6260 X2.5558 Y3.0677
N6265 X2.5601 Y3.0405
N6270 X2.5656 Y3.0136
N6275 X2.5723 Y2.987
N6280 X2.5803 Y2.9607
N6285 X2.5895 Y2.9348
N6290 X2.5999 Y2.9094
N6295 X2.6115 Y2.8845
N6300 X2.6242 Y2.8601
N6305 X2.638 Y2.8364
N6310 X2.6529 Y2.8133
N6315 X2.6688 Y2.7909
N6320 X2.6857 Y2.7692
N6325 X2.7036 Y2.7483
N6330 X2.7223 Y2.7283
N6335 X2.742 Y2.7091
N6340 X2.7626 Y2.6908
N6345 X2.784 Y2.6736
N6350 X2.8062 Y2.6574
N6355 X2.8291 Y2.6423
N6360 X2.8527 Y2.6282
N6365 X2.8769 Y2.6152
N6370 X2.9017 Y2.6033
N6375 X2.9269 Y2.5925
N6380 X2.9527 Y2.5829
N6385 X2.9788 Y2.5744
N6390 X3.0053 Y2.5671
N6395 X3.0321 Y2.5611
N6400 X3.0591 Y2.5562
N6405 X3.0864 Y2.5527
N6410 X3.1137 Y2.5504
N6415 X3.1412 Y2.5494
N6420 X3.1687 Y2.5497
N6425 X3.1961 Y2.5513
N6430 X3.2234 Y2.554
N6435 X3.2506 Y2.558
N6440 X3.2776 Y2.5632
N6445 X3.3043 Y2.5696
N6450 X3.3307 Y2.5772
N6455 X3.3568 Y2.586
N6460 X3.3824 Y2.5959
N6465 X3.4075 Y2.607
N6470 X3.4321 Y2.6192
N6475 X3.4561 Y2.6326
N6480 X3.4795 Y2.6471
N6485 X3.5021 Y2.6626
N6490 X3.5241 Y2.6791
N6495 X3.5453 Y2.6966
N6500 X3.5658 Y2.7149
N6505 X3.5854 Y2.7342
N6510 X3.6042 Y2.7542
N6515 X3.6221 Y2.7751
N6520 X3.639 Y2.7967
N6525 X3.655 Y2.819
N6530 X3.67 Y2.842
N6535 X3.6839 Y2.8657
N6540 X3.6967 Y2.8901
N6545 X3.7084 Y2.9149
N6550 X3.7189 Y2.9403
N6555 X3.7284 Y2.9661
N6560 X3.7367 Y2.9923
N6565 X3.7439 Y3.0188
N6570 X3.7499 Y3.0456
N6575 X3.7548 Y3.0726
N6580 X3.7585 Y3.0999
N6585 X3.761 Y3.1272
N6590 X3.7623 Y3.1547
N6595 X3.7624 Y3.1821
N6600 X3.7612 Y3.2096
N6605 X3.7588 Y3.2369
N6610 X3.7551 Y3.2642
N6615 X3.7502 Y3.2912
N6620 X3.7441 Y3.318
N6625 X3.7369 Y3.3445
N6630 X3.7285 Y3.3707
N6635 X3.7189 Y3.3964
N6640 X3.7083 Y3.4218
N6645 X3.6966 Y3.4466
N6650 X3.6838 Y3.4709
N6655 X3.6699 Y3.4947
N6660 X3.655 Y3.5177
N6665 X3.639 Y3.5401
N6670 X3.6221 Y3.5617
N6675 X3.6041 Y3.5825
N6680 X3.5853 Y3.6025
N6685 X3.5656 Y3.6216
N6690 X3.5451 Y3.6399
N6695 X3.5238 Y3.6573
N6700 X3.5018 Y3.6737
N6705 X3.479 Y3.6892
N6710 X3.4557 Y3.7036
N6715 X3.4317 Y3.7171
N6720 X3.4072 Y3.7294
N6725 X3.3821 Y3.7407
N6730 X3.3565 Y3.7507
N6735 X3.3306 Y3.7597
N6740 X3.3042 Y3.7674
N6745 X3.2775 Y3.774
N6750 X3.2506 Y3.7794
N6755 X3.2234 Y3.7836
N6760 X3.1961 Y3.7867
N6765 X3.1687 Y3.7886
N6770 X3.1413 Y3.7894
N6775 X3.1138 Y3.7889
N6780 X3.0864 Y3.7873
N6785 X3.059 Y3.7845
N6790 X3.0319 Y3.7805
N6795 X3.0049 Y3.7752
N6800 X2.9782 Y3.7687
N6805 X2.9518 Y3.7611
N6810 X2.9258 Y3.7523
N6815 X2.9001 Y3.7424
N6820 X2.8749 Y3.7315
N6825 X2.8502 Y3.7195
N6830 X2.826 Y3.7064
N6835 X2.8024 Y3.6923
N6840 X2.7795 Y3.6773
N6845 X2.7571 Y3.6613
N6850 X2.7355 Y3.6443
N6855 X2.7147 Y3.6264
N6860 X2.6946 Y3.6076
N6865 X2.6755 Y3.588
N6870 X2.6572 Y3.5675
N6875 X2.6398 Y3.5462
N6880 X2.6233 Y3.5242
N6885 X2.6078 Y3.5015
N6890 X2.5932 Y3.4782
N6895 X2.5796 Y3.4544
N6900 X2.567 Y3.4299
N6905 X2.5555 Y3.405
N6910 X2.545 Y3.3796
N6915 X2.5356 Y3.3538
N6920 X2.5274 Y3.3276
N6925 X2.5203 Y3.301
N6930 X2.5143 Y3.2742
N6935 X2.5096 Y3.2471
N6940 X2.506 Y3.2199
N6945 X2.5036 Y3.1925
N6950 X2.5024 Y3.1651
N6955 X2.5023 Y3.1376
N6960 X2.5033 Y3.1102
N6965 X2.5054 Y3.0828
N6970 X2.5088 Y3.0555
N6975 X2.5132 Y3.0284
N6980 X2.5188 Y3.0015
N6985 X2.5255 Y2.9748
N6990 X2.5333 Y2.9485
N6995 X2.5424 Y2.9226
N7000 X2.5526 Y2.897
N7005 X2.5638 Y2.872
N7010 X2.5762 Y2.8474
N7015 X2.5895 Y2.8234
N7020 X2.6038 Y2.8
N7025 X2.6191 Y2.7772
N7030 X2.6354 Y2.755
N7035 X2.6525 Y2.7335
N7040 X2.6705 Y2.7128
N7045 X2.6894 Y2.6928
N7050 X2.7091 Y2.6737
N7055 X2.7296 Y2.6554
N7060 X2.7509 Y2.638
N7065 X2.773 Y2.6216
N7070 X2.7957 Y2.6062
N7075 X2.8191 Y2.5918
N7080 X2.843 Y2.5783
N7085 X2.8675 Y2.5659
N7090 X2.8925 Y2.5545
N7095 X2.918 Y2.5441
N7100 X2.9438 Y2.5348
N7105 X2.9701 Y2.5266
N7110 X2.9966 Y2.5195
N7115 X3.0234 Y2.5135
N7120 X3.0504 Y2.5086
N7125 X3.0777 Y2.505
N7130 X3.105 Y2.5025
N7135 X3.1325 Y2.5012
N7140 X3.16 Y2.5011
N7145 X3.1874 Y2.5022
N7150 X3.2148 Y2.5044
N7155 X3.2421 Y2.5078
N7160 X3.2692 Y2.5122
N7165 X3.2961 Y2.5178
N7170 X3.3227 Y2.5245
N7175 X3.3491 Y2.5323
N7180 X3.3751 Y2.5412
N7185 X3.4007 Y2.5511
N7190 X3.4259 Y2.5621
N7195 X3.4505 Y2.5742
N7200 X3.4746 Y2.5874
N7205 X3.4981 Y2.6016
N7210 X3.5211 Y2.6168
N7215 X3.5433 Y2.6329
N7220 X3.5649 Y2.6499
N7225 X3.5858 Y2.6677
N7230 X3.6059 Y2.6864
N7235 X3.6253 Y2.7059
N7240 X3.6439 Y2.7261
N7245 X3.6617 Y2.7471
N7250 X3.6786 Y2.7687
N7255 X3.6946 Y2.7911
N7260 X3.7096 Y2.8141
N7265 X3.7237 Y2.8377
N7270 X3.7367 Y2.8619
N7275 X3.7487 Y2.8866
N7280 X3.7596 Y2.9118
N7285 X3.7696 Y2.9374
N7290 X3.7784 Y2.9634
N7295 X3.7863 Y2.9897
N7300 X3.7931 Y3.0164
N7305 X3.7988 Y3.0432
N7310 X3.8034 Y3.0703
N7315 X3.807 Y3.0976
N7320 X3.8094 Y3.1249
N7325 X3.8107 Y3.1524
N7330 X3.8109 Y3.1798
N7335 X3.8099 Y3.2073
N7340 X3.8077 Y3.2347
N7345 X3.8044 Y3.262
N7350 X3.7999 Y3.2891
N7355 X3.7943 Y3.316
N7360 X3.7877 Y3.3426
N7365 X3.7799 Y3.369
N7370 X3.7712 Y3.395
N7375 X3.7613 Y3.4207
N7380 X3.7505 Y3.4459
N7385 X3.7386 Y3.4707
N7390 X3.7258 Y3.495
N7395 X3.712 Y3.5187
N7400 X3.6971 Y3.5419
N7405 X3.6813 Y3.5643
N7410 X3.6646 Y3.5861
N7415 X3.6469 Y3.6072
N7420 X3.6284 Y3.6275
N7425 X3.6091 Y3.647
N7430 X3.589 Y3.6657
N7435 X3.5682 Y3.6837
N7440 X3.5466 Y3.7007
N7445 X3.5244 Y3.7169
N7450 X3.5016 Y3.7322
N7455 X3.4782 Y3.7466
N7460 X3.4542 Y3.76
N7465 X3.4297 Y3.7724
N7470 X3.4047 Y3.7837
N7475 X3.3792 Y3.794
N7480 X3.3533 Y3.8032
N7485 X3.327 Y3.8113
N7490 X3.3005 Y3.8183
N7495 X3.2736 Y3.8242
N7500 X3.2466 Y3.8291
N7505 X3.2194 Y3.8329
N7510 X3.1921 Y3.8356
N7515 X3.1646 Y3.8373
N7520 X3.1372 Y3.8378
N7525 X3.1097 Y3.8372
N7530 X3.0823 Y3.8356
N7535 X3.0549 Y3.8328
N7540 X3.0277 Y3.8289
N7545 X3.0007 Y3.8238
N7550 X2.974 Y3.8177
N7555 X2.9475 Y3.8104
N7560 X2.9213 Y3.802
N7565 X2.8955 Y3.7927
N7570 X2.87 Y3.7823
N7575 X2.845 Y3.7709
N7580 X2.8205 Y3.7585
N7585 X2.7964 Y3.7452
N7590 X2.7729 Y3.731
N7595 X2.75 Y3.7158
N7600 X2.7277 Y3.6998
N7605 X2.7061 Y3.6829
N7610 X2.6852 Y3.6651
N7615 X2.665 Y3.6464
N7620 X2.6456 Y3.6269
N7625 X2.6271 Y3.6067
N7630 X2.6093 Y3.5857
N7635 X2.5924 Y3.564
N7640 X2.5764 Y3.5417
N7645 X2.5613 Y3.5188
N7650 X2.547 Y3.4953
N7655 X2.5337 Y3.4712
N7660 X2.5213 Y3.4467
N7665 X2.5099 Y3.4217
N7670 X2.4995 Y3.3963
N7675 X2.4901 Y3.3705
N7680 X2.4817 Y3.3443
N7685 X2.4745 Y3.3178
N7690 X2.4683 Y3.291
N7695 X2.4633 Y3.264
N7700 X2.4593 Y3.2368
N7705 X2.4564 Y3.2095
N7710 X2.4545 Y3.1821
N7715 X2.4538 Y3.1546
N7720 X2.4541 Y3.1272
N7725 X2.4554 Y3.0997
N7730 X2.4578 Y3.0724
N7735 X2.4613 Y3.0451
N7740 X2.4658 Y3.018
N7745 X2.4714 Y2.9911
N7750 X2.4781 Y2.9644
N7755 X2.4858 Y2.9381
N7760 X2.4946 Y2.9121
N7765 X2.5045 Y2.8864
N7770 X2.5154 Y2.8612
N7775 X2.5273 Y2.8364
N7780 X2.5402 Y2.8122
N7785 X2.554 Y2.7884
N7790 X2.5687 Y2.7652
N7795 X2.5843 Y2.7426
N7800 X2.6007 Y2.7206
N7805 X2.618 Y2.6992
N7810 X2.6361 Y2.6786
N7815 X2.655 Y2.6586
N7820 X2.6747 Y2.6394
N7825 X2.6951 Y2.6211
N7830 X2.7163 Y2.6036
N7835 X2.7382 Y2.587
N7840 X2.7607 Y2.5712
N7845 X2.7839 Y2.5564
N7850 X2.8076 Y2.5425
N7855 X2.8318 Y2.5296
N7860 X2.8565 Y2.5176
N7865 X2.8817 Y2.5065
N7870 X2.9072 Y2.4964
N7875 X2.9331 Y2.4873
N7880 X2.9594 Y2.4793
N7885 X2.986 Y2.4722
N7890 X3.0128 Y2.4662
N7895 X3.0398 Y2.4612
N7900 X3.067 Y2.4574
N7905 X3.0943 Y2.4547
N7910 X3.1218 Y2.4531
N7915 X3.1492 Y2.4526
N7920 X3.1767 Y2.4532
N7925 X3.2041 Y2.4548
N7930 X3.2315 Y2.4575
N7935 X3.2587 Y2.4613
N7940 X3.2857 Y2.4661
N7945 X3.3126 Y2.4719
N7950 X3.3392 Y2.4788
N7955 X3.3655 Y2.4867
N7960 X3.3915 Y2.4955
N7965 X3.4172 Y2.5054
N7970 X3.4424 Y2.5163
N7975 X3.4671 Y2.5283
N7980 X3.4914 Y2.5412
N7985 X3.5151 Y2.5551
N7990 X3.5382 Y2.5699
N7995 X3.5608 Y2.5855
N8000 X3.5827 Y2.6021
N8005 X3.6041 Y2.6194
N8010 X3.6247 Y2.6375
N8015 X3.6446 Y2.6564
N8020 X3.6639 Y2.676
N8025 X3.6824 Y2.6964
N8030 X3.7001 Y2.7174
N8035 X3.717 Y2.739
N8040 X3.733 Y2.7613
N8045 X3.7482 Y2.7842
N8050 X3.7624 Y2.8077
N8055 X3.7757 Y2.8318
N8060 X3.788 Y2.8563
N8065 X3.7994 Y2.8814
N8070 X3.8098 Y2.9068
N8075 X3.8193 Y2.9326
N8080 X3.8278 Y2.9587
N8085 X3.8353 Y2.9851
N8090 X3.8418 Y3.0118
N8095 X3.8473 Y3.0387
N8100 X3.8518 Y3.0659
N8105 X3.8553 Y3.0931
N8110 X3.8578 Y3.1205
N8115 X3.8592 Y3.1479
N8120 X3.8595 Y3.1754
N8125 X3.8587 Y3.2028
N8130 X3.8568 Y3.2303
N8135 X3.8539 Y3.2576
N8140 X3.8499 Y3.2847
N8145 X3.8448 Y3.3118
N8150 X3.8388 Y3.3386
N8155 X3.8317 Y3.3651
N8160 X3.8237 Y3.3914
N8165 X3.8146 Y3.4173
N8170 X3.8046 Y3.4429
N8175 X3.7937 Y3.4681
N8180 X3.7818 Y3.4929
N8185 X3.769 Y3.5172
N8190 X3.7552 Y3.541
N8195 X3.7406 Y3.5642
N8200 X3.7249 Y3.5868
N8205 X3.7084 Y3.6088
N8210 X3.6911 Y3.6301
N8215 X3.673 Y3.6507
N8220 X3.6541 Y3.6707
N8225 X3.6344 Y3.6899
N8230 X3.614 Y3.7083
N8235 X3.593 Y3.726
N8240 X3.5713 Y3.7428
N8245 X3.549 Y3.7589
N8250 X3.5261 Y3.7741
N8255 X3.5027 Y3.7884
N8260 X3.4787 Y3.8019
N8265 X3.4543 Y3.8144
N8270 X3.4293 Y3.8259
N8275 X3.4039 Y3.8364
N8280 X3.3782 Y3.8459
N8285 X3.352 Y3.8544
N8290 X3.3256 Y3.8619
N8295 X3.2989 Y3.8684
N8300 X3.272 Y3.8739
N8305 X3.2449 Y3.8784
N8310 X3.2176 Y3.8819
N8315 X3.1903 Y3.8844
N8320 X3.1628 Y3.8859
N8325 X3.1354 Y3.8863
N8330 X3.1079 Y3.8857
N8335 X3.0805 Y3.8842
N8340 X3.0531 Y3.8815
N8345 X3.0259 Y3.8778
N8350 X2.9989 Y3.873
N8355 X2.972 Y3.8671
N8360 X2.9454 Y3.8603
N8365 X2.9191 Y3.8524
N8370 X2.8931 Y3.8435
N8375 X2.8674 Y3.8337
N8380 X2.8421 Y3.823
N8385 X2.8172 Y3.8113
N8390 X2.7928 Y3.7988
N8395 X2.7689 Y3.7853
N8400 X2.7454 Y3.771
N8405 X2.7225 Y3.7558
N8410 X2.7002 Y3.7398
N8415 X2.6784 Y3.723
N8420 X2.6574 Y3.7053
N8425 X2.6371 Y3.6868
N8430 X2.6175 Y3.6676
N8435 X2.5986 Y3.6476
N8440 X2.5805 Y3.6269
N8445 X2.5632 Y3.6056
N8450 X2.5467 Y3.5837
N8455 X2.531 Y3.5611
N8460 X2.5161 Y3.538
N8465 X2.5021 Y3.5144
N8470 X2.4889 Y3.4903
N8475 X2.4766 Y3.4657
N8480 X2.4652 Y3.4407
N8485 X2.4548 Y3.4153
N8490 X2.4453 Y3.3895
N8495 X2.4368 Y3.3634
N8500 X2.4293 Y3.337
N8505 X2.4228 Y3.3103
N8510 X2.4174 Y3.2833
N8515 X2.4129 Y3.2562
N8520 X2.4095 Y3.229
N8525 X2.4071 Y3.2016
N8530 X2.4056 Y3.1741
N8535 X2.4052 Y3.1467
N8540 X2.4058 Y3.1192
N8545 X2.4073 Y3.0918
N8550 X2.4098 Y3.0644
N8555 X2.4134 Y3.0372
N8560 X2.4179 Y3.0101
N8565 X2.4234 Y2.9831
N8570 X2.4299 Y2.9565
N8575 X2.4374 Y2.93
N8580 X2.446 Y2.9039
N8585 X2.4555 Y2.8782
N8590 X2.4661 Y2.8528
N8595 X2.4775 Y2.8278
N8600 X2.4898 Y2.8033
N8605 X2.5031 Y2.7792
N8610 X2.5172 Y2.7556
N8615 X2.5321 Y2.7326
N8620 X2.5479 Y2.7101
N8625 X2.5645 Y2.6881
N8630 X2.5818 Y2.6668
N8635 X2.5999 Y2.6462
N8640 X2.6188 Y2.6262
N8645 X2.6384 Y2.6069
N8650 X2.6587 Y2.5884
N8655 X2.6797 Y2.5707
N8660 X2.7014 Y2.5538
N8665 X2.7237 Y2.5378
N8670 X2.7465 Y2.5226
N8675 X2.7699 Y2.5082
N8680 X2.7939 Y2.4947
N8685 X2.8183 Y2.4821
N8690 X2.8431 Y2.4703
N8695 X2.8684 Y2.4595
N8700 X2.894 Y2.4496
N8705 X2.9199 Y2.4406
N8710 X2.9462 Y2.4325
N8715 X2.9727 Y2.4254
N8720 X2.9995 Y2.4193
N8725 X3.0265 Y2.4142
N8730 X3.0537 Y2.4101
N8735 X3.081 Y2.4071
N8740 X3.1084 Y2.4051
N8745 X3.1359 Y2.4042
N8750 X3.1634
N8755 X3.1908 Y2.4053
N8760 X3.2182 Y2.4073
N8765 X3.2455 Y2.4104
N8770 X3.2727 Y2.4144
N8775 X3.2997 Y2.4194
N8780 X3.3265 Y2.4253
N8785 X3.3531 Y2.4322
N8790 X3.3795 Y2.4401
N8795 X3.4055 Y2.4489
N8800 X3.4312 Y2.4586
N8805 X3.4565 Y2.4694
N8810 X3.4813 Y2.4811
N8815 X3.5057 Y2.4937
N8820 X3.5296 Y2.5072
N8825 X3.5531 Y2.5216
N8830 X3.5759 Y2.5368
N8835 X3.5983 Y2.5528
N8840 X3.62 Y2.5696
N8845 X3.6411 Y2.5872
N8850 X3.6616 Y2.6055
N8855 X3.6815 Y2.6245
N8860 X3.7006 Y2.6442
N8865 X3.7191 Y2.6645
N8870 X3.7368 Y2.6855
N8875 X3.7538 Y2.7071
N8880 X3.77 Y2.7293
N8885 X3.7853 Y2.7521
N8890 X3.7998 Y2.7754
N8895 X3.8134 Y2.7993
N8900 X3.8261 Y2.8237
N8905 X3.8379 Y2.8485
N8910 X3.8489 Y2.8737
N8915 X3.8589 Y2.8992
N8920 X3.8681 Y2.9252
N8925 X3.8763 Y2.9514
N8930 X3.8836 Y2.9779
N8935 X3.8899 Y3.0046
N8940 X3.8954 Y3.0315
N8945 X3.8999 Y3.0586
N8950 X3.9034 Y3.0859
N8955 X3.906 Y3.1132
N8960 X3.9076 Y3.1407
N8965 X3.9081 Y3.1681
N8970 X3.9076 Y3.1956
N8975 X3.9061 Y3.223
N8980 X3.9036 Y3.2504
N8985 X3.9001 Y3.2776
N8990 X3.8957 Y3.3047
N8995 X3.8902 Y3.3317
N9000 X3.8839 Y3.3584
N9005 X3.8765 Y3.3849
N9010 X3.8683 Y3.4111
N9015 X3.8592 Y3.437
N9020 X3.8491 Y3.4626
N9025 X3.8382 Y3.4878
N9030 X3.8264 Y3.5126
N9035 X3.8137 Y3.5369
N9040 X3.8 Y3.5608
N9045 X3.7856 Y3.5842
N9050 X3.7702 Y3.6069
N9055 X3.754 Y3.6292
N9060 X3.7371 Y3.6508
N9065 X3.7193 Y3.6717
N9070 X3.7008 Y3.6921
N9075 X3.6817 Y3.7117
N9080 X3.6618 Y3.7307
N9085 X3.6413 Y3.749
N9090 X3.6201 Y3.7665
N9095 X3.5984 Y3.7833
N9100 X3.576 Y3.7993
N9105 X3.5532 Y3.8146
N9110 X3.5298 Y3.829
N9115 X3.5059 Y3.8425
N9120 X3.4815 Y3.8552
N9125 X3.4567 Y3.8669
N9130 X3.4314 Y3.8777
N9135 X3.4058 Y3.8876
N9140 X3.3798 Y3.8966
N9145 X3.3535 Y3.9046
N9150 X3.327 Y3.9117
N9155 X3.3002 Y3.9179
N9160 X3.2732 Y3.9231
N9165 X3.2461 Y3.9274
N9170 X3.2188 Y3.9307
N9175 X3.1914 Y3.9331
N9180 X3.164 Y3.9345
N9185 X3.1365 Y3.935
N9190 X3.1091 Y3.9345
N9195 X3.0816 Y3.933
N9200 X3.0543 Y3.9306
N9205 X3.027 Y3.9271
N9210 X2.9999 Y3.9226
N9215 X2.973 Y3.9172
N9220 X2.9463 Y3.9108
N9225 X2.9198 Y3.9034
N9230 X2.8936 Y3.8952
N9235 X2.8677 Y3.886
N9240 X2.8421 Y3.8759
N9245 X2.8169 Y3.865
N9250 X2.7921 Y3.8531
N9255 X2.7677 Y3.8405
N9260 X2.7438 Y3.827
N9265 X2.7203 Y3.8127
N9270 X2.6974 Y3.7976
N9275 X2.6749 Y3.7818
N9280 X2.6531 Y3.7651
N9285 X2.6319 Y3.7476
N9290 X2.6114 Y3.7293
N9295 X2.5915 Y3.7104
N9300 X2.5723 Y3.6907
N9305 X2.5538 Y3.6704
N9310 X2.536 Y3.6494
N9315 X2.519 Y3.6279
N9320 X2.5027 Y3.6058
N9325 X2.4872 Y3.5831
N9330 X2.4725 Y3.5599
N9335 X2.4585 Y3.5362
N9340 X2.4454 Y3.5121
N9345 X2.4331 Y3.4875
N9350 X2.4216 Y3.4626
N9355 X2.4111 Y3.4372
N9360 X2.4014 Y3.4115
N9365 X2.3927 Y3.3854
N9370 X2.3849 Y3.3591
N9375 X2.3781 Y3.3325
N9380 X2.3722 Y3.3056
N9385 X2.3672 Y3.2786
N9390 X2.3632 Y3.2514
N9395 X2.3602 Y3.2241
N9400 X2.3581 Y3.1967
N9405 X2.3569 Y3.1693
N9410 X2.3566 Y3.1418
N9415 X2.3573 Y3.1143
N9420 X2.3589 Y3.0869
N9425 X2.3614 Y3.0595
N9430 X2.3649 Y3.0323
N9435 X2.3693 Y3.0052
N9440 X2.3746 Y2.9782
N9445 X2.3809 Y2.9515
N9450 X2.3882 Y2.925
N9455 X2.3964 Y2.8988
N9460 X2.4056 Y2.8729
N9465 X2.4156 Y2.8473
N9470 X2.4265 Y2.8221
N9475 X2.4383 Y2.7973
N9480 X2.451 Y2.7729
N9485 X2.4644 Y2.7489
N9490 X2.4787 Y2.7254
N9495 X2.4938 Y2.7025
N9500 X2.5096 Y2.68
N9505 X2.5262 Y2.6581
N9510 X2.5435 Y2.6368
N9515 X2.5615 Y2.616
N9520 X2.5803 Y2.5959
N9525 X2.5997 Y2.5765
N9530 X2.6198 Y2.5578
N9535 X2.6406 Y2.5399
N9540 X2.6621 Y2.5227
N9545 X2.6841 Y2.5062
N9550 X2.7066 Y2.4906
N9555 X2.7297 Y2.4757
N9560 X2.7533 Y2.4616
N9565 X2.7774 Y2.4484
N9570 X2.8019 Y2.4359
N9575 X2.8268 Y2.4243
N9580 X2.8521 Y2.4136
N9585 X2.8777 Y2.4037
N9590 X2.9037 Y2.3946
N9595 X2.9299 Y2.3865
N9600 X2.9564 Y2.3793
N9605 X2.9832 Y2.373
N9610 X3.0101 Y2.3677
N9615 X3.0372 Y2.3633
N9620 X3.0645 Y2.3599
N9625 X3.0919 Y2.3575
N9630 X3.1193 Y2.356
N9635 X3.1468 Y2.3555
N9640 X3.1742 Y2.3559
N9645 X3.2017 Y2.3573
N9650 X3.2291 Y2.3595
N9655 X3.2564 Y2.3627
N9660 X3.2835 Y2.3669
N9665 X3.3105 Y2.3719
N9670 X3.3374 Y2.3778
N9675 X3.364 Y2.3847
N9680 X3.3903 Y2.3924
N9685 X3.4164 Y2.4011
N9690 X3.4422 Y2.4106
N9695 X3.4676 Y2.4211
N9700 X3.4926 Y2.4325
N9705 X3.5172 Y2.4447
N9710 X3.5413 Y2.4578
N9715 X3.565 Y2.4717
N9720 X3.5882 Y2.4864
N9725 X3.6109 Y2.5019
N9730 X3.6331 Y2.5182
N9735 X3.6547 Y2.5351
N9740 X3.6757 Y2.5528
N9745 X3.6962 Y2.5711
N9750 X3.716 Y2.5902
N9755 X3.7352 Y2.6098
N9760 X3.7537 Y2.6301
N9765 X3.7716 Y2.651
N9770 X3.7887 Y2.6725
N9775 X3.8051 Y2.6946
N9780 X3.8206 Y2.7172
N9785 X3.8354 Y2.7404
N9790 X3.8494 Y2.764
N9795 X3.8625 Y2.7881
N9800 X3.8749 Y2.8127
N9805 X3.8864 Y2.8376
N9810 X3.897 Y2.863
N9815 X3.9068 Y2.8886
N9820 X3.9158 Y2.9146
N9825 X3.9239 Y2.9408
N9830 X3.9311 Y2.9673
N9835 X3.9375 Y2.9941
N9840 X3.943 Y3.021
N9845 X3.9476 Y3.0481
N9850 X3.9513 Y3.0753
N9855 X3.954 Y3.1026
N9860 X3.9558 Y3.1301
N9865 X3.9567 Y3.1575
N9870 X3.9566 Y3.185
N9875 X3.9555 Y3.2124
N9880 X3.9535 Y3.2398
N9885 X3.9506 Y3.2672
N9890 X3.9468 Y3.2944
N9895 X3.942 Y3.3214
N9900 X3.9364 Y3.3483
N9905 X3.9298 Y3.375
N9910 X3.9224 Y3.4015
N9915 X3.9141 Y3.4277
N9920 X3.905 Y3.4536
N9925 X3.895 Y3.4792
N9930 X3.8842 Y3.5044
N9935 X3.8725 Y3.5293
N9940 X3.8599 Y3.5537
N9945 X3.8466 Y3.5777
N9950 X3.8323 Y3.6012
N9955 X3.8173 Y3.6242
N9960 X3.8015 Y3.6467
N9965 X3.785 Y3.6687
N9970 X3.7677 Y3.69
N9975 X3.7497 Y3.7108
N9980 X3.731 Y3.7309
N9985 X3.7117 Y3.7504
N9990 X3.6917 Y3.7693
N9995 X3.6711 Y3.7875
N10000 X3.65 Y3.805
N10005 X3.6282 Y3.8218
N10010 X3.6059 Y3.8379
N10015 X3.5832 Y3.8532
N10020 X3.5598 Y3.8678
N10025 X3.536 Y3.8815
N10030 X3.5118 Y3.8944
N10035 X3.4871 Y3.9065
N10040 X3.462 Y3.9177
N10045 X3.4366 Y3.928
N10050 X3.4108 Y3.9375
N10055 X3.3847 Y3.9461
N10060 X3.3583 Y3.9538
N10065 X3.3317 Y3.9606
N10070 X3.3049 Y3.9666
N10075 X3.2779 Y3.9717
N10080 X3.2507 Y3.9759
N10085 X3.2234 Y3.9792
N10090 X3.1961 Y3.9816
N10095 X3.1686 Y3.9831
N10100 X3.1412 Y3.9837
N10105 X3.1137 Y3.9834
N10110 X3.0863 Y3.9822
N10115 X3.0589 Y3.98
N10120 X3.0316 Y3.9768
N10125 X3.0044 Y3.9728
N10130 X2.9774 Y3.9678
N10135 X2.9505 Y3.9619
N10140 X2.9239 Y3.9552
N10145 X2.8975 Y3.9475
N10150 X2.8714 Y3.939
N10155 X2.8456 Y3.9297
N10160 X2.8201 Y3.9195
N10165 X2.7949 Y3.9084
N10170 X2.7701 Y3.8966
N10175 X2.7457 Y3.884
N10180 X2.7217 Y3.8706
N10185 X2.6982 Y3.8564
N10190 X2.6751 Y3.8415
N10195 X2.6526 Y3.8257
N10200 X2.6306 Y3.8093
N10205 X2.6092 Y3.7921
N10210 X2.5884 Y3.7741
N10215 X2.5682 Y3.7555
N10220 X2.5486 Y3.7362
N10225 X2.5297 Y3.7163
N10230 X2.5114 Y3.6958
N10235 X2.4938 Y3.6747
N10240 X2.4769 Y3.653
N10245 X2.4608 Y3.6308
N10250 X2.4453 Y3.6081
N10255 X2.4306 Y3.5849
N10260 X2.4166 Y3.5612
N10265 X2.4034 Y3.5371
N10270 X2.391 Y3.5126
N10275 X2.3794 Y3.4877
N10280 X2.3687 Y3.4624
N10285 X2.3588 Y3.4368
N10290 X2.3497 Y3.4108
N10295 X2.3416 Y3.3846
N10300 X2.3343 Y3.3581
N10305 X2.3279 Y3.3314
N10310 X2.3224 Y3.3045
N10315 X2.3178 Y3.2774
N10320 X2.314 Y3.2502
N10325 X2.3112 Y3.2228
N10330 X2.3092 Y3.1954
N10335 X2.3081 Y3.168
N10340 X2.3079 Y3.1405
N10345 X2.3085 Y3.113
N10350 X2.3101 Y3.0856
N10355 X2.3125 Y3.0582
N10360 X2.3158 Y3.031
N10365 X2.32 Y3.0038
N10370 X2.3251 Y2.9768
N10375 X2.3311 Y2.95
N10380 X2.338 Y2.9234
N10385 X2.3458 Y2.8971
N10390 X2.3545 Y2.871
N10395 X2.364 Y2.8452
N10400 X2.3744 Y2.8198
N10405 X2.3856 Y2.7947
N10410 X2.3976 Y2.77
N10415 X2.4103 Y2.7457
N10420 X2.4239 Y2.7218
N10425 X2.4382 Y2.6983
N10430 X2.4533 Y2.6753
N10435 X2.469 Y2.6528
N10440 X2.4855 Y2.6309
N10445 X2.5027 Y2.6094
N10450 X2.5206 Y2.5886
N10455 X2.5392 Y2.5683
N10460 X2.5585 Y2.5487
N10465 X2.5783 Y2.5298
N10470 X2.5989 Y2.5115
N10475 X2.62 Y2.4939
N10480 X2.6417 Y2.477
N10485 X2.6639 Y2.4609
N10490 X2.6866 Y2.4455
N10495 X2.7098 Y2.4308
N10500 X2.7335 Y2.4169
N10505 X2.7576 Y2.4037
N10510 X2.7822 Y2.3913
N10515 X2.8071 Y2.3797
N10520 X2.8324 Y2.3689
N10525 X2.8579 Y2.359
N10530 X2.8838 Y2.3498
N10535 X2.91 Y2.3415
N10540 X2.9365 Y2.3341
N10545 X2.9632 Y2.3275
N10550 X2.9901 Y2.3219
N10555 X3.0171 Y2.3171
N10560 X3.0443 Y2.3133
N10565 X3.0716 Y2.3103
N10570 X3.099 Y2.3082
N10575 X3.1265 Y2.3071
N10580 X3.154 Y2.3068
N10585 X3.1814 Y2.3074
N10590 X3.2089 Y2.3089
N10595 X3.2362 Y2.3113
N10600 X3.2635 Y2.3145
N10605 X3.2907 Y2.3186
N10610 X3.3177 Y2.3236
N10615 X3.3446 Y2.3294
N10620 X3.3712 Y2.3361
N10625 X3.3976 Y2.3436
N10630 X3.4238 Y2.3521
N10635 X3.4496 Y2.3613
N10640 X3.4752 Y2.3715
N10645 X3.5004 Y2.3824
N10650 X3.5252 Y2.3942
N10655 X3.5496 Y2.4068
N10660 X3.5736 Y2.4202
N10665 X3.5972 Y2.4343
N10670 X3.6202 Y2.4492
N10675 X3.6429 Y2.4648
N10680 X3.665 Y2.4812
N10685 X3.6865 Y2.4982
N10690 X3.7076 Y2.5158
N10695 X3.7281 Y2.5341
N10700 X3.748 Y2.5531
N10705 X3.7673 Y2.5727
N10710 X3.7859 Y2.5928
N10715 X3.8039 Y2.6136
N10720 X3.8212 Y2.6349
N10725 X3.8378 Y2.6568
N10730 X3.8537 Y2.6792
N10735 X3.8689 Y2.7021
N10740 X3.8833 Y2.7255
N10745 X3.897 Y2.7493
N10750 X3.9099 Y2.7736
N10755 X3.922 Y2.7983
N10760 X3.9333 Y2.8233
N10765 X3.9438 Y2.8487
N10770 X3.9535 Y2.8744
N10775 X3.9625 Y2.9004
N10780 X3.9706 Y2.9266
N10785 X3.9779 Y2.9531
N10790 X3.9844 Y2.9798
N10795 X3.99 Y3.0067
N10800 X3.9948 Y3.0337
N10805 X3.9987 Y3.0609
N10810 X4.0017 Y3.0882
N10815 X4.0038 Y3.1156
N10820 X4.0051 Y3.1431
N10825 X4.0054 Y3.1706
N10830 X4.0049 Y3.198
N10835 X4.0035 Y3.2255
N10840 X4.0012 Y3.2528
N10845 X3.998 Y3.2801
N10850 X3.994 Y3.3073
N10855 X3.9891 Y3.3344
N10860 X3.9834 Y3.3612
N10865 X3.9769 Y3.3879
N10870 X3.9695 Y3.4144
N10875 X3.9613 Y3.4406
N10880 X3.9522 Y3.4665
N10885 X3.9424 Y3.4922
N10890 X3.9317 Y3.5175
N10895 X3.9203 Y3.5425
N10900 X3.908 Y3.5671
N10905 X3.8949 Y3.5912
N10910 X3.8811 Y3.615
N10915 X3.8665 Y3.6382
N10920 X3.8511 Y3.661
N10925 X3.8351 Y3.6833
N10930 X3.8183 Y3.7051
N10935 X3.8008 Y3.7263
N10940 X3.7827 Y3.7469
N10945 X3.7639 Y3.767
N10950 X3.7446 Y3.7865
N10955 X3.7246 Y3.8053
N10960 X3.704 Y3.8236
N10965 X3.6829 Y3.8412
N10970 X3.6613 Y3.8581
N10975 X3.6391 Y3.8743
N10980 X3.6164 Y3.8898
N10985 X3.5932 Y3.9045
N10990 X3.5696 Y3.9186
N10995 X3.5455 Y3.9318
N11000 X3.521 Y3.9442
N11005 X3.4962 Y3.9559
N11010 X3.4709 Y3.9667
N11015 X3.4453 Y3.9768
N11020 X3.4195 Y3.986
N11025 X3.3933 Y3.9944
N11030 X3.3669 Y4.002
N11035 X3.3402 Y4.0087
N11040 X3.3134 Y4.0146
N11045 X3.2864 Y4.0197
N11050 X3.2593 Y4.024
N11055 X3.232 Y4.0274
N11060 X3.2047 Y4.0299
N11065 X3.1772 Y4.0316
N11070 X3.1498 Y4.0324
N11075 X3.1223
N11080 X3.0948 Y4.0315
N11085 X3.0674 Y4.0297
N11090 X3.0401 Y4.027
N11095 X3.0128 Y4.0234
N11100 X2.9857 Y4.019
N11105 X2.9588 Y4.0137
N11110 X2.932 Y4.0076
N11115 X2.9054 Y4.0006
N11120 X2.879 Y3.9928
N11125 X2.853 Y3.9842
N11130 X2.8271 Y3.9748
N11135 X2.8016 Y3.9646
N11140 X2.7764 Y3.9537
N11145 X2.7516 Y3.942
N11150 X2.7271 Y3.9295
N11155 X2.703 Y3.9162
N11160 X2.6794 Y3.9022
N11165 X2.6562 Y3.8875
N11170 X2.6335 Y3.872
N11175 X2.6113 Y3.8558
N11180 X2.5896 Y3.839
N11185 X2.5685 Y3.8214
N11190 X2.5479 Y3.8032
N11195 X2.5279 Y3.7844
N11200 X2.5085 Y3.7649
N11205 X2.4897 Y3.7449
N11210 X2.4716 Y3.7242
N11215 X2.4541 Y3.703
N11220 X2.4372 Y3.6813
N11225 X2.421 Y3.6591
N11230 X2.4055 Y3.6365
N11235 X2.3907 Y3.6133
N11240 X2.3767 Y3.5897
N11245 X2.3633 Y3.5657
N11250 X2.3507 Y3.5413
N11255 X2.3389 Y3.5165
N11260 X2.3278 Y3.4913
N11265 X2.3176 Y3.4658
N11270 X2.3082 Y3.44
N11275 X2.2995 Y3.4139
N11280 X2.2917 Y3.3876
N11285 X2.2848 Y3.361
N11290 X2.2786 Y3.3342
N11295 X2.2733 Y3.3073
N11300 X2.2689 Y3.2802
N11305 X2.2652 Y3.2529
N11310 X2.2624 Y3.2256
N11315 X2.2605 Y3.1982
N11320 X2.2593 Y3.1708
N11325 X2.259 Y3.1433
N11330 X2.2595 Y3.1158
N11335 X2.2609 Y3.0884
N11340 X2.2631 Y3.061
N11345 X2.2662 Y3.0337
N11350 X2.2701 Y3.0065
N11355 X2.2749 Y2.9794
N11360 X2.2805 Y2.9525
N11365 X2.2869 Y2.9258
N11370 X2.2942 Y2.8993
N11375 X2.3023 Y2.8731
N11380 X2.3113 Y2.8471
N11385 X2.321 Y2.8214
N11390 X2.3315 Y2.796
N11395 X2.3428 Y2.771
N11400 X2.3549 Y2.7463
N11405 X2.3677 Y2.722
N11410 X2.3812 Y2.6981
N11415 X2.3954 Y2.6746
N11420 X2.4104 Y2.6515
N11425 X2.426 Y2.6289
N11430 X2.4424 Y2.6069
N11435 X2.4594 Y2.5853
N11440 X2.4771 Y2.5643
N11445 X2.4954 Y2.5438
N11450 X2.5144 Y2.5239
N11455 X2.5339 Y2.5046
N11460 X2.5541 Y2.486
N11465 X2.5748 Y2.468
N11470 X2.5961 Y2.4506
N11475 X2.618 Y2.4339
N11480 X2.6403 Y2.4179
N11485 X2.6631 Y2.4026
N11490 X2.6864 Y2.388
N11495 X2.7101 Y2.3741
N11500 X2.7342 Y2.3609
N11505 X2.7587 Y2.3485
N11510 X2.7835 Y2.3368
N11515 X2.8087 Y2.3258
N11520 X2.8343 Y2.3157
N11525 X2.8601 Y2.3063
N11530 X2.8862 Y2.2977
N11535 X2.9126 Y2.29
N11540 X2.9392 Y2.2831
N11545 X2.966 Y2.277
N11550 X2.9929 Y2.2718
N11555 X3.02 Y2.2674
N11560 X3.0473 Y2.2638
N11565 X3.0746 Y2.2611
N11570 X3.102 Y2.2593
N11575 X3.1295 Y2.2582
N11580 X3.157 Y2.2581
N11585 X3.1844 Y2.2587
N11590 X3.2119 Y2.2602
N11595 X3.2393 Y2.2625
N11600 X3.2665 Y2.2656
N11605 X3.2937 Y2.2696
N11610 X3.3208 Y2.2744
N11615 X3.3477 Y2.28
N11620 X3.3744 Y2.2864
N11625 X3.4009 Y2.2937
N11630 X3.4272 Y2.3018
N11635 X3.4532 Y2.3107
N11640 X3.4789 Y2.3204
N11645 X3.5043 Y2.3309
N11650 X3.5293 Y2.3421
N11655 X3.554 Y2.3541
N11660 X3.5783 Y2.3669
N11665 X3.6023 Y2.3805
N11670 X3.6257 Y2.3947
N11675 X3.6488 Y2.4096
N11680 X3.6714 Y2.4252
N11685 X3.6935 Y2.4415
N11690 X3.7152 Y2.4585
N11695 X3.7363 Y2.476
N11700 X3.7569 Y2.4942
N11705 X3.7769 Y2.5131
N11710 X3.7964 Y2.5325
N11715 X3.8152 Y2.5524
N11720 X3.8335 Y2.573
N11725 X3.8511 Y2.5941
N11730 X3.868 Y2.6157
N11735 X3.8843 Y2.6378
N11740 X3.8999 Y2.6604
N11745 X3.9148 Y2.6835
N11750 X3.929 Y2.707
N11755 X3.9425 Y2.731
N11760 X3.9553 Y2.7553
N11765 X3.9673 Y2.78
N11770 X3.9786 Y2.8051
N11775 X3.9891 Y2.8304
N11780 X3.9989 Y2.8561
N11785 X4.0079 Y2.8821
N11790 X4.0161 Y2.9083
N11795 X4.0236 Y2.9347
N11800 X4.0303 Y2.9614
N11805 X4.0361 Y2.9882
N11810 X4.0412 Y3.0152
N11815 X4.0454 Y3.0424
N11820 X4.0488 Y3.0696
N11825 X4.0514 Y3.097
N11830 X4.0532 Y3.1244
N11835 X4.0541 Y3.1518
N11840 Y3.1793
N11845 X4.0534 Y3.2068
N11850 X4.0518 Y3.2342
N11855 X4.0493 Y3.2616
N11860 X4.0461 Y3.2889
N11865 X4.0421 Y3.316
N11870 X4.0372 Y3.3431
N11875 X4.0315 Y3.37
N11880 X4.0251 Y3.3967
N11885 X4.0178 Y3.4232
N11890 X4.0098 Y3.4494
N11895 X4.001 Y3.4755
N11900 X3.9913 Y3.5012
N11905 X3.981 Y3.5266
N11910 X3.9698 Y3.5518
N11915 X3.9579 Y3.5765
N11920 X3.9453 Y3.6009
N11925 X3.9319 Y3.6249
N11930 X3.9177 Y3.6485
N11935 X3.9029 Y3.6716
N11940 X3.8874 Y3.6943
N11945 X3.8712 Y3.7164
N11950 X3.8543 Y3.7381
N11955 X3.8368 Y3.7593
N11960 X3.8187 Y3.7799
N11965 X3.7999 Y3.8
N11970 X3.7806 Y3.8196
N11975 X3.7607 Y3.8385
N11980 X3.7403 Y3.8569
N11985 X3.7193 Y3.8746
N11990 X3.6978 Y3.8917
N11995 X3.6757 Y3.9081
N12000 X3.6532 Y3.9239
N12005 X3.6303 Y3.9389
N12010 X3.6069 Y3.9533
N12015 X3.583 Y3.967
N12020 X3.5588 Y3.9799
N12025 X3.5341 Y3.9921
N12030 X3.5091 Y4.0035
N12035 X3.4838 Y4.0141
N12040 X3.4582 Y4.024
N12045 X3.4323 Y4.0332
N12050 X3.4061 Y4.0415
N12055 X3.3797 Y4.0491
N12060 X3.3531 Y4.0559
N12065 X3.3263 Y4.0619
N12070 X3.2993 Y4.0671
N12075 X3.2722 Y4.0715
N12080 X3.2449 Y4.0751
N12085 X3.2176 Y4.0779
N12090 X3.1902 Y4.0799
N12095 X3.1627 Y4.081
N12100 X3.1353 Y4.0813
N12105 X3.1078 Y4.0808
N12110 X3.0804 Y4.0795
N12115 X3.053 Y4.0773
N12120 X3.0257 Y4.0744
N12125 X2.9984 Y4.0706
N12130 X2.9714 Y4.066
N12135 X2.9444 Y4.0605
N12140 X2.9177 Y4.0543
N12145 X2.8911 Y4.0473
N12150 X2.8647 Y4.0395
N12155 X2.8386 Y4.031
N12160 X2.8128 Y4.0217
N12165 X2.7872 Y4.0116
N12170 X2.762 Y4.0008
N12175 X2.737 Y3.9892
N12180 X2.7125 Y3.977
N12185 X2.6883 Y3.9639
N12190 X2.6644 Y3.9502
N12195 X2.6411 Y3.9358
N12200 X2.6181 Y3.9207
N12205 X2.5956 Y3.9049
N12210 X2.5736 Y3.8885
N12215 X2.5521 Y3.8714
N12220 X2.5311 Y3.8536
N12225 X2.5107 Y3.8353
N12230 X2.4908 Y3.8163
N12235 X2.4715 Y3.7968
N12240 X2.4527 Y3.7767
N12245 X2.4346 Y3.7561
N12250 X2.417 Y3.735
N12255 X2.4001 Y3.7133
N12260 X2.3838 Y3.6912
N12265 X2.3682 Y3.6686
N12270 X2.3532 Y3.6455
N12275 X2.3389 Y3.6221
N12280 X2.3254 Y3.5982
N12285 X2.3125 Y3.5739
N12290 X2.3003 Y3.5493
N12295 X2.2889 Y3.5243
N12300 X2.2782 Y3.499
N12305 X2.2683 Y3.4734
N12310 X2.2591 Y3.4475
N12315 X2.2507 Y3.4213
N12320 X2.2431 Y3.3949
N12325 X2.2363 Y3.3683
N12330 X2.2303 Y3.3415
N12335 X2.225 Y3.3145
N12340 X2.2206 Y3.2874
N12345 X2.2169 Y3.2602
N12350 X2.214 Y3.2329
N12355 X2.2119 Y3.2055
N12360 X2.2106 Y3.178
N12365 X2.2101 Y3.1505
N12370 X2.2104 Y3.1231
N12375 X2.2115 Y3.0956
N12380 X2.2134 Y3.0682
N12385 X2.2161 Y3.0409
N12390 X2.2196 Y3.0136
N12395 X2.224 Y2.9865
N12400 X2.2291 Y2.9595
N12405 X2.235 Y2.9327
N12410 X2.2417 Y2.906
N12415 X2.2492 Y2.8796
N12420 X2.2574 Y2.8534
N12425 X2.2665 Y2.8274
N12430 X2.2763 Y2.8018
N12435 X2.2868 Y2.7764
N12440 X2.2981 Y2.7513
N12445 X2.31 Y2.7266
N12450 X2.3227 Y2.7022
N12455 X2.3361 Y2.6782
N12460 X2.3502 Y2.6547
N12465 X2.365 Y2.6315
N12470 X2.3804 Y2.6088
N12475 X2.3965 Y2.5865
N12480 X2.4133 Y2.5647
N12485 X2.4307 Y2.5434
N12490 X2.4486 Y2.5227
N12495 X2.4672 Y2.5025
N12500 X2.4864 Y2.4828
N12505 X2.5062 Y2.4637
N12510 X2.5265 Y2.4452
N12515 X2.5474 Y2.4273
N12520 X2.5687 Y2.4101
N12525 X2.5906 Y2.3934
N12530 X2.6129 Y2.3774
N12535 X2.6357 Y2.3621
N12540 X2.659 Y2.3474
N12545 X2.6826 Y2.3334
N12550 X2.7067 Y2.3201
N12555 X2.7311 Y2.3075
N12560 X2.7558 Y2.2957
N12565 X2.781 Y2.2845
N12570 X2.8064 Y2.2741
N12575 X2.8321 Y2.2644
N12580 X2.8581 Y2.2555
N12585 X2.8843 Y2.2473
N12590 X2.9108 Y2.2399
N12595 X2.9374 Y2.2333
N12600 X2.9643 Y2.2275
N12605 X2.9913 Y2.2225
N12610 X3.0185 Y2.2183
N12615 X3.0457 Y2.2149
N12620 X3.0731 Y2.2122
N12625 X3.1005 Y2.2104
N12630 X3.1279 Y2.2094
N12635 X3.1554 Y2.2092
N12640 X3.1829 Y2.2097
N12645 X3.2103 Y2.2111
N12650 X3.2377 Y2.2132
N12655 X3.265 Y2.2162
N12660 X3.2923 Y2.2199
N12665 X3.3194 Y2.2244
N12670 X3.3463 Y2.2297
N12675 X3.3731 Y2.2358
N12680 X3.3997 Y2.2426
N12685 X3.4261 Y2.2503
N12690 X3.4523 Y2.2587
N12695 X3.4782 Y2.2678
N12700 X3.5038 Y2.2778
N12705 X3.5291 Y2.2884
N12710 X3.5541 Y2.2998
N12715 X3.5788 Y2.3119
N12720 X3.6031 Y2.3248
N12725 X3.627 Y2.3383
N12730 X3.6505 Y2.3525
N12735 X3.6736 Y2.3674
N12740 X3.6963 Y2.3829
N12745 X3.7185 Y2.3991
N12750 X3.7402 Y2.4159
N12755 X3.7615 Y2.4333
N12760 X3.7822 Y2.4513
N12765 X3.8025 Y2.4699
N12770 X3.8222 Y2.489
N12775 X3.8413 Y2.5087
N12780 X3.8599 Y2.529
N12785 X3.8778 Y2.5498
N12790 X3.8952 Y2.5711
N12795 X3.9119 Y2.5928
N12800 X3.9281 Y2.6151
N12805 X3.9435 Y2.6378
N12810 X3.9583 Y2.661
N12815 X3.9725 Y2.6845
N12820 X3.9859 Y2.7085
N12825 X3.9987 Y2.7328
N12830 X4.0107 Y2.7575
N12835 X4.0221 Y2.7825
N12840 X4.0328 Y2.8078
N12845 X4.0427 Y2.8334
N12850 X4.0519 Y2.8593
N12855 X4.0603 Y2.8855
N12860 X4.0681 Y2.9118
N12865 X4.075 Y2.9384
N12870 X4.0812 Y2.9652
N12875 X4.0867 Y2.9921
N12880 X4.0913 Y3.0192
N12885 X4.0952 Y3.0464
N12890 X4.0984 Y3.0737
N12895 X4.1007 Y3.1011
N12900 X4.1022 Y3.1285
N12905 X4.103 Y3.1559
N12910 X4.1029 Y3.1834
N12915 X4.1021 Y3.2109
N12920 X4.1005 Y3.2383
N12925 X4.0981 Y3.2657
N12930 X4.0949 Y3.293
N12935 X4.091 Y3.3202
N12940 X4.0862 Y3.3472
N12945 X4.0807 Y3.3741
N12950 X4.0745 Y3.4009
N12955 X4.0674 Y3.4275
N12960 X4.0597 Y3.4538
N12965 X4.0512 Y3.4799
N12970 X4.0419 Y3.5058
N12975 X4.0319 Y3.5314
N12980 X4.0212 Y3.5567
N12985 X4.0097 Y3.5817
N12990 X3.9976 Y3.6063
N12995 X3.9847 Y3.6306
N13000 X3.9711 Y3.6545
N13005 X3.9569 Y3.678
N13010 X3.942 Y3.701
N13015 X3.9264 Y3.7237
N13020 X3.9102 Y3.7459
N13025 X3.8934 Y3.7676
N13030 X3.8759 Y3.7888
N13035 X3.8579 Y3.8095
N13040 X3.8393 Y3.8297
N13045 X3.8201 Y3.8494
N13050 X3.8003 Y3.8685
N13055 X3.78 Y3.887
N13060 X3.7592 Y3.905
N13065 X3.7379 Y3.9223
N13070 X3.7161 Y3.9391
N13075 X3.6939 Y3.9552
N13080 X3.6712 Y3.9706
N13085 X3.648 Y3.9854
N13090 X3.6245 Y3.9996
N13095 X3.6005 Y4.013
N13100 X3.5762 Y4.0258
N13105 X3.5515 Y4.0379
N13110 X3.5265 Y4.0492
N13115 X3.5012 Y4.0598
N13120 X3.4755 Y4.0698
N13125 X3.4496 Y4.0789
N13130 X3.4235 Y4.0874
N13135 X3.3971 Y4.0951
N13140 X3.3705 Y4.102
N13145 X3.3438 Y4.1082
N13150 X3.3168 Y4.1136
N13155 X3.2898 Y4.1183
N13160 X3.2626 Y4.1222
N13165 X3.2353 Y4.1253
N13170 X3.2079 Y4.1277
N13175 X3.1805 Y4.1293
N13180 X3.153 Y4.1301
N13185 X3.1255
N13190 X3.0981 Y4.1293
N13195 X3.0706 Y4.1278
N13200 X3.0432 Y4.1255
N13205 X3.0159 Y4.1224
N13210 X2.9887 Y4.1185
N13215 X2.9617 Y4.1139
N13220 X2.9347 Y4.1085
N13225 X2.908 Y4.1023
N13230 X2.8814 Y4.0954
N13235 X2.855 Y4.0877
N13240 X2.8288 Y4.0793
N13245 X2.8029 Y4.0702
N13250 X2.7773 Y4.0604
N13255 X2.7519 Y4.0498
N13260 X2.7268 Y4.0385
N13265 X2.7021 Y4.0265
N13270 X2.6777 Y4.0139
N13275 X2.6537 Y4.0006
N13280 X2.6301 Y3.9866
N13285 X2.6068 Y3.9719
N13290 X2.584 Y3.9566
N13295 X2.5617 Y3.9406
N13300 X2.5397 Y3.924
N13305 X2.5183 Y3.9068
N13310 X2.4974 Y3.8891
N13315 X2.4769 Y3.8707
N13320 X2.457 Y3.8517
N13325 X2.4377 Y3.8323
N13330 X2.4189 Y3.8122
N13335 X2.4006 Y3.7917
N13340 X2.3829 Y3.7707
N13345 X2.3659 Y3.7491
N13350 X2.3494 Y3.7271
N13355 X2.3336 Y3.7047
N13360 X2.3183 Y3.6818
N13365 X2.3038 Y3.6585
N13370 X2.2898 Y3.6348
N13375 X2.2766 Y3.6108
N13380 X2.264 Y3.5863
N13385 X2.2521 Y3.5616
N13390 X2.2409 Y3.5365
N13395 X2.2304 Y3.5111
N13400 X2.2207 Y3.4854
N13405 X2.2116 Y3.4595
N13410 X2.2033 Y3.4333
N13415 X2.1957 Y3.4069
N13420 X2.1889 Y3.3803
N13425 X2.1828 Y3.3535
N13430 X2.1775 Y3.3265
N13435 X2.1729 Y3.2994
N13440 X2.169 Y3.2722
N13445 X2.166 Y3.2449
N13450 X2.1637 Y3.2175
N13455 X2.1621 Y3.1901
N13460 X2.1613 Y3.1627
N13465 Y3.1352
N13470 X2.162 Y3.1077
N13475 X2.1635 Y3.0803
N13480 X2.1657 Y3.0529
N13485 X2.1687 Y3.0256
N13490 X2.1725 Y2.9984
N13495 X2.177 Y2.9713
N13500 X2.1823 Y2.9443
N13505 X2.1884 Y2.9175
N13510 X2.1951 Y2.8909
N13515 X2.2027 Y2.8645
N13520 X2.2109 Y2.8383
N13525 X2.2199 Y2.8123
N13530 X2.2296 Y2.7866
N13535 X2.24 Y2.7612
N13540 X2.2512 Y2.736
N13545 X2.263 Y2.7112
N13550 X2.2755 Y2.6868
N13555 X2.2887 Y2.6627
N13560 X2.3025 Y2.6389
N13565 X2.317 Y2.6156
N13570 X2.3321 Y2.5927
N13575 X2.3479 Y2.5702
N13580 X2.3643 Y2.5481
N13585 X2.3813 Y2.5265
N13590 X2.3988 Y2.5054
N13595 X2.417 Y2.4848
N13600 X2.4357 Y2.4647
N13605 X2.455 Y2.4451
N13610 X2.4749 Y2.4261
N13615 X2.4952 Y2.4076
N13620 X2.5161 Y2.3897
N13625 X2.5374 Y2.3725
N13630 X2.5592 Y2.3558
N13635 X2.5815 Y2.3397
N13640 X2.6042 Y2.3242
N13645 X2.6274 Y2.3094
N13650 X2.6509 Y2.2952
N13655 X2.6748 Y2.2817
N13660 X2.6991 Y2.2689
N13665 X2.7237 Y2.2567
N13670 X2.7487 Y2.2452
N13675 X2.774 Y2.2344
N13680 X2.7995 Y2.2243
N13685 X2.8253 Y2.2149
N13690 X2.8514 Y2.2063
N13695 X2.8777 Y2.1983
N13700 X2.9042 Y2.1911
N13705 X2.9309 Y2.1847
N13710 X2.9578 Y2.179
N13715 X2.9848 Y2.174
N13720 X3.012 Y2.1698
N13725 X3.0392 Y2.1664
N13730 X3.0666 Y2.1637
N13735 X3.094 Y2.1617
N13740 X3.1214 Y2.1606
N13745 X3.1489 Y2.1602
N13750 X3.1764 Y2.1605
N13755 X3.2038 Y2.1617
N13760 X3.2312 Y2.1635
N13765 X3.2586 Y2.1662
N13770 X3.2859 Y2.1696
N13775 X3.313 Y2.1737
N13780 X3.3401 Y2.1786
N13785 X3.367 Y2.1842
N13790 X3.3937 Y2.1905
N13795 X3.4202 Y2.1976
N13800 X3.4466 Y2.2054
N13805 X3.4727 Y2.214
N13810 X3.4985 Y2.2233
N13815 X3.5241 Y2.2333
N13820 X3.5494 Y2.2439
N13825 X3.5744 Y2.2553
N13830 X3.5991 Y2.2674
N13835 X3.6235 Y2.2801
N13840 X3.6474 Y2.2936
N13845 X3.671 Y2.3076
N13850 X3.6942 Y2.3223
N13855 X3.717 Y2.3377
N13860 X3.7394 Y2.3536
N13865 X3.7613 Y2.3702
N13870 X3.7828 Y2.3874
N13875 X3.8038 Y2.4051
N13880 X3.8243 Y2.4234
N13885 X3.8443 Y2.4422
N13890 X3.8638 Y2.4616
N13895 X3.8827 Y2.4815
N13900 X3.9011 Y2.5019
N13905 X3.919 Y2.5228
N13910 X3.9362 Y2.5441
N13915 X3.9529 Y2.566
N13920 X3.969 Y2.5883
N13925 X3.9844 Y2.611
N13930 X3.9993 Y2.6341
N13935 X4.0134 Y2.6576
N13940 X4.027 Y2.6815
N13945 X4.0399 Y2.7058
N13950 X4.0521 Y2.7304
N13955 X4.0636 Y2.7553
N13960 X4.0745 Y2.7806
N13965 X4.0847 Y2.8061
N13970 X4.0942 Y2.8319
N13975 X4.103 Y2.8579
N13980 X4.111 Y2.8842
N13985 X4.1184 Y2.9106
N13990 X4.1251 Y2.9373
N13995 X4.131 Y2.9641
N14000 X4.1362 Y2.9911
N14005 X4.1407 Y3.0182
N14010 X4.1444 Y3.0454
N14015 X4.1474 Y3.0727
N14020 X4.1496 Y3.1001
N14025 X4.1511 Y3.1276
N14030 X4.1519 Y3.155
N14035 Y3.1825
N14040 X4.1511 Y3.21
N14045 X4.1496 Y3.2374
N14050 X4.1474 Y3.2648
N14055 X4.1444 Y3.2921
N14060 X4.1406 Y3.3193
N14065 X4.1361 Y3.3464
N14070 X4.1309 Y3.3734
N14075 X4.125 Y3.4002
N14080 X4.1183 Y3.4269
N14085 X4.1109 Y3.4533
N14090 X4.1028 Y3.4796
N14095 X4.094 Y3.5056
N14100 X4.0845 Y3.5314
N14105 X4.0743 Y3.5569
N14110 X4.0634 Y3.5821
N14115 X4.0518 Y3.607
N14120 X4.0395 Y3.6316
N14125 X4.0266 Y3.6559
N14130 X4.013 Y3.6797
N14135 X3.9988 Y3.7032
N14140 X3.9839 Y3.7263
N14145 X3.9685 Y3.749
N14150 X3.9524 Y3.7713
N14155 X3.9356 Y3.7931
N14160 X3.9183 Y3.8144
N14165 X3.9005 Y3.8353
N14170 X3.882 Y3.8557
N14175 X3.863 Y3.8755
N14180 X3.8435 Y3.8949
N14185 X3.8235 Y3.9137
N14190 X3.803 Y3.932
N14195 X3.782 Y3.9497
N14200 X3.7605 Y3.9668
N14205 X3.7385 Y3.9833
N14210 X3.7161 Y3.9993
N14215 X3.6933 Y4.0146
N14220 X3.6701 Y4.0293
N14225 X3.6465 Y4.0433
N14230 X3.6225 Y4.0567
N14235 X3.5982 Y4.0695
N14240 X3.5735 Y4.0816
N14245 X3.5485 Y4.093
N14250 X3.5233 Y4.1037
N14255 X3.4977 Y4.1138
N14260 X3.4718 Y4.1231
N14265 X3.4458 Y4.1317
N14270 X3.4194 Y4.1396
N14275 X3.3929 Y4.1468
N14280 X3.3662 Y4.1533
N14285 X3.3394 Y4.1591
N14290 X3.3124 Y4.1641
N14295 X3.2852 Y4.1684
N14300 X3.258 Y4.172
N14305 X3.2307 Y4.1749
N14310 X3.2033 Y4.177
N14315 X3.1758 Y4.1784
N14320 X3.1484 Y4.179
N14325 X3.1209 Y4.1789
N14330 X3.0934 Y4.1781
N14335 X3.066 Y4.1765
N14340 X3.0386 Y4.1742
N14345 X3.0113 Y4.1711
N14350 X2.9841 Y4.1673
N14355 X2.957 Y4.1628
N14360 X2.93 Y4.1575
N14365 X2.9032 Y4.1516
N14370 X2.8766 Y4.1448
N14375 X2.8501 Y4.1374
N14380 X2.8239 Y4.1293
N14385 X2.7979 Y4.1204
N14390 X2.7721 Y4.1109
N14395 X2.7466 Y4.1007
N14400 X2.7214 Y4.0898
N14405 X2.6964 Y4.0783
N14410 X2.6718 Y4.066
N14415 X2.6476 Y4.0532
N14420 X2.6236 Y4.0397
N14425 X2.6001 Y4.0255
N14430 X2.5769 Y4.0108
N14435 X2.5541 Y3.9954
N14440 X2.5318 Y3.9794
N14445 X2.5099 Y3.9628
N14450 X2.4884 Y3.9457
N14455 X2.4674 Y3.9279
N14460 X2.4469 Y3.9096
N14465 X2.4269 Y3.8908
N14470 X2.4074 Y3.8714
N14475 X2.3885 Y3.8516
N14480 X2.3701 Y3.8312
N14485 X2.3522 Y3.8103
N14490 X2.3349 Y3.789
N14495 X2.3181 Y3.7672
N14500 X2.302 Y3.745
N14505 X2.2864 Y3.7223
N14510 X2.2715 Y3.6993
N14515 X2.2571 Y3.6758
N14520 X2.2434 Y3.652
N14525 X2.2303 Y3.6279
N14530 X2.2179 Y3.6034
N14535 X2.2061 Y3.5786
N14540 X2.195 Y3.5534
N14545 X2.1845 Y3.528
N14550 X2.1747 Y3.5024
N14555 X2.1657 Y3.4764
N14560 X2.1573 Y3.4503
N14565 X2.1496 Y3.4239
N14570 X2.1426 Y3.3973
N14575 X2.1364 Y3.3706
N14580 X2.1308 Y3.3436
N14585 X2.126 Y3.3166
N14590 X2.1219 Y3.2894
N14595 X2.1186 Y3.2622
N14600 X2.1159 Y3.2348
N14605 X2.114 Y3.2074
N14610 X2.1128 Y3.18
N14615 X2.1123 Y3.1525
N14620 X2.1125 Y3.125
N14625 X2.1135 Y3.0976
N14630 X2.1152 Y3.0701
N14635 X2.1176 Y3.0428
N14640 X2.1207 Y3.0155
N14645 X2.1245 Y2.9883
N14650 X2.1291 Y2.9612
N14655 X2.1344 Y2.9342
N14660 X2.1404 Y2.9074
N14665 X2.1471 Y2.8808
N14670 X2.1546 Y2.8543
N14675 X2.1627 Y2.8281
N14680 X2.1715 Y2.8021
N14685 X2.1811 Y2.7763
N14690 X2.1913 Y2.7508
N14695 X2.2022 Y2.7256
N14700 X2.2137 Y2.7006
N14705 X2.2259 Y2.676
N14710 X2.2388 Y2.6517
N14715 X2.2523 Y2.6278
N14720 X2.2664 Y2.6042
N14725 X2.2811 Y2.581
N14730 X2.2964 Y2.5582
N14735 X2.3124 Y2.5358
N14740 X2.3289 Y2.5139
N14745 X2.346 Y2.4924
N14750 X2.3636 Y2.4713
N14755 X2.3818 Y2.4507
N14760 X2.4006 Y2.4306
N14765 X2.4198 Y2.4111
N14770 X2.4396 Y2.392
N14775 X2.4599 Y2.3735
N14780 X2.4807 Y2.3555
N14785 X2.5019 Y2.3381
N14790 X2.5236 Y2.3212
N14795 X2.5458 Y2.305
N14800 X2.5683 Y2.2893
N14805 X2.5913 Y2.2742
N14810 X2.6147 Y2.2598
N14815 X2.6384 Y2.2459
N14820 X2.6625 Y2.2327
N14825 X2.687 Y2.2202
N14830 X2.7117 Y2.2083
N14835 X2.7368 Y2.197
N14840 X2.7621 Y2.1864
N14845 X2.7877 Y2.1765
N14850 X2.8136 Y2.1672
N14855 X2.8397 Y2.1587
N14860 X2.866 Y2.1508
N14865 X2.8926 Y2.1436
N14870 X2.9193 Y2.1371
N14875 X2.9461 Y2.1314
N14880 X2.9731 Y2.1263
N14885 X3.0003 Y2.122
N14890 X3.0275 Y2.1184
N14895 X3.0548 Y2.1155
N14900 X3.0822 Y2.1134
N14905 X3.1097 Y2.112
N14910 X3.1371 Y2.1113
N14915 X3.1646
N14920 X3.1921 Y2.1121
N14925 X3.2195 Y2.1136
N14930 X3.2469 Y2.1158
N14935 X3.2742 Y2.1187
N14940 X3.3014 Y2.1223
N14945 X3.3286 Y2.1267
N14950 X3.3556 Y2.1317
N14955 X3.3824 Y2.1375
N14960 X3.4091 Y2.144
N14965 X3.4357 Y2.1511
N14970 X3.462 Y2.159
N14975 X3.4881 Y2.1675
N14980 X3.514 Y2.1768
N14985 X3.5396 Y2.1867
N14990 X3.565 Y2.1973
N14995 X3.59 Y2.2085
N15000 X3.6148 Y2.2204
N15005 X3.6392 Y2.233
N15010 X3.6633 Y2.2462
N15015 X3.687 Y2.26
N15020 X3.7104 Y2.2745
N15025 X3.7334 Y2.2896
N15030 X3.756 Y2.3052
N15035 X3.7781 Y2.3214
N15040 X3.7999 Y2.3382
N15045 X3.8212 Y2.3556
N15050 X3.842 Y2.3735
N15055 X3.8624 Y2.3919
N15060 X3.8823 Y2.4109
N15065 X3.9017 Y2.4303
N15070 X3.9206 Y2.4503
N15075 X3.9389 Y2.4707
N15080 X3.9568 Y2.4916
N15085 X3.9741 Y2.513
N15090 X3.9908 Y2.5348
N15095 X4.0069 Y2.557
N15100 X4.0225 Y2.5797
N15105 X4.0374 Y2.6027
N15110 X4.0518 Y2.6261
N15115 X4.0655 Y2.6499
N15120 X4.0786 Y2.6741
N15125 X4.0911 Y2.6986
N15130 X4.1029 Y2.7234
N15135 X4.1141 Y2.7485
N15140 X4.1246 Y2.7738
N15145 X4.1345 Y2.7995
N15150 X4.1437 Y2.8254
N15155 X4.1523 Y2.8515
N15160 X4.1601 Y2.8778
N15165 X4.1673 Y2.9043
N15170 X4.1739 Y2.931
N15175 X4.1797 Y2.9578
N15180 X4.1848 Y2.9848
N15185 X4.1893 Y3.0119
N15190 X4.193 Y3.0392
N15195 X4.196 Y3.0665
N15200 X4.1983 Y3.0939
N15205 X4.1999 Y3.1213
N15210 X4.2008 Y3.1487
N15215 X4.201 Y3.1762
N15220 X4.2004 Y3.2037
N15225 X4.1991 Y3.2311
N15230 X4.1971 Y3.2585
N15235 X4.1944 Y3.2859
N15240 X4.191 Y3.3131
N15245 X4.1869 Y3.3403
N15250 X4.182 Y3.3673
N15255 X4.1765 Y3.3943
N15260 X4.1703 Y3.421
N15265 X4.1634 Y3.4476
N15270 X4.1558 Y3.474
N15275 X4.1476 Y3.5002
N15280 X4.1386 Y3.5262
N15285 X4.129 Y3.552
N15290 X4.1188 Y3.5774
N15295 X4.1078 Y3.6026
N15300 X4.0963 Y3.6276
N15305 X4.0841 Y3.6522
N15310 X4.0712 Y3.6765
N15315 X4.0577 Y3.7004
N15320 X4.0436 Y3.724
N15325 X4.0289 Y3.7472
N15330 X4.0136 Y3.77
N15335 X3.9977 Y3.7924
N15340 X3.9812 Y3.8144
N15345 X3.9641 Y3.8359
N15350 X3.9465 Y3.857
N15355 X3.9283 Y3.8776
N15360 X3.9097 Y3.8977
N15365 X3.8905 Y3.9174
N15370 X3.8708 Y3.9366
N15375 X3.8506 Y3.9552
N15380 X3.8299 Y3.9733
N15385 X3.8088 Y3.9909
N15390 X3.7873 Y4.0079
N15395 X3.7653 Y4.0244
N15400 X3.7429 Y4.0403
N15405 X3.7201 Y4.0556
N15410 X3.6969 Y4.0703
N15415 X3.6733 Y4.0845
N15420 X3.6494 Y4.098
N15425 X3.6251 Y4.1108
N15430 X3.6005 Y4.123
N15435 X3.5756 Y4.1346
N15440 X3.5504 Y4.1456
N15445 X3.5249 Y4.1558
N15450 X3.4991 Y4.1654
N15455 X3.4731 Y4.1743
N15460 X3.4469 Y4.1826
N15465 X3.4205 Y4.1902
N15470 X3.3939 Y4.1971
N15475 X3.3672 Y4.2033
N15480 X3.3403 Y4.2088
N15485 X3.3132 Y4.2136
N15490 X3.2861 Y4.2178
N15495 X3.2588 Y4.2212
N15500 X3.2315 Y4.224
N15505 X3.2041 Y4.226
N15510 X3.1766 Y4.2274
N15515 X3.1492 Y4.228
N15520 X3.1217
N15525 X3.0942 Y4.2272
N15530 X3.0668 Y4.2257
N15535 X3.0394 Y4.2235
N15540 X3.0121 Y4.2206
N15545 X2.9848 Y4.217
N15550 X2.9577 Y4.2127
N15555 X2.9307 Y4.2077
N15560 X2.9038 Y4.202
N15565 X2.8771 Y4.1956
N15570 X2.8505 Y4.1885
N15575 X2.8242 Y4.1807
N15580 X2.798 Y4.1723
N15585 X2.7721 Y4.1632
N15590 X2.7464 Y4.1534
N15595 X2.721 Y4.143
N15600 X2.6958 Y4.132
N15605 X2.671 Y4.1203
N15610 X2.6464 Y4.108
N15615 X2.6222 Y4.0951
N15620 X2.5982 Y4.0816
N15625 X2.5747 Y4.0674
N15630 X2.5515 Y4.0527
N15635 X2.5287 Y4.0374
N15640 X2.5063 Y4.0215
N15645 X2.4843 Y4.005
N15650 X2.4627 Y3.988
N15655 X2.4416 Y3.9704
N15660 X2.421 Y3.9523
N15665 X2.4008 Y3.9336
N15670 X2.3811 Y3.9145
N15675 X2.3619 Y3.8948
N15680 X2.3432 Y3.8747
N15685 X2.3251 Y3.8541
N15690 X2.3074 Y3.833
N15695 X2.2903 Y3.8115
N15700 X2.2738 Y3.7896
N15705 X2.2578 Y3.7672
N15710 X2.2423 Y3.7445
N15715 X2.2275 Y3.7214
N15720 X2.2132 Y3.6979
N15725 X2.1996 Y3.6741
N15730 X2.1865 Y3.6499
N15735 X2.1741 Y3.6254
N15740 X2.1622 Y3.6006
N15745 X2.1511 Y3.5755
N15750 X2.1405 Y3.5501
N15755 X2.1306 Y3.5245
N15760 X2.1214 Y3.4986
N15765 X2.1128 Y3.4725
N15770 X2.105 Y3.4462
N15775 X2.0977 Y3.4197
N15780 X2.0912 Y3.393
N15785 X2.0854 Y3.3661
N15790 X2.0802 Y3.3391
N15795 X2.0757 Y3.312
N15800 X2.0719 Y3.2848
N15805 X2.0688 Y3.2575
N15810 X2.0664 Y3.2302
N15815 X2.0647 Y3.2027
N15820 X2.0636 Y3.1753
N15825 X2.0633 Y3.1478
N15830 X2.0636 Y3.1203
N15835 X2.0647 Y3.0929
N15840 X2.0664 Y3.0655
N15845 X2.0688 Y3.0381
N15850 X2.0719 Y3.0108
N15855 X2.0757 Y2.9836
N15860 X2.0801 Y2.9565
N15865 X2.0853 Y2.9295
N15870 X2.0912 Y2.9027
N15875 X2.0977 Y2.876
N15880 X2.1049 Y2.8495
N15885 X2.1128 Y2.8231
N15890 X2.1214 Y2.797
N15895 X2.1306 Y2.7712
N15900 X2.1405 Y2.7455
N15905 X2.1511 Y2.7202
N15910 X2.1622 Y2.6951
N15915 X2.174 Y2.6702
N15920 X2.1865 Y2.6457
N15925 X2.1995 Y2.6215
N15930 X2.2131 Y2.5977
N15935 X2.2274 Y2.5742
N15940 X2.2422 Y2.5511
N15945 X2.2576 Y2.5283
N15950 X2.2735 Y2.5059
N15955 X2.29 Y2.484
N15960 X2.3071 Y2.4624
N15965 X2.3247 Y2.4414
N15970 X2.3428 Y2.4207
N15975 X2.3615 Y2.4005
N15980 X2.3807 Y2.3808
N15985 X2.4003 Y2.3617
N15990 X2.4205 Y2.343
N15995 X2.4411 Y2.3248
N16000 X2.4622 Y2.3072
N16005 X2.4837 Y2.2901
N16010 X2.5056 Y2.2736
N16015 X2.528 Y2.2576
N16020 X2.5507 Y2.2422
N16025 X2.5738 Y2.2274
N16030 X2.5973 Y2.2131
N16035 X2.6212 Y2.1995
N16040 X2.6454 Y2.1864
N16045 X2.6699 Y2.174
N16050 X2.6947 Y2.1622
N16055 X2.7198 Y2.151
N16060 X2.7451 Y2.1404
N16065 X2.7708 Y2.1305
N16070 X2.7966 Y2.1212
N16075 X2.8227 Y2.1126
N16080 X2.849 Y2.1046
N16085 X2.8755 Y2.0974
N16090 X2.9022 Y2.0907
N16095 X2.929 Y2.0848
N16100 X2.956 Y2.0796
N16105 X2.983 Y2.075
N16110 X3.0102 Y2.0712
N16115 X3.0375 Y2.068
N16120 X3.0649 Y2.0655
N16125 X3.0923 Y2.0637
N16130 X3.1198 Y2.0627
N16135 X3.1472 Y2.0623
N16140 X3.1747 Y2.0625
N16145 X3.2022 Y2.0635
N16150 X3.2296 Y2.0652
N16155 X3.257 Y2.0676
N16160 X3.2843 Y2.0706
N16165 X3.3115 Y2.0743
N16170 X3.3386 Y2.0787
N16175 X3.3656 Y2.0838
N16180 X3.3925 Y2.0895
N16185 X3.4192 Y2.0959
N16190 X3.4458 Y2.103
N16195 X3.4721 Y2.1108
N16200 X3.4983 Y2.1192
N16205 X3.5242 Y2.1283
N16210 X3.5499 Y2.138
N16215 X3.5753 Y2.1484
N16220 X3.6005 Y2.1594
N16225 X3.6254 Y2.1711
N16230 X3.65 Y2.1833
N16235 X3.6742 Y2.1962
N16240 X3.6981 Y2.2097
N16245 X3.7217 Y2.2238
N16250 X3.745 Y2.2385
N16255 X3.7678 Y2.2537
N16260 X3.7903 Y2.2695
N16265 X3.8124 Y2.2859
N16270 X3.834 Y2.3028
N16275 X3.8553 Y2.3202
N16280 X3.8761 Y2.3382
N16285 X3.8964 Y2.3566
N16290 X3.9163 Y2.3756
N16295 X3.9357 Y2.395
N16300 X3.9547 Y2.4149
N16305 X3.9731 Y2.4353
N16310 X3.991 Y2.4561
N16315 X4.0084 Y2.4774
N16320 X4.0253 Y2.4991
N16325 X4.0416 Y2.5212
N16330 X4.0573 Y2.5437
N16335 X4.0725 Y2.5666
N16340 X4.0871 Y2.5899
N16345 X4.1011 Y2.6135
N16350 X4.1146 Y2.6375
N16355 X4.1274 Y2.6618
N16360 X4.1396 Y2.6864
N16365 X4.1512 Y2.7113
N16370 X4.1622 Y2.7364
N16375 X4.1726 Y2.7619
N16380 X4.1823 Y2.7876
N16385 X4.1915 Y2.8135
N16390 X4.1999 Y2.8396
N16395 X4.2078 Y2.866
N16400 X4.2149 Y2.8925
N16405 X4.2215 Y2.9192
N16410 X4.2273 Y2.946
N16415 X4.2325 Y2.973
N16420 X4.2371 Y3.0001
N16425 X4.2409 Y3.0273
N16430 X4.2441 Y3.0546
N16435 X4.2466 Y3.0819
N16440 X4.2484 Y3.1094
N16445 X4.2496 Y3.1368
N16450 X4.25 Y3.1643
N16455 X4.2497 Y3.1918
N16460 X4.2488 Y3.2192
N16465 X4.2472 Y3.2466
N16470 X4.2449 Y3.274
N16475 X4.2419 Y3.3013
N16480 X4.2383 Y3.3286
N16485 X4.234 Y3.3557
N16490 X4.229 Y3.3827
N16495 X4.2233 Y3.4096
N16500 X4.217 Y3.4363
N16505 X4.21 Y3.4629
N16510 X4.2024 Y3.4893
N16515 X4.1942 Y3.5155
N16520 X4.1852 Y3.5415
N16525 X4.1757 Y3.5673
N16530 X4.1655 Y3.5928
N16535 X4.1547 Y3.6181
N16540 X4.1433 Y3.643
N16545 X4.1312 Y3.6677
N16550 X4.1185 Y3.6921
N16555 X4.1052 Y3.7161
N16560 X4.0914 Y3.7398
N16565 X4.0769 Y3.7632
N16570 X4.0618 Y3.7862
N16575 X4.0462 Y3.8088
N16580 X4.03 Y3.831
N16585 X4.0133 Y3.8528
N16590 X3.9961 Y3.8742
N16595 X3.9783 Y3.8951
N16600 X3.96 Y3.9156
N16605 X3.9412 Y3.9357
N16610 X3.9219 Y3.9552
N16615 X3.9022 Y3.9743
N16620 X3.8819 Y3.9929
N16625 X3.8613 Y4.011
N16630 X3.8402 Y4.0286
N16635 X3.8186 Y4.0457
N16640 X3.7967 Y4.0622
N16645 X3.7743 Y4.0782
N16650 X3.7516 Y4.0936
N16655 X3.7285 Y4.1085
N16660 X3.705 Y4.1227
N16665 X3.6812 Y4.1364
N16670 X3.657 Y4.1495
N16675 X3.6325 Y4.162
N16680 X3.6077 Y4.1738
N16685 X3.5827 Y4.1851
N16690 X3.5573 Y4.1957
N16695 X3.5317 Y4.2056
N16700 X3.5059 Y4.215
N16705 X3.4798 Y4.2237
N16710 X3.4536 Y4.2317
N16715 X3.4271 Y4.2392
N16720 X3.4005 Y4.2459
N16725 X3.3737 Y4.252
N16730 X3.3468 Y4.2575
N16735 X3.3197 Y4.2623
N16740 X3.2925 Y4.2664
N16745 X3.2653 Y4.2699
N16750 X3.238 Y4.2727
N16755 X3.2106 Y4.2748
N16760 X3.1831 Y4.2762
N16765 X3.1557 Y4.277
N16770 X3.1282 Y4.2771
N16775 X3.1007 Y4.2765
N16780 X3.0733 Y4.2753
N16785 X3.0459 Y4.2733
N16790 X3.0185 Y4.2707
N16795 X2.9912 Y4.2674
N16800 X2.9641 Y4.2634
N16805 X2.937 Y4.2588
N16810 X2.91 Y4.2535
N16815 X2.8832 Y4.2475
N16820 X2.8565 Y4.2409
N16825 X2.83 Y4.2336
N16830 X2.8037 Y4.2257
N16835 X2.7776 Y4.2171
N16840 X2.7517 Y4.2079
N16845 X2.7261 Y4.1981
N16850 X2.7007 Y4.1877
N16855 X2.6755 Y4.1766
N16860 X2.6506 Y4.165
N16865 X2.626 Y4.1527
N16870 X2.6017 Y4.1399
N16875 X2.5778 Y4.1265
N16880 X2.5541 Y4.1124
N16885 X2.5309 Y4.0978
N16890 X2.508 Y4.0827
N16895 X2.4854 Y4.0669
N16900 X2.4633 Y4.0507
N16905 X2.4416 Y4.0338
N16910 X2.4203 Y4.0165
N16915 X2.3994 Y3.9986
N16920 X2.379 Y3.9803
N16925 X2.359 Y3.9614
N16930 X2.3395 Y3.9421
N16935 X2.3204 Y3.9223
N16940 X2.3019 Y3.902
N16945 X2.2838 Y3.8813
N16950 X2.2663 Y3.8601
N16955 X2.2493 Y3.8386
N16960 X2.2328 Y3.8166
N16965 X2.2168 Y3.7942
N16970 X2.2014 Y3.7715
N16975 X2.1865 Y3.7484
N16980 X2.1722 Y3.7249
N16985 X2.1585 Y3.7011
N16990 X2.1453 Y3.677
N16995 X2.1328 Y3.6526
N17000 X2.1208 Y3.6278
N17005 X2.1094 Y3.6028
N17010 X2.0987 Y3.5775
N17015 X2.0886 Y3.552
N17020 X2.0791 Y3.5262
N17025 X2.0702 Y3.5002
N17030 X2.062 Y3.474
N17035 X2.0545 Y3.4476
N17040 X2.0475 Y3.421
N17045 X2.0412 Y3.3942
N17050 X2.0356 Y3.3673
N17055 X2.0306 Y3.3403
N17060 X2.0263 Y3.3132
N17065 X2.0227 Y3.286
N17070 X2.0197 Y3.2587
N17075 X2.0173 Y3.2313
N17080 X2.0156 Y3.2039
N17085 X2.0146 Y3.1764
N17090 X2.0142 Y3.1489
N17095 X2.0145 Y3.1215
N17100 X2.0155 Y3.094
N17105 X2.0171 Y3.0666
N17110 X2.0193 Y3.0392
N17115 X2.0223 Y3.0119
N17120 X2.0259 Y2.9846
N17125 X2.0302 Y2.9575
N17130 X2.0351 Y2.9305
N17135 X2.0407 Y2.9036
N17140 X2.0469 Y2.8768
N17145 X2.0538 Y2.8502
N17150 X2.0614 Y2.8238
N17155 X2.0696 Y2.7976
N17160 X2.0784 Y2.7715
N17165 X2.0878 Y2.7458
N17170 X2.0979 Y2.7202
N17175 X2.1086 Y2.6949
N17180 X2.1199 Y2.6698
N17185 X2.1318 Y2.6451
N17190 X2.1443 Y2.6206
N17195 X2.1573 Y2.5964
N17200 X2.171 Y2.5726
N17205 X2.1852 Y2.5491
N17210 X2.2 Y2.5259
N17215 X2.2153 Y2.5031
N17220 X2.2312 Y2.4807
N17225 X2.2476 Y2.4586
N17230 X2.2645 Y2.437
N17235 X2.282 Y2.4158
N17240 X2.3 Y2.395
N17245 X2.3185 Y2.3747
N17250 X2.3374 Y2.3548
N17255 X2.3569 Y2.3354
N17260 X2.3768 Y2.3165
N17265 X2.3972 Y2.2981
N17270 X2.418 Y2.2801
N17275 X2.4392 Y2.2627
N17280 X2.4609 Y2.2458
N17285 X2.483 Y2.2294
N17290 X2.5054 Y2.2136
N17295 X2.5282 Y2.1983
N17300 X2.5514 Y2.1836
N17305 X2.575 Y2.1694
N17310 X2.5988 Y2.1558
N17315 X2.623 Y2.1428
N17320 X2.6475 Y2.1303
N17325 X2.6723 Y2.1185
N17330 X2.6974 Y2.1072
N17335 X2.7227 Y2.0965
N17340 X2.7483 Y2.0865
N17345 X2.7741 Y2.0771
N17350 X2.8001 Y2.0683
N17355 X2.8263 Y2.0602
N17360 X2.8528 Y2.0526
N17365 X2.8794 Y2.0458
N17370 X2.9061 Y2.0396
N17375 X2.933 Y2.034
N17380 X2.9601 Y2.0291
N17385 X2.9872 Y2.0248
N17390 X3.0145 Y2.0213
N17395 X3.0418 Y2.0183
N17400 X3.0692 Y2.0161
N17405 X3.0966 Y2.0145
N17410 X3.124 Y2.0135
N17415 X3.1515 Y2.0132
N17420 X3.179 Y2.0136
N17425 X3.2064 Y2.0146
N17430 X3.2339 Y2.0163
N17435 X3.2612 Y2.0187
N17440 X3.2886 Y2.0217
N17445 X3.3158 Y2.0253
N17450 X3.3429 Y2.0296
N17455 X3.3699 Y2.0346
N17460 X3.3968 Y2.0402
N17465 X3.4236 Y2.0464
N17470 X3.4502 Y2.0533
N17475 X3.4766 Y2.0609
N17480 X3.5028 Y2.069
N17485 X3.5289 Y2.0778
N17490 X3.5547 Y2.0873
N17495 X3.5802 Y2.0973
N17500 X3.6056 Y2.108
N17505 X3.6306 Y2.1193
N17510 X3.6554 Y2.1312
N17515 X3.6799 Y2.1436
N17520 X3.704 Y2.1567
N17525 X3.7279 Y2.1703
N17530 X3.7514 Y2.1845
N17535 X3.7746 Y2.1993
N17540 X3.7974 Y2.2146
N17545 X3.8199 Y2.2304
N17550 X3.8419 Y2.2468
N17555 X3.8636 Y2.2636
N17560 X3.8849 Y2.281
N17565 X3.9058 Y2.2989
N17570 X3.9262 Y2.3173
N17575 X3.9462 Y2.3361
N17580 X3.9657 Y2.3554
N17585 X3.9848 Y2.3752
N17590 X4.0034 Y2.3955
N17595 X4.0215 Y2.4161
N17600 X4.0391 Y2.4372
N17605 X4.0562 Y2.4587
N17610 X4.0727 Y2.4806
N17615 X4.0888 Y2.5029
N17620 X4.1043 Y2.5256
N17625 X4.1193 Y2.5487
N17630 X4.1337 Y2.5721
N17635 X4.1475 Y2.5958
N17640 X4.1608 Y2.6198
N17645 X4.1735 Y2.6442
N17650 X4.1856 Y2.6689
N17655 X4.1972 Y2.6938
N17660 X4.2081 Y2.719
N17665 X4.2185 Y2.7444
N17670 X4.2282 Y2.7701
N17675 X4.2374 Y2.796
N17680 X4.2459 Y2.8221
N17685 X4.2538 Y2.8485
N17690 X4.2611 Y2.8749
N17695 X4.2678 Y2.9016
N17700 X4.2738 Y2.9284
N17705 X4.2792 Y2.9553
N17710 X4.284 Y2.9824
N17715 X4.2881 Y3.0096
N17720 X4.2915 Y3.0368
N17725 X4.2943 Y3.0642
N17730 X4.2965 Y3.0915
N17735 X4.298 Y3.119
N17740 X4.2988 Y3.1464
N17745 X4.299 Y3.1739
N17750 X4.2986 Y3.2014
N17755 X4.2974 Y3.2288
N17760 X4.2957 Y3.2563
N17765 X4.2932 Y3.2836
N17770 X4.2902 Y3.3109
N17775 X4.2864 Y3.3381
N17780 X4.2821 Y3.3653
N17785 X4.2771 Y3.3923
N17790 X4.2715 Y3.4192
N17795 X4.2652 Y3.4459
N17800 X4.2583 Y3.4725
N17805 X4.2508 Y3.499
N17810 X4.2427 Y3.5252
N17815 X4.2339 Y3.5512
N17820 X4.2245 Y3.5771
N17825 X4.2145 Y3.6027
N17830 X4.2039 Y3.628
N17835 X4.1927 Y3.6531
N17840 X4.1809 Y3.6779
N17845 X4.1685 Y3.7024
N17850 X4.1555 Y3.7266
N17855 X4.142 Y3.7505
N17860 X4.1279 Y3.7741
N17865 X4.1132 Y3.7973
N17870 X4.098 Y3.8202
N17875 X4.0822 Y3.8427
N17880 X4.0659 Y3.8648
N17885 X4.0491 Y3.8866
N17890 X4.0318 Y3.9079
N17895 X4.014 Y3.9288
N17900 X3.9957 Y3.9493
N17905 X3.9769 Y3.9693
N17910 X3.9576 Y3.9889
N17915 X3.9379 Y4.0081
N17920 X3.9178 Y4.0268
N17925 X3.8972 Y4.0449
N17930 X3.8762 Y4.0626
N17935 X3.8547 Y4.0798
N17940 X3.8329 Y4.0965
N17945 X3.8107 Y4.1127
N17950 X3.7881 Y4.1283
N17955 X3.7651 Y4.1434
N17960 X3.7418 Y4.1579
N17965 X3.7181 Y4.1719
N17970 X3.6941 Y4.1853
N17975 X3.6698 Y4.1981
N17980 X3.6452 Y4.2103
N17985 X3.6204 Y4.222
N17990 X3.5952 Y4.233
N17995 X3.5698 Y4.2435
N18000 X3.5441 Y4.2533
N18005 X3.5183 Y4.2626
N18010 X3.4922 Y4.2712
N18015 X3.4659 Y4.2792
N18020 X3.4395 Y4.2866
N18025 X3.4128 Y4.2934
N18030 X3.3861 Y4.2996
N18035 X3.3591 Y4.3051
N18040 X3.3321 Y4.31
N18045 X3.305 Y4.3142
N18050 X3.2777 Y4.3178
N18055 X3.2504 Y4.3208
N18060 X3.223 Y4.3231
N18065 X3.1956 Y4.3248
N18070 X3.1682 Y4.3258
N18075 X3.1407 Y4.3262
N18080 X3.1132 Y4.3259
N18085 X3.0857 Y4.325
N18090 X3.0583 Y4.3234
N18095 X3.0309 Y4.3212
N18100 X3.0036 Y4.3184
N18105 X2.9764 Y4.3148
N18110 X2.9492 Y4.3107
N18115 X2.9221 Y4.3059
N18120 X2.8952 Y4.3005
N18125 X2.8684 Y4.2944
N18130 X2.8418 Y4.2877
N18135 X2.8153 Y4.2804
N18140 X2.789 Y4.2725
N18145 X2.7629 Y4.2639
N18150 X2.737 Y4.2548
N18155 X2.7113 Y4.2451
N18160 X2.6858 Y4.2347
N18165 X2.6606 Y4.2238
N18170 X2.6357 Y4.2123
N18175 X2.611 Y4.2002
N18180 X2.5866 Y4.1875
N18185 X2.5625 Y4.1743
N18190 X2.5388 Y4.1605
N18195 X2.5154 Y4.1461
N18200 X2.4923 Y4.1312
N18205 X2.4695 Y4.1158
N18210 X2.4472 Y4.0998
N18215 X2.4252 Y4.0833
N18220 X2.4036 Y4.0663
N18225 X2.3825 Y4.0488
N18230 X2.3617 Y4.0308
N18235 X2.3414 Y4.0123
N18240 X2.3215 Y3.9934
N18245 X2.302 Y3.974
N18250 X2.283 Y3.9541
N18255 X2.2645 Y3.9338
N18260 X2.2465 Y3.9131
N18265 X2.2289 Y3.892
N18270 X2.2118 Y3.8704
N18275 X2.1953 Y3.8485
N18280 X2.1792 Y3.8262
N18285 X2.1637 Y3.8035
N18290 X2.1487 Y3.7805
N18295 X2.1343 Y3.7572
N18300 X2.1204 Y3.7335
N18305 X2.107 Y3.7094
N18310 X2.0942 Y3.6851
N18315 X2.082 Y3.6605
N18320 X2.0704 Y3.6356
N18325 X2.0593 Y3.6105
N18330 X2.0488 Y3.5851
N18335 X2.039 Y3.5594
N18340 X2.0297 Y3.5336
N18345 X2.0211 Y3.5075
N18350 X2.013 Y3.4812
N18355 X2.0056 Y3.4548
N18360 X1.9988 Y3.4282
N18365 X1.9926 Y3.4014
N18370 X1.987 Y3.3745
N18375 X1.9821 Y3.3475
N18380 X1.9778 Y3.3203
N18385 X1.9741 Y3.2931
N18390 X1.971 Y3.2658
N18395 X1.9686 Y3.2384
N18400 X1.9668 Y3.211
N18405 X1.9656 Y3.1836
N18410 X1.9651 Y3.1561
N18415 X1.9652 Y3.1286
N18420 X1.966 Y3.1011
N18425 X1.9674 Y3.0737
N18430 X1.9694 Y3.0463
N18435 X1.9721 Y3.019
N18440 X1.9754 Y2.9917
N18445 X1.9793 Y2.9645
N18450 X1.9839 Y2.9374
N18455 X1.9891 Y2.9104
N18460 X1.9949 Y2.8836
N18465 X2.0014 Y2.8569
N18470 X2.0084 Y2.8303
N18475 X2.0161 Y2.8039
N18480 X2.0244 Y2.7778
N18485 X2.0333 Y2.7518
N18490 X2.0429 Y2.726
N18495 X2.053 Y2.7004
N18500 X2.0637 Y2.6751
N18505 X2.0749 Y2.6501
N18510 X2.0868 Y2.6253
N18515 X2.0992 Y2.6008
N18520 X2.1122 Y2.5766
N18525 X2.1257 Y2.5527
N18530 X2.1398 Y2.5291
N18535 X2.1545 Y2.5058
N18540 X2.1696 Y2.4829
N18545 X2.1853 Y2.4604
N18550 X2.2015 Y2.4382
N18555 X2.2183 Y2.4164
N18560 X2.2355 Y2.395
N18565 X2.2532 Y2.374
N18570 X2.2714 Y2.3534
N18575 X2.2901 Y2.3333
N18580 X2.3092 Y2.3136
N18585 X2.3288 Y2.2943
N18590 X2.3489 Y2.2755
N18595 X2.3694 Y2.2572
N18600 X2.3903 Y2.2394
N18605 X2.4116 Y2.222
N18610 X2.4333 Y2.2052
N18615 X2.4554 Y2.1888
N18620 X2.4778 Y2.173
N18625 X2.5006 Y2.1577
N18630 X2.5238 Y2.1429
N18635 X2.5473 Y2.1287
N18640 X2.5711 Y2.115
N18645 X2.5952 Y2.1019
N18650 X2.6197 Y2.0893
N18655 X2.6444 Y2.0773
N18660 X2.6694 Y2.0659
N18665 X2.6946 Y2.055
N18670 X2.7201 Y2.0447
N18675 X2.7458 Y2.0351
N18680 X2.7718 Y2.026
N18685 X2.7979 Y2.0175
N18690 X2.8242 Y2.0097
N18695 X2.8507 Y2.0024
N18700 X2.8774 Y1.9958
N18705 X2.9042 Y1.9898
N18710 X2.9311 Y1.9844
N18715 X2.9582 Y1.9797
N18720 X2.9854 Y1.9756
N18725 X3.0126 Y1.9721
N18730 X3.0399 Y1.9692
N18735 X3.0673 Y1.967
N18740 X3.0948 Y1.9654
N18745 X3.1222 Y1.9644
N18750 X3.1497 Y1.9641
N18755 X3.1772 Y1.9644
N18760 X3.2046 Y1.9654
N18765 X3.232 Y1.9669
N18770 X3.2594 Y1.9691
N18775 X3.2868 Y1.972
N18780 X3.314 Y1.9755
N18785 X3.3412 Y1.9795
N18790 X3.3683 Y1.9843
N18795 X3.3952 Y1.9896
N18800 X3.422 Y1.9956
N18805 X3.4487 Y2.0022
N18810 X3.4752 Y2.0094
N18815 X3.5016 Y2.0172
N18820 X3.5277 Y2.0256
N18825 X3.5537 Y2.0346
N18830 X3.5794 Y2.0442
N18835 X3.6049 Y2.0544
N18840 X3.6302 Y2.0652
N18845 X3.6552 Y2.0766
N18850 X3.6799 Y2.0886
N18855 X3.7044 Y2.1011
N18860 X3.7285 Y2.1141
N18865 X3.7524 Y2.1278
N18870 X3.7759 Y2.1419
N18875 X3.7991 Y2.1566
N18880 X3.822 Y2.1719
N18885 X3.8445 Y2.1876
N18890 X3.8667 Y2.2039
N18895 X3.8885 Y2.2206
N18900 X3.9098 Y2.2379
N18905 X3.9308 Y2.2556
N18910 X3.9514 Y2.2738
N18915 X3.9716 Y2.2925
N18920 X3.9913 Y2.3116
N18925 X4.0106 Y2.3312
N18930 X4.0294 Y2.3512
N18935 X4.0478 Y2.3716
N18940 X4.0657 Y2.3924
N18945 X4.0831 Y2.4137
N18950 X4.1001 Y2.4353
N18955 X4.1165 Y2.4573
N18960 X4.1324 Y2.4797
N18965 X4.1478 Y2.5025
N18970 X4.1627 Y2.5256
N18975 X4.177 Y2.549
N18980 X4.1909 Y2.5727
N18985 X4.2041 Y2.5968
N18990 X4.2169 Y2.6211
N18995 X4.229 Y2.6458
N19000 X4.2406 Y2.6707
N19005 X4.2517 Y2.6958
N19010 X4.2621 Y2.7212
N19015 X4.272 Y2.7469
N19020 X4.2813 Y2.7727
N19025 X4.29 Y2.7988
N19030 X4.2981 Y2.825
N19035 X4.3057 Y2.8515
N19040 X4.3126 Y2.878
N19045 X4.3189 Y2.9048
N19050 X4.3246 Y2.9317
N19055 X4.3297 Y2.9587
N19060 X4.3342 Y2.9858
N19065 X4.338 Y3.013
N19070 X4.3413 Y3.0403
N19075 X4.3439 Y3.0676
N19080 X4.3459 Y3.095
N19085 X4.3472 Y3.1224
N19090 X4.348 Y3.1499
N19095 X4.3481 Y3.1774
N19100 X4.3476 Y3.2049
N19105 X4.3464 Y3.2323
N19110 X4.3446 Y3.2597
N19115 X4.3422 Y3.2871
N19120 X4.3392 Y3.3144
N19125 X4.3356 Y3.3416
N19130 X4.3313 Y3.3688
N19135 X4.3265 Y3.3958
N19140 X4.321 Y3.4227
N19145 X4.3149 Y3.4495
N19150 X4.3082 Y3.4762
N19155 X4.3009 Y3.5027
N19160 X4.293 Y3.529
N19165 X4.2845 Y3.5551
N19170 X4.2754 Y3.581
N19175 X4.2657 Y3.6067
N19180 X4.2554 Y3.6322
N19185 X4.2446 Y3.6575
N19190 X4.2332 Y3.6825
N19195 X4.2212 Y3.7072
N19200 X4.2086 Y3.7316
N19205 X4.1955 Y3.7558
N19210 X4.1819 Y3.7796
N19215 X4.1677 Y3.8031
N19220 X4.1529 Y3.8263
N19225 X4.1377 Y3.8492
N19230 X4.1219 Y3.8717
N19235 X4.1056 Y3.8938
N19240 X4.0888 Y3.9156
N19245 X4.0716 Y3.9369
N19250 X4.0538 Y3.9579
N19255 X4.0356 Y3.9785
N19260 X4.0169 Y3.9986
N19265 X3.9978 Y4.0183
N19270 X3.9782 Y4.0376
N19275 X3.9582 Y4.0564
N19280 X3.9377 Y4.0748
N19285 X3.9169 Y4.0926
N19290 X3.8956 Y4.1101
N19295 X3.874 Y4.127
N19300 X3.852 Y4.1434
N19305 X3.8296 Y4.1593
N19310 X3.8068 Y4.1748
N19315 X3.7837 Y4.1896
N19320 X3.7603 Y4.204
N19325 X3.7366 Y4.2178
N19330 X3.7125 Y4.2311
N19335 X3.6882 Y4.2438
N19340 X3.6635 Y4.256
N19345 X3.6386 Y4.2676
N19350 X3.6135 Y4.2786
N19355 X3.5881 Y4.2891
N19360 X3.5624 Y4.299
N19365 X3.5366 Y4.3082
N19370 X3.5105 Y4.317
N19375 X3.4843 Y4.3251
N19380 X3.4578 Y4.3326
N19385 X3.4312 Y4.3395
N19390 X3.4045 Y4.3458
N19395 X3.3776 Y4.3515
N19400 X3.3506 Y4.3566
N19405 X3.3235 Y4.3611
N19410 X3.2963 Y4.365
N19415 X3.269 Y4.3683
N19420 X3.2417 Y4.3709
N19425 X3.2143 Y4.3729
N19430 X3.1869 Y4.3743
N19435 X3.1594 Y4.3751
N19440 X3.1319 Y4.3753
N19445 X3.1044 Y4.3748
N19450 X3.077 Y4.3737
N19455 X3.0496 Y4.372
N19460 X3.0222 Y4.3697
N19465 X2.9949 Y4.3668
N19470 X2.9676 Y4.3632
N19475 X2.9405 Y4.359
N19480 X2.9134 Y4.3542
N19485 X2.8865 Y4.3488
N19490 X2.8597 Y4.3428
N19495 X2.833 Y4.3362
N19500 X2.8065 Y4.329
N19505 X2.7801 Y4.3212
N19510 X2.754 Y4.3128
N19515 X2.728 Y4.3038
N19520 X2.7023 Y4.2943
N19525 X2.6767 Y4.2841
N19530 X2.6514 Y4.2734
N19535 X2.6264 Y4.2622
N19540 X2.6016 Y4.2503
N19545 X2.577 Y4.238
N19550 X2.5528 Y4.225
N19555 X2.5289 Y4.2116
N19560 X2.5052 Y4.1976
N19565 X2.4819 Y4.183
N19570 X2.4589 Y4.168
N19575 X2.4363 Y4.1524
N19580 X2.414 Y4.1363
N19585 X2.3921 Y4.1197
N19590 X2.3706 Y4.1027
N19595 X2.3494 Y4.0851
N19600 X2.3287 Y4.0671
N19605 X2.3083 Y4.0487
N19610 X2.2884 Y4.0297
N19615 X2.2689 Y4.0104
N19620 X2.2499 Y3.9906
N19625 X2.2313 Y3.9704
N19630 X2.2131 Y3.9497
N19635 X2.1954 Y3.9287
N19640 X2.1782 Y3.9073
N19645 X2.1615 Y3.8855
N19650 X2.1453 Y3.8633
N19655 X2.1296 Y3.8408
N19660 X2.1143 Y3.8179
N19665 X2.0996 Y3.7947
N19670 X2.0855 Y3.7712
N19675 X2.0718 Y3.7473
N19680 X2.0587 Y3.7232
N19685 X2.0461 Y3.6988
N19690 X2.0341 Y3.6741
N19695 X2.0226 Y3.6491
N19700 X2.0117 Y3.6239
N19705 X2.0013 Y3.5984
N19710 X1.9916 Y3.5727
N19715 X1.9824 Y3.5469
N19720 X1.9737 Y3.5208
N19725 X1.9657 Y3.4945
N19730 X1.9583 Y3.468
N19735 X1.9514 Y3.4414
N19740 X1.9452 Y3.4147
N19745 X1.9395 Y3.3878
N19750 X1.9345 Y3.3608
N19755 X1.9301 Y3.3337
N19760 X1.9262 Y3.3065
N19765 X1.923 Y3.2792
N19770 X1.9204 Y3.2518
N19775 X1.9184 Y3.2244
N19780 X1.917 Y3.197
N19785 X1.9162 Y3.1695
N19790 X1.916 Y3.142
N19795 X1.9164 Y3.1146
N19800 X1.9175 Y3.0871
N19805 X1.9191 Y3.0597
N19810 X1.9214 Y3.0323
N19815 X1.9243 Y3.005
N19820 X1.9277 Y2.9777
N19825 X1.9318 Y2.9506
N19830 X1.9365 Y2.9235
N19835 X1.9418 Y2.8965
N19840 X1.9477 Y2.8697
N19845 X1.9542 Y2.843
N19850 X1.9613 Y2.8165
N19855 X1.969 Y2.7901
N19860 X1.9773 Y2.7639
N19865 X1.9861 Y2.7379
N19870 X1.9956 Y2.7121
N19875 X2.0056 Y2.6865
N19880 X2.0161 Y2.6611
N19885 X2.0273 Y2.636
N19890 X2.039 Y2.6112
N19895 X2.0512 Y2.5866
N19900 X2.064 Y2.5622
N19905 X2.0774 Y2.5382
N19910 X2.0912 Y2.5145
N19915 X2.1056 Y2.4911
N19920 X2.1205 Y2.468
N19925 X2.1359 Y2.4453
N19930 X2.1518 Y2.4229
N19935 X2.1682 Y2.4008
N19940 X2.1851 Y2.3792
N19945 X2.2025 Y2.3579
N19950 X2.2203 Y2.337
N19955 X2.2386 Y2.3165
N19960 X2.2574 Y2.2964
N19965 X2.2766 Y2.2768
N19970 X2.2962 Y2.2575
N19975 X2.3163 Y2.2388
N19980 X2.3368 Y2.2205
N19985 X2.3576 Y2.2026
N19990 X2.3789 Y2.1852
N19995 X2.4006 Y2.1683
N20000 X2.4226 Y2.1519
N20005 X2.445 Y2.1359
N20010 X2.4677 Y2.1205
N20015 X2.4908 Y2.1056
N20020 X2.5142 Y2.0912
N20025 X2.5379 Y2.0773
N20030 X2.5619 Y2.064
N20035 X2.5862 Y2.0512
N20040 X2.6108 Y2.0389
N20045 X2.6357 Y2.0272
N20050 X2.6608 Y2.016
N20055 X2.6861 Y2.0054
N20060 X2.7117 Y1.9954
N20065 X2.7375 Y1.9859
N20070 X2.7635 Y1.977
N20075 X2.7897 Y1.9687
N20080 X2.816 Y1.961
N20085 X2.8426 Y1.9538
N20090 X2.8692 Y1.9473
N20095 X2.8961 Y1.9413
N20100 X2.923 Y1.936
N20105 X2.9501 Y1.9312
N20110 X2.9772 Y1.9271
N20115 X3.0045 Y1.9235
N20120 X3.0318 Y1.9206
N20125 X3.0592 Y1.9183
N20130 X3.0866 Y1.9166
N20135 X3.114 Y1.9155
N20140 X3.1415 Y1.915
N20145 X3.169 Y1.9151
N20150 X3.1965 Y1.9158
N20155 X3.2239 Y1.9172
N20160 X3.2513 Y1.9191
N20165 X3.2787 Y1.9217
N20170 X3.306 Y1.9248
N20175 X3.3332 Y1.9286
N20180 X3.3603 Y1.933
N20185 X3.3873 Y1.9379
N20190 X3.4142 Y1.9435
N20195 X3.441 Y1.9496
N20200 X3.4676 Y1.9564
N20205 X3.4941 Y1.9637
N20210 X3.5204 Y1.9716
N20215 X3.5466 Y1.9801
N20220 X3.5725 Y1.9892
N20225 X3.5982 Y1.9988
N20230 X3.6237 Y2.009
N20235 X3.649 Y2.0198
N20240 X3.674 Y2.0312
N20245 X3.6988 Y2.043
N20250 X3.7233 Y2.0555
N20255 X3.7475 Y2.0684
N20260 X3.7714 Y2.082
N20265 X3.7951 Y2.096
N20270 X3.8184 Y2.1105
N20275 X3.8413 Y2.1256
N20280 X3.864 Y2.1412
N20285 X3.8863 Y2.1572
N20290 X3.9082 Y2.1737
N20295 X3.9298 Y2.1908
N20300 X3.951 Y2.2082
N20305 X3.9718 Y2.2262
N20310 X3.9922 Y2.2446
N20315 X4.0122 Y2.2634
N20320 X4.0318 Y2.2826
N20325 X4.051 Y2.3023
N20330 X4.0697 Y2.3224
N20335 X4.088 Y2.3429
N20340 X4.1058 Y2.3638
N20345 X4.1232 Y2.3851
N20350 X4.1401 Y2.4068
N20355 X4.1565 Y2.4288
N20360 X4.1724 Y2.4512
N20365 X4.1879 Y2.4739
N20370 X4.2028 Y2.497
N20375 X4.2172 Y2.5204
N20380 X4.2311 Y2.5441
N20385 X4.2445 Y2.5681
N20390 X4.2574 Y2.5924
N20395 X4.2697 Y2.6169
N20400 X4.2815 Y2.6418
N20405 X4.2927 Y2.6668
N20410 X4.3034 Y2.6921
N20415 X4.3135 Y2.7177
N20420 X4.3231 Y2.7434
N20425 X4.3321 Y2.7694
N20430 X4.3405 Y2.7955
N20435 X4.3484 Y2.8219
N20440 X4.3557 Y2.8484
N20445 X4.3624 Y2.875
N20450 X4.3685 Y2.9018
N20455 X4.3741 Y2.9287
N20460 X4.379 Y2.9557
N20465 X4.3834 Y2.9828
N20470 X4.3872 Y3.01
N20475 X4.3904 Y3.0373
N20480 X4.3929 Y3.0647
N20485 X4.3949 Y3.0921
N20490 X4.3963 Y3.1195
N20495 X4.3971 Y3.147
N20500 X4.3973 Y3.1745
N20505 X4.3968 Y3.2019
N20510 X4.3958 Y3.2294
N20515 X4.3942 Y3.2568
N20520 X4.3919 Y3.2842
N20525 X4.3891 Y3.3115
N20530 X4.3856 Y3.3388
N20535 X4.3816 Y3.366
N20540 X4.377 Y3.3931
N20545 X4.3718 Y3.42
N20550 X4.366 Y3.4469
N20555 X4.3596 Y3.4736
N20560 X4.3526 Y3.5002
N20565 X4.3451 Y3.5266
N20570 X4.3369 Y3.5528
N20575 X4.3282 Y3.5789
N20580 X4.319 Y3.6048
N20585 X4.3092 Y3.6304
N20590 X4.2988 Y3.6559
N20595 X4.2878 Y3.6811
N20600 X4.2763 Y3.706
N20605 X4.2643 Y3.7307
N20610 X4.2517 Y3.7552
N20615 X4.2386 Y3.7793
N20620 X4.225 Y3.8032
N20625 X4.2109 Y3.8267
N20630 X4.1962 Y3.85
N20635 X4.181 Y3.8729
N20640 X4.1654 Y3.8954
N20645 X4.1492 Y3.9176
N20650 X4.1325 Y3.9395
N20655 X4.1154 Y3.961
N20660 X4.0978 Y3.9821
N20665 X4.0798 Y4.0028
N20670 X4.0613 Y4.0231
N20675 X4.0423 Y4.043
N20680 X4.023 Y4.0625
N20685 X4.0032 Y4.0816
N20690 X3.983 Y4.1002
N20695 X3.9624 Y4.1184
N20700 X3.9414 Y4.1361
N20705 X3.92 Y4.1534
N20710 X3.8983 Y4.1702
N20715 X3.8762 Y4.1865
N20720 X3.8537 Y4.2023
N20725 X3.831 Y4.2177
N20730 X3.8078 Y4.2325
N20735 X3.7844 Y4.2468
N20740 X3.7606 Y4.2607
N20745 X3.7366 Y4.2739
N20750 X3.7123 Y4.2867
N20755 X3.6877 Y4.2989
N20760 X3.6628 Y4.3106
N20765 X3.6377 Y4.3217
N20770 X3.6123 Y4.3323
N20775 X3.5867 Y4.3423
N20780 X3.5609 Y4.3518
N20785 X3.5349 Y4.3607
N20790 X3.5088 Y4.369
N20795 X3.4824 Y4.3768
N20800 X3.4559 Y4.3839
N20805 X3.4292 Y4.3905
N20810 X3.4024 Y4.3966
N20815 X3.3755 Y4.402
N20820 X3.3484 Y4.4069
N20825 X3.3213 Y4.4111
N20830 X3.2941 Y4.4148
N20835 X3.2668 Y4.4179
N20840 X3.2394 Y4.4204
N20845 X3.212 Y4.4223
N20850 X3.1845 Y4.4236
N20855 X3.1571 Y4.4243
N20860 X3.1296 Y4.4244
N20865 X3.1021 Y4.4239
N20870 X3.0747 Y4.4228
N20875 X3.0472 Y4.4211
N20880 X3.0199 Y4.4189
N20885 X2.9925 Y4.416
N20890 X2.9653 Y4.4125
N20895 X2.9381 Y4.4085
N20900 X2.911 Y4.4038
N20905 X2.8841 Y4.3986
N20910 X2.8572 Y4.3927
N20915 X2.8305 Y4.3863
N20920 X2.8039 Y4.3793
N20925 X2.7775 Y4.3718
N20930 X2.7513 Y4.3636
N20935 X2.7252 Y4.3549
N20940 X2.6993 Y4.3457
N20945 X2.6737 Y4.3359
N20950 X2.6482 Y4.3255
N20955 X2.623 Y4.3146
N20960 X2.598 Y4.3032
N20965 X2.5733 Y4.2912
N20970 X2.5489 Y4.2787
N20975 X2.5247 Y4.2656
N20980 X2.5008 Y4.2521
N20985 X2.4772 Y4.238
N20990 X2.4539 Y4.2234
N20995 X2.4309 Y4.2084
N21000 X2.4083 Y4.1928
N21005 X2.386 Y4.1767
N21010 X2.364 Y4.1602
N21015 X2.3424 Y4.1432
N21020 X2.3212 Y4.1257
N21025 X2.3004 Y4.1078
N21030 X2.28 Y4.0894
N21035 X2.26 Y4.0706
N21040 X2.2403 Y4.0514
N21045 X2.2212 Y4.0317
N21050 X2.2024 Y4.0117
N21055 X2.1841 Y3.9912
N21060 X2.1662 Y3.9703
N21065 X2.1487 Y3.9491
N21070 X2.1318 Y3.9275
N21075 X2.1153 Y3.9055
N21080 X2.0992 Y3.8832
N21085 X2.0837 Y3.8606
N21090 X2.0686 Y3.8376
N21095 X2.054 Y3.8143
N21100 X2.04 Y3.7907
N21105 X2.0264 Y3.7668
N21110 X2.0134 Y3.7426
N21115 X2.0009 Y3.7182
N21120 X1.9889 Y3.6935
N21125 X1.9774 Y3.6685
N21130 X1.9665 Y3.6433
N21135 X1.9561 Y3.6178
N21140 X1.9463 Y3.5922
N21145 X1.937 Y3.5663
N21150 X1.9283 Y3.5402
N21155 X1.9202 Y3.514
N21160 X1.9126 Y3.4876
N21165 X1.9056 Y3.461
N21170 X1.8992 Y3.4343
N21175 X1.8934 Y3.4075
N21180 X1.8881 Y3.3805
N21185 X1.8834 Y3.3534
N21190 X1.8793 Y3.3263
N21195 X1.8758 Y3.299
N21200 X1.8728 Y3.2717
N21205 X1.8705 Y3.2443
N21210 X1.8687 Y3.2169
N21215 X1.8675 Y3.1894
N21220 X1.8669 Y3.162
N21225 Y3.1345
N21230 X1.8675 Y3.107
N21235 X1.8687 Y3.0796
N21240 X1.8704 Y3.0522
N21245 X1.8727 Y3.0248
N21250 X1.8757 Y2.9975
N21255 X1.8792 Y2.9702
N21260 X1.8832 Y2.9431
N21265 X1.8879 Y2.916
N21270 X1.8932 Y2.889
N21275 X1.899 Y2.8622
N21280 X1.9054 Y2.8354
N21285 X1.9124 Y2.8089
N21290 X1.9199 Y2.7825
N21295 X1.9281 Y2.7562
N21300 X1.9367 Y2.7301
N21305 X1.946 Y2.7043
N21310 X1.9558 Y2.6786
N21315 X1.9661 Y2.6532
N21320 X1.977 Y2.6279
N21325 X1.9885 Y2.6029
N21330 X2.0004 Y2.5782
N21335 X2.0129 Y2.5537
N21340 X2.0259 Y2.5295
N21345 X2.0394 Y2.5056
N21350 X2.0535 Y2.482
N21355 X2.068 Y2.4587
N21360 X2.083 Y2.4357
N21365 X2.0985 Y2.413
N21370 X2.1145 Y2.3906
N21375 X2.131 Y2.3686
N21380 X2.1479 Y2.347
N21385 X2.1653 Y2.3257
N21390 X2.1831 Y2.3048
N21395 X2.2014 Y2.2843
N21400 X2.2201 Y2.2642
N21405 X2.2393 Y2.2445
N21410 X2.2589 Y2.2252
N21415 X2.2788 Y2.2064
N21420 X2.2992 Y2.188
N21425 X2.32 Y2.17
N21430 X2.3412 Y2.1525
N21435 X2.3627 Y2.1354
N21440 X2.3846 Y2.1188
N21445 X2.4068 Y2.1027
N21450 X2.4294 Y2.087
N21455 X2.4523 Y2.0719
N21460 X2.4756 Y2.0572
N21465 X2.4991 Y2.043
N21470 X2.5229 Y2.0294
N21475 X2.5471 Y2.0162
N21480 X2.5714 Y2.0036
N21485 X2.5961 Y1.9915
N21490 X2.621 Y1.9799
N21495 X2.6462 Y1.9688
N21500 X2.6716 Y1.9583
N21505 X2.6972 Y1.9483
N21510 X2.723 Y1.9389
N21515 X2.749 Y1.93
N21520 X2.7752 Y1.9217
N21525 X2.8015 Y1.914
N21530 X2.828 Y1.9068
N21535 X2.8547 Y1.9002
N21540 X2.8815 Y1.8941
N21545 X2.9084 Y1.8887
N21550 X2.9355 Y1.8838
N21555 X2.9626 Y1.8795
N21560 X2.9898 Y1.8758
N21565 X3.0171 Y1.8727
N21570 X3.0445 Y1.8701
N21575 X3.0719 Y1.8682
N21580 X3.0993 Y1.8668
N21585 X3.1268 Y1.866
N21590 X3.1543 Y1.8658
N21595 X3.1817 Y1.8662
N21600 X3.2092 Y1.8672
N21605 X3.2366 Y1.8688
N21610 X3.264 Y1.8709
N21615 X3.2914 Y1.8736
N21620 X3.3186 Y1.8769
N21625 X3.3458 Y1.8808
N21630 X3.3729 Y1.8853
N21635 X3.4 Y1.8903
N21640 X3.4268 Y1.8959
N21645 X3.4536 Y1.9021
N21650 X3.4803 Y1.9089
N21655 X3.5067 Y1.9162
N21660 X3.5331 Y1.924
N21665 X3.5592 Y1.9325
N21670 X3.5852 Y1.9415
N21675 X3.6109 Y1.951
N21680 X3.6365 Y1.9611
N21685 X3.6618 Y1.9718
N21690 X3.6869 Y1.9829
N21695 X3.7118 Y1.9947
N21700 X3.7364 Y2.0069
N21705 X3.7607 Y2.0197
N21710 X3.7847 Y2.0329
N21715 X3.8085 Y2.0467
N21720 X3.832 Y2.061
N21725 X3.8551 Y2.0758
N21730 X3.878 Y2.0911
N21735 X3.9005 Y2.1068
N21740 X3.9227 Y2.123
N21745 X3.9445 Y2.1397
N21750 X3.966 Y2.1568
N21755 X3.9871 Y2.1744
N21760 X4.0078 Y2.1924
N21765 X4.0282 Y2.2109
N21770 X4.0482 Y2.2297
N21775 X4.0677 Y2.249
N21780 X4.0869 Y2.2687
N21785 X4.1056 Y2.2888
N21790 X4.1239 Y2.3093
N21795 X4.1418 Y2.3302
N21800 X4.1592 Y2.3514
N21805 X4.1762 Y2.373
N21810 X4.1927 Y2.395
N21815 X4.2088 Y2.4173
N21820 X4.2243 Y2.4399
N21825 X4.2394 Y2.4629
N21830 X4.254 Y2.4862
N21835 X4.2681 Y2.5098
N21840 X4.2817 Y2.5336
N21845 X4.2948 Y2.5578
N21850 X4.3074 Y2.5822
N21855 X4.3194 Y2.6069
N21860 X4.331 Y2.6318
N21865 X4.342 Y2.657
N21870 X4.3525 Y2.6824
N21875 X4.3624 Y2.708
N21880 X4.3718 Y2.7338
N21885 X4.3807 Y2.7598
N21890 X4.389 Y2.786
N21895 X4.3968 Y2.8124
N21900 X4.404 Y2.8389
N21905 X4.4107 Y2.8655
N21910 X4.4168 Y2.8923
N21915 X4.4223 Y2.9192
N21920 X4.4273 Y2.9462
N21925 X4.4317 Y2.9734
N21930 X4.4356 Y3.0006
N21935 X4.4388 Y3.0278
N21940 X4.4415 Y3.0552
N21945 X4.4436 Y3.0826
N21950 X4.4451 Y3.11
N21955 X4.4461 Y3.1375
N21960 X4.4464 Y3.1649
N21965 X4.4462 Y3.1924
N21970 X4.4454 Y3.2199
N21975 X4.444 Y3.2473
N21980 X4.4421 Y3.2747
N21985 X4.4395 Y3.3021
N21990 X4.4364 Y3.3294
N21995 X4.4328 Y3.3566
N22000 X4.4285 Y3.3837
N22005 X4.4237 Y3.4108
N22010 X4.4183 Y3.4377
N22015 X4.4123 Y3.4646
N22020 X4.4058 Y3.4912
N22025 X4.3987 Y3.5178
N22030 X4.3911 Y3.5442
N22035 X4.3829 Y3.5704
N22040 X4.3742 Y3.5965
N22045 X4.3649 Y3.6223
N22050 X4.3551 Y3.648
N22055 X4.3447 Y3.6734
N22060 X4.3338 Y3.6987
N22065 X4.3224 Y3.7237
N22070 X4.3105 Y3.7484
N22075 X4.298 Y3.7729
N22080 X4.285 Y3.7971
N22085 X4.2715 Y3.821
N22090 X4.2575 Y3.8447
N22095 X4.243 Y3.868
N22100 X4.2281 Y3.891
N22105 X4.2126 Y3.9137
N22110 X4.1966 Y3.9361
N22115 X4.1802 Y3.9581
N22120 X4.1633 Y3.9798
N22125 X4.146 Y4.0011
N22130 X4.1282 Y4.0221
N22135 X4.11 Y4.0427
N22140 X4.0914 Y4.0629
N22145 X4.0723 Y4.0826
N22150 X4.0529 Y4.102
N22155 X4.033 Y4.121
N22160 X4.0127 Y4.1396
N22165 X3.9921 Y4.1577
N22170 X3.9711 Y4.1754
N22175 X3.9497 Y4.1926
N22180 X3.9279 Y4.2094
N22185 X3.9058 Y4.2258
N22190 X3.8834 Y4.2416
N22195 X3.8607 Y4.257
N22200 X3.8376 Y4.2719
N22205 X3.8142 Y4.2863
N22210 X3.7905 Y4.3003
N22215 X3.7665 Y4.3137
N22220 X3.7423 Y4.3266
N22225 X3.7177 Y4.339
N22230 X3.693 Y4.3508
N22235 X3.6679 Y4.3622
N22240 X3.6427 Y4.373
N22245 X3.6172 Y4.3833
N22250 X3.5915 Y4.393
N22255 X3.5656 Y4.4022
N22260 X3.5396 Y4.4109
N22265 X3.5133 Y4.419
N22270 X3.4869 Y4.4265
N22275 X3.4603 Y4.4335
N22280 X3.4336 Y4.44
N22285 X3.4068 Y4.4459
N22290 X3.3798 Y4.4512
N22295 X3.3528 Y4.456
N22300 X3.3256 Y4.4602
N22305 X3.2984 Y4.4638
N22310 X3.2711 Y4.4669
N22315 X3.2437 Y4.4694
N22320 X3.2163 Y4.4713
N22325 X3.1889 Y4.4726
N22330 X3.1614 Y4.4734
N22335 X3.1339 Y4.4736
N22340 X3.1065 Y4.4732
N22345 X3.079 Y4.4723
N22350 X3.0516 Y4.4708
N22355 X3.0242 Y4.4686
N22360 X2.9968 Y4.466
N22365 X2.9696 Y4.4627
N22370 X2.9423 Y4.4589
N22375 X2.9152 Y4.4545
N22380 X2.8882 Y4.4495
N22385 X2.8613 Y4.444
N22390 X2.8345 Y4.4379
N22395 X2.8078 Y4.4313
N22400 X2.7813 Y4.4241
N22405 X2.755 Y4.4163
N22410 X2.7288 Y4.408
N22415 X2.7028 Y4.3992
N22420 X2.6769 Y4.3898
N22425 X2.6513 Y4.3799
